(G-code generated by FlatCAM Evo vUnstable - Version Date: 2022/4/31)

(Name: lasko_ir_remote-B_Cu.gbr_iso_combined_cnc)
(Type: G-code from Geometry)
(Units: MM)

(Created on Wednesday, 20 September 2023 at 07:24)

(This preprocessor is the default preprocessor.)
(It is made to work with MACH3 compatible motion controllers.)

(TOOL DIAMETER: 0.4536 mm)
(Feedrate_XY: 120.0 mm/min)
(Feedrate_Z: 60.0 mm/min)
(Feedrate rapids 1500.0 mm/min)

(Z_Cut: -0.1 mm)
(DepthPerCut: 0.025 mm <=>4 passes)
(Z_Move: 2.0 mm)
(Z Start: None mm)
(Z End: 15.0 mm)
(X,Y End: 0.0000, 0.0000 mm)
(Steps per circle: 16)
(Preprocessor Geometry: default)

(X range:  -41.2263 ...   -0.7737  mm)
(Y range:  -97.2263 ...   -0.7737  mm)

(Spindle Speed: 13000.0 RPM)
G21
G90
G94

G01 F120.00
G00 Z2.0000

M03 S13000.0
G4 P1.0
G01 F120.00
G00 X-5.5864 Y-5.7125
G01 F60.00
G01 Z-0.0250
G01 F120.00
G01 X-5.3983 Y-5.8578
G01 X-5.1910 Y-5.9741
G01 X-4.9690 Y-6.0590
G01 X-4.7370 Y-6.1107
G01 X-4.5593 Y-6.1237
G01 X-4.3812 Y-6.1237
G01 X-4.1460 Y-6.0891
G01 X-3.9184 Y-6.0206
G01 X-3.7032 Y-5.9197
G01 X-3.5050 Y-5.7886
G01 X-3.3280 Y-5.6300
G01 X-3.1759 Y-5.4473
G01 X-3.0521 Y-5.2444
G01 X-2.9592 Y-5.0257
G01 X-2.8990 Y-4.7957
G01 X-2.8730 Y-4.5595
G01 X-2.8817 Y-4.3219
G01 X-2.9249 Y-4.0882
G01 X-3.0016 Y-3.8633
G01 X-3.1103 Y-3.6519
G01 X-3.2486 Y-3.4586
G01 X-3.4136 Y-3.2875
G01 X-3.6017 Y-3.1422
G01 X-3.8090 Y-3.0259
G01 X-4.0310 Y-2.9410
G01 X-4.2630 Y-2.8893
G01 X-4.4407 Y-2.8763
G01 X-4.6188 Y-2.8763
G01 X-4.8540 Y-2.9109
G01 X-5.0816 Y-2.9794
G01 X-5.2968 Y-3.0803
G01 X-5.4950 Y-3.2114
G01 X-5.6720 Y-3.3700
G01 X-5.8241 Y-3.5527
G01 X-5.9479 Y-3.7556
G01 X-6.0408 Y-3.9743
G01 X-6.1010 Y-4.2043
G01 X-6.1270 Y-4.4405
G01 X-6.1183 Y-4.6781
G01 X-6.0751 Y-4.9118
G01 X-5.9984 Y-5.1367
G01 X-5.8897 Y-5.3481
G01 X-5.7514 Y-5.5414
G01 X-5.5864 Y-5.7125
G00 X-5.5864 Y-5.7125
G01 F60.00
G01 Z-0.0500
G01 F120.00
G01 X-5.3983 Y-5.8578
G01 X-5.1910 Y-5.9741
G01 X-4.9690 Y-6.0590
G01 X-4.7370 Y-6.1107
G01 X-4.5593 Y-6.1237
G01 X-4.3812 Y-6.1237
G01 X-4.1460 Y-6.0891
G01 X-3.9184 Y-6.0206
G01 X-3.7032 Y-5.9197
G01 X-3.5050 Y-5.7886
G01 X-3.3280 Y-5.6300
G01 X-3.1759 Y-5.4473
G01 X-3.0521 Y-5.2444
G01 X-2.9592 Y-5.0257
G01 X-2.8990 Y-4.7957
G01 X-2.8730 Y-4.5595
G01 X-2.8817 Y-4.3219
G01 X-2.9249 Y-4.0882
G01 X-3.0016 Y-3.8633
G01 X-3.1103 Y-3.6519
G01 X-3.2486 Y-3.4586
G01 X-3.4136 Y-3.2875
G01 X-3.6017 Y-3.1422
G01 X-3.8090 Y-3.0259
G01 X-4.0310 Y-2.9410
G01 X-4.2630 Y-2.8893
G01 X-4.4407 Y-2.8763
G01 X-4.6188 Y-2.8763
G01 X-4.8540 Y-2.9109
G01 X-5.0816 Y-2.9794
G01 X-5.2968 Y-3.0803
G01 X-5.4950 Y-3.2114
G01 X-5.6720 Y-3.3700
G01 X-5.8241 Y-3.5527
G01 X-5.9479 Y-3.7556
G01 X-6.0408 Y-3.9743
G01 X-6.1010 Y-4.2043
G01 X-6.1270 Y-4.4405
G01 X-6.1183 Y-4.6781
G01 X-6.0751 Y-4.9118
G01 X-5.9984 Y-5.1367
G01 X-5.8897 Y-5.3481
G01 X-5.7514 Y-5.5414
G01 X-5.5864 Y-5.7125
G00 X-5.5864 Y-5.7125
G01 F60.00
G01 Z-0.0750
G01 F120.00
G01 X-5.3983 Y-5.8578
G01 X-5.1910 Y-5.9741
G01 X-4.9690 Y-6.0590
G01 X-4.7370 Y-6.1107
G01 X-4.5593 Y-6.1237
G01 X-4.3812 Y-6.1237
G01 X-4.1460 Y-6.0891
G01 X-3.9184 Y-6.0206
G01 X-3.7032 Y-5.9197
G01 X-3.5050 Y-5.7886
G01 X-3.3280 Y-5.6300
G01 X-3.1759 Y-5.4473
G01 X-3.0521 Y-5.2444
G01 X-2.9592 Y-5.0257
G01 X-2.8990 Y-4.7957
G01 X-2.8730 Y-4.5595
G01 X-2.8817 Y-4.3219
G01 X-2.9249 Y-4.0882
G01 X-3.0016 Y-3.8633
G01 X-3.1103 Y-3.6519
G01 X-3.2486 Y-3.4586
G01 X-3.4136 Y-3.2875
G01 X-3.6017 Y-3.1422
G01 X-3.8090 Y-3.0259
G01 X-4.0310 Y-2.9410
G01 X-4.2630 Y-2.8893
G01 X-4.4407 Y-2.8763
G01 X-4.6188 Y-2.8763
G01 X-4.8540 Y-2.9109
G01 X-5.0816 Y-2.9794
G01 X-5.2968 Y-3.0803
G01 X-5.4950 Y-3.2114
G01 X-5.6720 Y-3.3700
G01 X-5.8241 Y-3.5527
G01 X-5.9479 Y-3.7556
G01 X-6.0408 Y-3.9743
G01 X-6.1010 Y-4.2043
G01 X-6.1270 Y-4.4405
G01 X-6.1183 Y-4.6781
G01 X-6.0751 Y-4.9118
G01 X-5.9984 Y-5.1367
G01 X-5.8897 Y-5.3481
G01 X-5.7514 Y-5.5414
G01 X-5.5864 Y-5.7125
G00 X-5.5864 Y-5.7125
G01 F60.00
G01 Z-0.1000
G01 F120.00
G01 X-5.3983 Y-5.8578
G01 X-5.1910 Y-5.9741
G01 X-4.9690 Y-6.0590
G01 X-4.7370 Y-6.1107
G01 X-4.5593 Y-6.1237
G01 X-4.3812 Y-6.1237
G01 X-4.1460 Y-6.0891
G01 X-3.9184 Y-6.0206
G01 X-3.7032 Y-5.9197
G01 X-3.5050 Y-5.7886
G01 X-3.3280 Y-5.6300
G01 X-3.1759 Y-5.4473
G01 X-3.0521 Y-5.2444
G01 X-2.9592 Y-5.0257
G01 X-2.8990 Y-4.7957
G01 X-2.8730 Y-4.5595
G01 X-2.8817 Y-4.3219
G01 X-2.9249 Y-4.0882
G01 X-3.0016 Y-3.8633
G01 X-3.1103 Y-3.6519
G01 X-3.2486 Y-3.4586
G01 X-3.4136 Y-3.2875
G01 X-3.6017 Y-3.1422
G01 X-3.8090 Y-3.0259
G01 X-4.0310 Y-2.9410
G01 X-4.2630 Y-2.8893
G01 X-4.4407 Y-2.8763
G01 X-4.6188 Y-2.8763
G01 X-4.8540 Y-2.9109
G01 X-5.0816 Y-2.9794
G01 X-5.2968 Y-3.0803
G01 X-5.4950 Y-3.2114
G01 X-5.6720 Y-3.3700
G01 X-5.8241 Y-3.5527
G01 X-5.9479 Y-3.7556
G01 X-6.0408 Y-3.9743
G01 X-6.1010 Y-4.2043
G01 X-6.1270 Y-4.4405
G01 X-6.1183 Y-4.6781
G01 X-6.0751 Y-4.9118
G01 X-5.9984 Y-5.1367
G01 X-5.8897 Y-5.3481
G01 X-5.7514 Y-5.5414
G01 X-5.5864 Y-5.7125
G00 Z2.0000
G00 X-18.8045 Y-3.1101
G01 F60.00
G01 Z-0.0250
G01 F120.00
G01 X-18.7391 Y-3.0020
G01 X-17.8308 Y-3.0020
G01 X-16.4518 Y-4.3809
G01 X-16.4496 Y-4.6330
G01 X-16.4165 Y-4.7652
G01 X-16.3736 Y-4.8455
G01 X-16.3158 Y-4.9158
G01 X-16.2455 Y-4.9736
G01 X-16.1754 Y-5.0119
G01 X-16.0781 Y-5.0429
G01 X-15.9986 Y-5.0515
G01 X-15.5069 Y-5.0517
G01 X-15.4219 Y-5.0429
G01 X-15.3036 Y-5.0020
G01 X-15.2180 Y-4.9464
G01 X-15.1467 Y-4.8733
G01 X-15.0881 Y-4.7754
G01 X-15.0596 Y-4.6889
G01 X-15.0496 Y-4.6219
G01 X-15.0496 Y-4.0531
G01 X-15.0596 Y-3.9861
G01 X-15.0835 Y-3.9098
G01 X-15.1536 Y-3.7930
G01 X-15.2545 Y-3.7014
G01 X-15.3777 Y-3.6432
G01 X-15.4781 Y-3.6246
G01 X-15.7191 Y-3.6232
G01 X-17.2399 Y-2.1024
G01 X-17.2870 Y-2.0608
G01 X-17.3641 Y-2.0103
G01 X-17.4703 Y-1.9678
G01 X-17.6014 Y-1.9483
G01 X-18.7391 Y-1.9480
G01 X-18.8045 Y-1.8399
G01 X-18.9306 Y-1.6863
G01 X-19.0202 Y-1.6040
G01 X-19.1184 Y-1.5321
G01 X-19.2936 Y-1.4385
G01 X-19.4079 Y-1.3967
G01 X-19.5261 Y-1.3679
G01 X-19.7239 Y-1.3485
G01 X-19.8454 Y-1.3536
G01 X-19.9657 Y-1.3723
G01 X-20.1558 Y-1.4300
G01 X-20.2662 Y-1.4813
G01 X-20.3701 Y-1.5445
G01 X-20.5237 Y-1.6706
G01 X-20.6060 Y-1.7602
G01 X-20.6719 Y-1.8490
G01 X-20.7287 Y-1.9438
G01 X-20.7760 Y-2.0438
G01 X-20.8133 Y-2.1479
G01 X-20.8401 Y-2.2552
G01 X-20.8564 Y-2.3646
G01 X-20.8618 Y-2.4750
G01 X-20.8564 Y-2.5854
G01 X-20.8401 Y-2.6948
G01 X-20.8133 Y-2.8021
G01 X-20.7760 Y-2.9062
G01 X-20.7287 Y-3.0062
G01 X-20.6719 Y-3.1010
G01 X-20.6060 Y-3.1898
G01 X-20.5318 Y-3.2718
G01 X-20.4498 Y-3.3460
G01 X-20.3610 Y-3.4119
G01 X-20.2662 Y-3.4687
G01 X-20.1662 Y-3.5160
G01 X-20.0621 Y-3.5533
G01 X-19.9548 Y-3.5801
G01 X-19.8454 Y-3.5964
G01 X-19.7350 Y-3.6018
G01 X-19.6246 Y-3.5964
G01 X-19.5152 Y-3.5801
G01 X-19.4079 Y-3.5533
G01 X-19.3038 Y-3.5160
G01 X-19.2038 Y-3.4687
G01 X-19.1090 Y-3.4119
G01 X-19.0202 Y-3.3460
G01 X-18.9382 Y-3.2718
G01 X-18.8045 Y-3.1101
G00 X-18.8045 Y-3.1101
G01 F60.00
G01 Z-0.0500
G01 F120.00
G01 X-18.7391 Y-3.0020
G01 X-17.8308 Y-3.0020
G01 X-16.4518 Y-4.3809
G01 X-16.4496 Y-4.6330
G01 X-16.4165 Y-4.7652
G01 X-16.3736 Y-4.8455
G01 X-16.3158 Y-4.9158
G01 X-16.2455 Y-4.9736
G01 X-16.1754 Y-5.0119
G01 X-16.0781 Y-5.0429
G01 X-15.9986 Y-5.0515
G01 X-15.5069 Y-5.0517
G01 X-15.4219 Y-5.0429
G01 X-15.3036 Y-5.0020
G01 X-15.2180 Y-4.9464
G01 X-15.1467 Y-4.8733
G01 X-15.0881 Y-4.7754
G01 X-15.0596 Y-4.6889
G01 X-15.0496 Y-4.6219
G01 X-15.0496 Y-4.0531
G01 X-15.0596 Y-3.9861
G01 X-15.0835 Y-3.9098
G01 X-15.1536 Y-3.7930
G01 X-15.2545 Y-3.7014
G01 X-15.3777 Y-3.6432
G01 X-15.4781 Y-3.6246
G01 X-15.7191 Y-3.6232
G01 X-17.2399 Y-2.1024
G01 X-17.2870 Y-2.0608
G01 X-17.3641 Y-2.0103
G01 X-17.4703 Y-1.9678
G01 X-17.6014 Y-1.9483
G01 X-18.7391 Y-1.9480
G01 X-18.8045 Y-1.8399
G01 X-18.9306 Y-1.6863
G01 X-19.0202 Y-1.6040
G01 X-19.1184 Y-1.5321
G01 X-19.2936 Y-1.4385
G01 X-19.4079 Y-1.3967
G01 X-19.5261 Y-1.3679
G01 X-19.7239 Y-1.3485
G01 X-19.8454 Y-1.3536
G01 X-19.9657 Y-1.3723
G01 X-20.1558 Y-1.4300
G01 X-20.2662 Y-1.4813
G01 X-20.3701 Y-1.5445
G01 X-20.5237 Y-1.6706
G01 X-20.6060 Y-1.7602
G01 X-20.6719 Y-1.8490
G01 X-20.7287 Y-1.9438
G01 X-20.7760 Y-2.0438
G01 X-20.8133 Y-2.1479
G01 X-20.8401 Y-2.2552
G01 X-20.8564 Y-2.3646
G01 X-20.8618 Y-2.4750
G01 X-20.8564 Y-2.5854
G01 X-20.8401 Y-2.6948
G01 X-20.8133 Y-2.8021
G01 X-20.7760 Y-2.9062
G01 X-20.7287 Y-3.0062
G01 X-20.6719 Y-3.1010
G01 X-20.6060 Y-3.1898
G01 X-20.5318 Y-3.2718
G01 X-20.4498 Y-3.3460
G01 X-20.3610 Y-3.4119
G01 X-20.2662 Y-3.4687
G01 X-20.1662 Y-3.5160
G01 X-20.0621 Y-3.5533
G01 X-19.9548 Y-3.5801
G01 X-19.8454 Y-3.5964
G01 X-19.7350 Y-3.6018
G01 X-19.6246 Y-3.5964
G01 X-19.5152 Y-3.5801
G01 X-19.4079 Y-3.5533
G01 X-19.3038 Y-3.5160
G01 X-19.2038 Y-3.4687
G01 X-19.1090 Y-3.4119
G01 X-19.0202 Y-3.3460
G01 X-18.9382 Y-3.2718
G01 X-18.8045 Y-3.1101
G00 X-18.8045 Y-3.1101
G01 F60.00
G01 Z-0.0750
G01 F120.00
G01 X-18.7391 Y-3.0020
G01 X-17.8308 Y-3.0020
G01 X-16.4518 Y-4.3809
G01 X-16.4496 Y-4.6330
G01 X-16.4165 Y-4.7652
G01 X-16.3736 Y-4.8455
G01 X-16.3158 Y-4.9158
G01 X-16.2455 Y-4.9736
G01 X-16.1754 Y-5.0119
G01 X-16.0781 Y-5.0429
G01 X-15.9986 Y-5.0515
G01 X-15.5069 Y-5.0517
G01 X-15.4219 Y-5.0429
G01 X-15.3036 Y-5.0020
G01 X-15.2180 Y-4.9464
G01 X-15.1467 Y-4.8733
G01 X-15.0881 Y-4.7754
G01 X-15.0596 Y-4.6889
G01 X-15.0496 Y-4.6219
G01 X-15.0496 Y-4.0531
G01 X-15.0596 Y-3.9861
G01 X-15.0835 Y-3.9098
G01 X-15.1536 Y-3.7930
G01 X-15.2545 Y-3.7014
G01 X-15.3777 Y-3.6432
G01 X-15.4781 Y-3.6246
G01 X-15.7191 Y-3.6232
G01 X-17.2399 Y-2.1024
G01 X-17.2870 Y-2.0608
G01 X-17.3641 Y-2.0103
G01 X-17.4703 Y-1.9678
G01 X-17.6014 Y-1.9483
G01 X-18.7391 Y-1.9480
G01 X-18.8045 Y-1.8399
G01 X-18.9306 Y-1.6863
G01 X-19.0202 Y-1.6040
G01 X-19.1184 Y-1.5321
G01 X-19.2936 Y-1.4385
G01 X-19.4079 Y-1.3967
G01 X-19.5261 Y-1.3679
G01 X-19.7239 Y-1.3485
G01 X-19.8454 Y-1.3536
G01 X-19.9657 Y-1.3723
G01 X-20.1558 Y-1.4300
G01 X-20.2662 Y-1.4813
G01 X-20.3701 Y-1.5445
G01 X-20.5237 Y-1.6706
G01 X-20.6060 Y-1.7602
G01 X-20.6719 Y-1.8490
G01 X-20.7287 Y-1.9438
G01 X-20.7760 Y-2.0438
G01 X-20.8133 Y-2.1479
G01 X-20.8401 Y-2.2552
G01 X-20.8564 Y-2.3646
G01 X-20.8618 Y-2.4750
G01 X-20.8564 Y-2.5854
G01 X-20.8401 Y-2.6948
G01 X-20.8133 Y-2.8021
G01 X-20.7760 Y-2.9062
G01 X-20.7287 Y-3.0062
G01 X-20.6719 Y-3.1010
G01 X-20.6060 Y-3.1898
G01 X-20.5318 Y-3.2718
G01 X-20.4498 Y-3.3460
G01 X-20.3610 Y-3.4119
G01 X-20.2662 Y-3.4687
G01 X-20.1662 Y-3.5160
G01 X-20.0621 Y-3.5533
G01 X-19.9548 Y-3.5801
G01 X-19.8454 Y-3.5964
G01 X-19.7350 Y-3.6018
G01 X-19.6246 Y-3.5964
G01 X-19.5152 Y-3.5801
G01 X-19.4079 Y-3.5533
G01 X-19.3038 Y-3.5160
G01 X-19.2038 Y-3.4687
G01 X-19.1090 Y-3.4119
G01 X-19.0202 Y-3.3460
G01 X-18.9382 Y-3.2718
G01 X-18.8045 Y-3.1101
G00 X-18.8045 Y-3.1101
G01 F60.00
G01 Z-0.1000
G01 F120.00
G01 X-18.7391 Y-3.0020
G01 X-17.8308 Y-3.0020
G01 X-16.4518 Y-4.3809
G01 X-16.4496 Y-4.6330
G01 X-16.4165 Y-4.7652
G01 X-16.3736 Y-4.8455
G01 X-16.3158 Y-4.9158
G01 X-16.2455 Y-4.9736
G01 X-16.1754 Y-5.0119
G01 X-16.0781 Y-5.0429
G01 X-15.9986 Y-5.0515
G01 X-15.5069 Y-5.0517
G01 X-15.4219 Y-5.0429
G01 X-15.3036 Y-5.0020
G01 X-15.2180 Y-4.9464
G01 X-15.1467 Y-4.8733
G01 X-15.0881 Y-4.7754
G01 X-15.0596 Y-4.6889
G01 X-15.0496 Y-4.6219
G01 X-15.0496 Y-4.0531
G01 X-15.0596 Y-3.9861
G01 X-15.0835 Y-3.9098
G01 X-15.1536 Y-3.7930
G01 X-15.2545 Y-3.7014
G01 X-15.3777 Y-3.6432
G01 X-15.4781 Y-3.6246
G01 X-15.7191 Y-3.6232
G01 X-17.2399 Y-2.1024
G01 X-17.2870 Y-2.0608
G01 X-17.3641 Y-2.0103
G01 X-17.4703 Y-1.9678
G01 X-17.6014 Y-1.9483
G01 X-18.7391 Y-1.9480
G01 X-18.8045 Y-1.8399
G01 X-18.9306 Y-1.6863
G01 X-19.0202 Y-1.6040
G01 X-19.1184 Y-1.5321
G01 X-19.2936 Y-1.4385
G01 X-19.4079 Y-1.3967
G01 X-19.5261 Y-1.3679
G01 X-19.7239 Y-1.3485
G01 X-19.8454 Y-1.3536
G01 X-19.9657 Y-1.3723
G01 X-20.1558 Y-1.4300
G01 X-20.2662 Y-1.4813
G01 X-20.3701 Y-1.5445
G01 X-20.5237 Y-1.6706
G01 X-20.6060 Y-1.7602
G01 X-20.6719 Y-1.8490
G01 X-20.7287 Y-1.9438
G01 X-20.7760 Y-2.0438
G01 X-20.8133 Y-2.1479
G01 X-20.8401 Y-2.2552
G01 X-20.8564 Y-2.3646
G01 X-20.8618 Y-2.4750
G01 X-20.8564 Y-2.5854
G01 X-20.8401 Y-2.6948
G01 X-20.8133 Y-2.8021
G01 X-20.7760 Y-2.9062
G01 X-20.7287 Y-3.0062
G01 X-20.6719 Y-3.1010
G01 X-20.6060 Y-3.1898
G01 X-20.5318 Y-3.2718
G01 X-20.4498 Y-3.3460
G01 X-20.3610 Y-3.4119
G01 X-20.2662 Y-3.4687
G01 X-20.1662 Y-3.5160
G01 X-20.0621 Y-3.5533
G01 X-19.9548 Y-3.5801
G01 X-19.8454 Y-3.5964
G01 X-19.7350 Y-3.6018
G01 X-19.6246 Y-3.5964
G01 X-19.5152 Y-3.5801
G01 X-19.4079 Y-3.5533
G01 X-19.3038 Y-3.5160
G01 X-19.2038 Y-3.4687
G01 X-19.1090 Y-3.4119
G01 X-19.0202 Y-3.3460
G01 X-18.9382 Y-3.2718
G01 X-18.8045 Y-3.1101
G00 Z2.0000
G00 X-18.7586 Y-8.9650
G01 F60.00
G01 Z-0.0250
G01 F120.00
G01 X-18.8740 Y-9.1417
G01 X-18.9588 Y-9.3350
G01 X-19.0106 Y-9.5396
G01 X-19.0281 Y-9.7500
G01 X-19.0106 Y-9.9604
G01 X-18.9588 Y-10.1650
G01 X-18.8740 Y-10.3583
G01 X-18.7586 Y-10.5350
G01 X-18.6156 Y-10.6903
G01 X-18.4490 Y-10.8200
G01 X-18.2634 Y-10.9204
G01 X-18.0637 Y-10.9890
G01 X-17.8555 Y-11.0237
G01 X-17.6445 Y-11.0237
G01 X-17.4363 Y-10.9890
G01 X-17.2366 Y-10.9204
G01 X-17.0510 Y-10.8200
G01 X-16.8844 Y-10.6903
G01 X-16.7414 Y-10.5350
G01 X-16.6260 Y-10.3583
G01 X-16.5412 Y-10.1650
G01 X-16.4894 Y-9.9604
G01 X-16.4719 Y-9.7500
G01 X-16.4894 Y-9.5396
G01 X-16.5412 Y-9.3350
G01 X-16.6260 Y-9.1417
G01 X-16.7414 Y-8.9650
G01 X-16.8844 Y-8.8097
G01 X-17.0510 Y-8.6800
G01 X-17.2366 Y-8.5796
G01 X-17.4362 Y-8.5110
G01 X-17.6445 Y-8.4763
G01 X-17.8555 Y-8.4763
G01 X-18.0637 Y-8.5110
G01 X-18.2634 Y-8.5796
G01 X-18.4490 Y-8.6800
G01 X-18.6156 Y-8.8097
G01 X-18.7586 Y-8.9650
G00 X-18.7586 Y-8.9650
G01 F60.00
G01 Z-0.0500
G01 F120.00
G01 X-18.8740 Y-9.1417
G01 X-18.9588 Y-9.3350
G01 X-19.0106 Y-9.5396
G01 X-19.0281 Y-9.7500
G01 X-19.0106 Y-9.9604
G01 X-18.9588 Y-10.1650
G01 X-18.8740 Y-10.3583
G01 X-18.7586 Y-10.5350
G01 X-18.6156 Y-10.6903
G01 X-18.4490 Y-10.8200
G01 X-18.2634 Y-10.9204
G01 X-18.0637 Y-10.9890
G01 X-17.8555 Y-11.0237
G01 X-17.6445 Y-11.0237
G01 X-17.4363 Y-10.9890
G01 X-17.2366 Y-10.9204
G01 X-17.0510 Y-10.8200
G01 X-16.8844 Y-10.6903
G01 X-16.7414 Y-10.5350
G01 X-16.6260 Y-10.3583
G01 X-16.5412 Y-10.1650
G01 X-16.4894 Y-9.9604
G01 X-16.4719 Y-9.7500
G01 X-16.4894 Y-9.5396
G01 X-16.5412 Y-9.3350
G01 X-16.6260 Y-9.1417
G01 X-16.7414 Y-8.9650
G01 X-16.8844 Y-8.8097
G01 X-17.0510 Y-8.6800
G01 X-17.2366 Y-8.5796
G01 X-17.4362 Y-8.5110
G01 X-17.6445 Y-8.4763
G01 X-17.8555 Y-8.4763
G01 X-18.0637 Y-8.5110
G01 X-18.2634 Y-8.5796
G01 X-18.4490 Y-8.6800
G01 X-18.6156 Y-8.8097
G01 X-18.7586 Y-8.9650
G00 X-18.7586 Y-8.9650
G01 F60.00
G01 Z-0.0750
G01 F120.00
G01 X-18.8740 Y-9.1417
G01 X-18.9588 Y-9.3350
G01 X-19.0106 Y-9.5396
G01 X-19.0281 Y-9.7500
G01 X-19.0106 Y-9.9604
G01 X-18.9588 Y-10.1650
G01 X-18.8740 Y-10.3583
G01 X-18.7586 Y-10.5350
G01 X-18.6156 Y-10.6903
G01 X-18.4490 Y-10.8200
G01 X-18.2634 Y-10.9204
G01 X-18.0637 Y-10.9890
G01 X-17.8555 Y-11.0237
G01 X-17.6445 Y-11.0237
G01 X-17.4363 Y-10.9890
G01 X-17.2366 Y-10.9204
G01 X-17.0510 Y-10.8200
G01 X-16.8844 Y-10.6903
G01 X-16.7414 Y-10.5350
G01 X-16.6260 Y-10.3583
G01 X-16.5412 Y-10.1650
G01 X-16.4894 Y-9.9604
G01 X-16.4719 Y-9.7500
G01 X-16.4894 Y-9.5396
G01 X-16.5412 Y-9.3350
G01 X-16.6260 Y-9.1417
G01 X-16.7414 Y-8.9650
G01 X-16.8844 Y-8.8097
G01 X-17.0510 Y-8.6800
G01 X-17.2366 Y-8.5796
G01 X-17.4362 Y-8.5110
G01 X-17.6445 Y-8.4763
G01 X-17.8555 Y-8.4763
G01 X-18.0637 Y-8.5110
G01 X-18.2634 Y-8.5796
G01 X-18.4490 Y-8.6800
G01 X-18.6156 Y-8.8097
G01 X-18.7586 Y-8.9650
G00 X-18.7586 Y-8.9650
G01 F60.00
G01 Z-0.1000
G01 F120.00
G01 X-18.8740 Y-9.1417
G01 X-18.9588 Y-9.3350
G01 X-19.0106 Y-9.5396
G01 X-19.0281 Y-9.7500
G01 X-19.0106 Y-9.9604
G01 X-18.9588 Y-10.1650
G01 X-18.8740 Y-10.3583
G01 X-18.7586 Y-10.5350
G01 X-18.6156 Y-10.6903
G01 X-18.4490 Y-10.8200
G01 X-18.2634 Y-10.9204
G01 X-18.0637 Y-10.9890
G01 X-17.8555 Y-11.0237
G01 X-17.6445 Y-11.0237
G01 X-17.4363 Y-10.9890
G01 X-17.2366 Y-10.9204
G01 X-17.0510 Y-10.8200
G01 X-16.8844 Y-10.6903
G01 X-16.7414 Y-10.5350
G01 X-16.6260 Y-10.3583
G01 X-16.5412 Y-10.1650
G01 X-16.4894 Y-9.9604
G01 X-16.4719 Y-9.7500
G01 X-16.4894 Y-9.5396
G01 X-16.5412 Y-9.3350
G01 X-16.6260 Y-9.1417
G01 X-16.7414 Y-8.9650
G01 X-16.8844 Y-8.8097
G01 X-17.0510 Y-8.6800
G01 X-17.2366 Y-8.5796
G01 X-17.4362 Y-8.5110
G01 X-17.6445 Y-8.4763
G01 X-17.8555 Y-8.4763
G01 X-18.0637 Y-8.5110
G01 X-18.2634 Y-8.5796
G01 X-18.4490 Y-8.6800
G01 X-18.6156 Y-8.8097
G01 X-18.7586 Y-8.9650
G00 Z2.0000
G00 X-18.9551 Y-9.5216
G01 F60.00
G01 Z-0.0250
G01 F120.00
G01 X-18.9709 Y-9.6298
G01 X-18.9768 Y-9.7500
G01 X-18.9709 Y-9.8702
G01 X-18.9532 Y-9.9893
G01 X-18.9240 Y-10.1061
G01 X-18.8834 Y-10.2195
G01 X-18.8319 Y-10.3283
G01 X-18.7700 Y-10.4316
G01 X-18.6983 Y-10.5283
G01 X-18.6175 Y-10.6175
G01 X-18.5283 Y-10.6983
G01 X-18.4316 Y-10.7700
G01 X-18.3283 Y-10.8319
G01 X-18.2195 Y-10.8834
G01 X-18.1061 Y-10.9240
G01 X-17.9893 Y-10.9532
G01 X-17.8702 Y-10.9709
G01 X-17.7500 Y-10.9768
G01 X-17.6298 Y-10.9709
G01 X-17.5107 Y-10.9532
G01 X-17.3939 Y-10.9240
G01 X-17.2805 Y-10.8834
G01 X-17.1717 Y-10.8319
G01 X-17.0684 Y-10.7700
G01 X-16.9717 Y-10.6983
G01 X-16.8825 Y-10.6175
G01 X-16.8017 Y-10.5283
G01 X-16.7300 Y-10.4316
G01 X-16.6681 Y-10.3283
G01 X-16.6166 Y-10.2195
G01 X-16.5760 Y-10.1061
G01 X-16.5468 Y-9.9893
G01 X-16.5291 Y-9.8702
G01 X-16.5232 Y-9.7500
G01 X-16.5291 Y-9.6298
G01 X-16.5468 Y-9.5107
G01 X-16.5760 Y-9.3939
G01 X-16.6166 Y-9.2805
G01 X-16.6681 Y-9.1717
G01 X-16.7300 Y-9.0684
G01 X-16.8017 Y-8.9717
G01 X-16.8825 Y-8.8825
G01 X-16.9717 Y-8.8017
G01 X-17.0684 Y-8.7300
G01 X-17.1717 Y-8.6681
G01 X-17.2805 Y-8.6166
G01 X-17.3939 Y-8.5760
G01 X-17.5107 Y-8.5468
G01 X-17.6298 Y-8.5291
G01 X-17.7500 Y-8.5232
G01 X-17.8702 Y-8.5291
G01 X-17.9893 Y-8.5468
G01 X-18.1061 Y-8.5760
G01 X-18.2195 Y-8.6166
G01 X-18.3283 Y-8.6681
G01 X-18.4316 Y-8.7300
G01 X-18.5283 Y-8.8017
G01 X-18.6175 Y-8.8825
G01 X-18.6983 Y-8.9717
G01 X-18.7700 Y-9.0684
G01 X-18.8319 Y-9.1717
G01 X-18.8834 Y-9.2805
G01 X-18.9240 Y-9.3939
G01 X-18.9551 Y-9.5216
G00 X-18.9551 Y-9.5216
G01 F60.00
G01 Z-0.0500
G01 F120.00
G01 X-18.9709 Y-9.6298
G01 X-18.9768 Y-9.7500
G01 X-18.9709 Y-9.8702
G01 X-18.9532 Y-9.9893
G01 X-18.9240 Y-10.1061
G01 X-18.8834 Y-10.2195
G01 X-18.8319 Y-10.3283
G01 X-18.7700 Y-10.4316
G01 X-18.6983 Y-10.5283
G01 X-18.6175 Y-10.6175
G01 X-18.5283 Y-10.6983
G01 X-18.4316 Y-10.7700
G01 X-18.3283 Y-10.8319
G01 X-18.2195 Y-10.8834
G01 X-18.1061 Y-10.9240
G01 X-17.9893 Y-10.9532
G01 X-17.8702 Y-10.9709
G01 X-17.7500 Y-10.9768
G01 X-17.6298 Y-10.9709
G01 X-17.5107 Y-10.9532
G01 X-17.3939 Y-10.9240
G01 X-17.2805 Y-10.8834
G01 X-17.1717 Y-10.8319
G01 X-17.0684 Y-10.7700
G01 X-16.9717 Y-10.6983
G01 X-16.8825 Y-10.6175
G01 X-16.8017 Y-10.5283
G01 X-16.7300 Y-10.4316
G01 X-16.6681 Y-10.3283
G01 X-16.6166 Y-10.2195
G01 X-16.5760 Y-10.1061
G01 X-16.5468 Y-9.9893
G01 X-16.5291 Y-9.8702
G01 X-16.5232 Y-9.7500
G01 X-16.5291 Y-9.6298
G01 X-16.5468 Y-9.5107
G01 X-16.5760 Y-9.3939
G01 X-16.6166 Y-9.2805
G01 X-16.6681 Y-9.1717
G01 X-16.7300 Y-9.0684
G01 X-16.8017 Y-8.9717
G01 X-16.8825 Y-8.8825
G01 X-16.9717 Y-8.8017
G01 X-17.0684 Y-8.7300
G01 X-17.1717 Y-8.6681
G01 X-17.2805 Y-8.6166
G01 X-17.3939 Y-8.5760
G01 X-17.5107 Y-8.5468
G01 X-17.6298 Y-8.5291
G01 X-17.7500 Y-8.5232
G01 X-17.8702 Y-8.5291
G01 X-17.9893 Y-8.5468
G01 X-18.1061 Y-8.5760
G01 X-18.2195 Y-8.6166
G01 X-18.3283 Y-8.6681
G01 X-18.4316 Y-8.7300
G01 X-18.5283 Y-8.8017
G01 X-18.6175 Y-8.8825
G01 X-18.6983 Y-8.9717
G01 X-18.7700 Y-9.0684
G01 X-18.8319 Y-9.1717
G01 X-18.8834 Y-9.2805
G01 X-18.9240 Y-9.3939
G01 X-18.9551 Y-9.5216
G00 X-18.9551 Y-9.5216
G01 F60.00
G01 Z-0.0750
G01 F120.00
G01 X-18.9709 Y-9.6298
G01 X-18.9768 Y-9.7500
G01 X-18.9709 Y-9.8702
G01 X-18.9532 Y-9.9893
G01 X-18.9240 Y-10.1061
G01 X-18.8834 Y-10.2195
G01 X-18.8319 Y-10.3283
G01 X-18.7700 Y-10.4316
G01 X-18.6983 Y-10.5283
G01 X-18.6175 Y-10.6175
G01 X-18.5283 Y-10.6983
G01 X-18.4316 Y-10.7700
G01 X-18.3283 Y-10.8319
G01 X-18.2195 Y-10.8834
G01 X-18.1061 Y-10.9240
G01 X-17.9893 Y-10.9532
G01 X-17.8702 Y-10.9709
G01 X-17.7500 Y-10.9768
G01 X-17.6298 Y-10.9709
G01 X-17.5107 Y-10.9532
G01 X-17.3939 Y-10.9240
G01 X-17.2805 Y-10.8834
G01 X-17.1717 Y-10.8319
G01 X-17.0684 Y-10.7700
G01 X-16.9717 Y-10.6983
G01 X-16.8825 Y-10.6175
G01 X-16.8017 Y-10.5283
G01 X-16.7300 Y-10.4316
G01 X-16.6681 Y-10.3283
G01 X-16.6166 Y-10.2195
G01 X-16.5760 Y-10.1061
G01 X-16.5468 Y-9.9893
G01 X-16.5291 Y-9.8702
G01 X-16.5232 Y-9.7500
G01 X-16.5291 Y-9.6298
G01 X-16.5468 Y-9.5107
G01 X-16.5760 Y-9.3939
G01 X-16.6166 Y-9.2805
G01 X-16.6681 Y-9.1717
G01 X-16.7300 Y-9.0684
G01 X-16.8017 Y-8.9717
G01 X-16.8825 Y-8.8825
G01 X-16.9717 Y-8.8017
G01 X-17.0684 Y-8.7300
G01 X-17.1717 Y-8.6681
G01 X-17.2805 Y-8.6166
G01 X-17.3939 Y-8.5760
G01 X-17.5107 Y-8.5468
G01 X-17.6298 Y-8.5291
G01 X-17.7500 Y-8.5232
G01 X-17.8702 Y-8.5291
G01 X-17.9893 Y-8.5468
G01 X-18.1061 Y-8.5760
G01 X-18.2195 Y-8.6166
G01 X-18.3283 Y-8.6681
G01 X-18.4316 Y-8.7300
G01 X-18.5283 Y-8.8017
G01 X-18.6175 Y-8.8825
G01 X-18.6983 Y-8.9717
G01 X-18.7700 Y-9.0684
G01 X-18.8319 Y-9.1717
G01 X-18.8834 Y-9.2805
G01 X-18.9240 Y-9.3939
G01 X-18.9551 Y-9.5216
G00 X-18.9551 Y-9.5216
G01 F60.00
G01 Z-0.1000
G01 F120.00
G01 X-18.9709 Y-9.6298
G01 X-18.9768 Y-9.7500
G01 X-18.9709 Y-9.8702
G01 X-18.9532 Y-9.9893
G01 X-18.9240 Y-10.1061
G01 X-18.8834 Y-10.2195
G01 X-18.8319 Y-10.3283
G01 X-18.7700 Y-10.4316
G01 X-18.6983 Y-10.5283
G01 X-18.6175 Y-10.6175
G01 X-18.5283 Y-10.6983
G01 X-18.4316 Y-10.7700
G01 X-18.3283 Y-10.8319
G01 X-18.2195 Y-10.8834
G01 X-18.1061 Y-10.9240
G01 X-17.9893 Y-10.9532
G01 X-17.8702 Y-10.9709
G01 X-17.7500 Y-10.9768
G01 X-17.6298 Y-10.9709
G01 X-17.5107 Y-10.9532
G01 X-17.3939 Y-10.9240
G01 X-17.2805 Y-10.8834
G01 X-17.1717 Y-10.8319
G01 X-17.0684 Y-10.7700
G01 X-16.9717 Y-10.6983
G01 X-16.8825 Y-10.6175
G01 X-16.8017 Y-10.5283
G01 X-16.7300 Y-10.4316
G01 X-16.6681 Y-10.3283
G01 X-16.6166 Y-10.2195
G01 X-16.5760 Y-10.1061
G01 X-16.5468 Y-9.9893
G01 X-16.5291 Y-9.8702
G01 X-16.5232 Y-9.7500
G01 X-16.5291 Y-9.6298
G01 X-16.5468 Y-9.5107
G01 X-16.5760 Y-9.3939
G01 X-16.6166 Y-9.2805
G01 X-16.6681 Y-9.1717
G01 X-16.7300 Y-9.0684
G01 X-16.8017 Y-8.9717
G01 X-16.8825 Y-8.8825
G01 X-16.9717 Y-8.8017
G01 X-17.0684 Y-8.7300
G01 X-17.1717 Y-8.6681
G01 X-17.2805 Y-8.6166
G01 X-17.3939 Y-8.5760
G01 X-17.5107 Y-8.5468
G01 X-17.6298 Y-8.5291
G01 X-17.7500 Y-8.5232
G01 X-17.8702 Y-8.5291
G01 X-17.9893 Y-8.5468
G01 X-18.1061 Y-8.5760
G01 X-18.2195 Y-8.6166
G01 X-18.3283 Y-8.6681
G01 X-18.4316 Y-8.7300
G01 X-18.5283 Y-8.8017
G01 X-18.6175 Y-8.8825
G01 X-18.6983 Y-8.9717
G01 X-18.7700 Y-9.0684
G01 X-18.8319 Y-9.1717
G01 X-18.8834 Y-9.2805
G01 X-18.9240 Y-9.3939
G01 X-18.9551 Y-9.5216
G00 Z2.0000
G00 X-18.0954 Y-13.0731
G01 F60.00
G01 Z-0.0250
G01 F120.00
G01 X-17.9893 Y-13.0468
G01 X-17.8813 Y-13.0305
G01 X-17.7500 Y-13.0232
G01 X-17.6298 Y-13.0291
G01 X-17.5107 Y-13.0468
G01 X-17.3939 Y-13.0760
G01 X-17.2880 Y-13.1137
G01 X-17.2499 Y-13.0756
G01 X-17.4364 Y-13.0115
G01 X-17.6445 Y-12.9768
G01 X-17.8555 Y-12.9768
G01 X-18.0636 Y-13.0115
G01 X-18.2501 Y-13.0756
G01 X-18.2120 Y-13.1137
G01 X-18.0954 Y-13.0731
G00 X-18.0954 Y-13.0731
G01 F60.00
G01 Z-0.0500
G01 F120.00
G01 X-17.9893 Y-13.0468
G01 X-17.8813 Y-13.0305
G01 X-17.7500 Y-13.0232
G01 X-17.6298 Y-13.0291
G01 X-17.5107 Y-13.0468
G01 X-17.3939 Y-13.0760
G01 X-17.2880 Y-13.1137
G01 X-17.2499 Y-13.0756
G01 X-17.4364 Y-13.0115
G01 X-17.6445 Y-12.9768
G01 X-17.8555 Y-12.9768
G01 X-18.0636 Y-13.0115
G01 X-18.2501 Y-13.0756
G01 X-18.2120 Y-13.1137
G01 X-18.0954 Y-13.0731
G00 X-18.0954 Y-13.0731
G01 F60.00
G01 Z-0.0750
G01 F120.00
G01 X-17.9893 Y-13.0468
G01 X-17.8813 Y-13.0305
G01 X-17.7500 Y-13.0232
G01 X-17.6298 Y-13.0291
G01 X-17.5107 Y-13.0468
G01 X-17.3939 Y-13.0760
G01 X-17.2880 Y-13.1137
G01 X-17.2499 Y-13.0756
G01 X-17.4364 Y-13.0115
G01 X-17.6445 Y-12.9768
G01 X-17.8555 Y-12.9768
G01 X-18.0636 Y-13.0115
G01 X-18.2501 Y-13.0756
G01 X-18.2120 Y-13.1137
G01 X-18.0954 Y-13.0731
G00 X-18.0954 Y-13.0731
G01 F60.00
G01 Z-0.1000
G01 F120.00
G01 X-17.9893 Y-13.0468
G01 X-17.8813 Y-13.0305
G01 X-17.7500 Y-13.0232
G01 X-17.6298 Y-13.0291
G01 X-17.5107 Y-13.0468
G01 X-17.3939 Y-13.0760
G01 X-17.2880 Y-13.1137
G01 X-17.2499 Y-13.0756
G01 X-17.4364 Y-13.0115
G01 X-17.6445 Y-12.9768
G01 X-17.8555 Y-12.9768
G01 X-18.0636 Y-13.0115
G01 X-18.2501 Y-13.0756
G01 X-18.2120 Y-13.1137
G01 X-18.0954 Y-13.0731
G00 Z2.0000
G00 X-16.5731 Y-13.9046
G01 F60.00
G01 Z-0.0250
G01 F120.00
G01 X-16.5468 Y-14.0107
G01 X-16.5305 Y-14.1187
G01 X-16.5232 Y-14.2500
G01 X-16.5291 Y-14.3702
G01 X-16.5468 Y-14.4893
G01 X-16.5760 Y-14.6061
G01 X-16.6137 Y-14.7120
G01 X-16.5780 Y-14.7477
G01 X-16.5417 Y-14.6648
G01 X-16.4899 Y-14.4603
G01 X-16.4724 Y-14.2500
G01 X-16.4899 Y-14.0397
G01 X-16.5417 Y-13.8352
G01 X-16.5780 Y-13.7523
G01 X-16.6137 Y-13.7880
G01 X-16.5731 Y-13.9046
G00 X-16.5731 Y-13.9046
G01 F60.00
G01 Z-0.0500
G01 F120.00
G01 X-16.5468 Y-14.0107
G01 X-16.5305 Y-14.1187
G01 X-16.5232 Y-14.2500
G01 X-16.5291 Y-14.3702
G01 X-16.5468 Y-14.4893
G01 X-16.5760 Y-14.6061
G01 X-16.6137 Y-14.7120
G01 X-16.5780 Y-14.7477
G01 X-16.5417 Y-14.6648
G01 X-16.4899 Y-14.4603
G01 X-16.4724 Y-14.2500
G01 X-16.4899 Y-14.0397
G01 X-16.5417 Y-13.8352
G01 X-16.5780 Y-13.7523
G01 X-16.6137 Y-13.7880
G01 X-16.5731 Y-13.9046
G00 X-16.5731 Y-13.9046
G01 F60.00
G01 Z-0.0750
G01 F120.00
G01 X-16.5468 Y-14.0107
G01 X-16.5305 Y-14.1187
G01 X-16.5232 Y-14.2500
G01 X-16.5291 Y-14.3702
G01 X-16.5468 Y-14.4893
G01 X-16.5760 Y-14.6061
G01 X-16.6137 Y-14.7120
G01 X-16.5780 Y-14.7477
G01 X-16.5417 Y-14.6648
G01 X-16.4899 Y-14.4603
G01 X-16.4724 Y-14.2500
G01 X-16.4899 Y-14.0397
G01 X-16.5417 Y-13.8352
G01 X-16.5780 Y-13.7523
G01 X-16.6137 Y-13.7880
G01 X-16.5731 Y-13.9046
G00 X-16.5731 Y-13.9046
G01 F60.00
G01 Z-0.1000
G01 F120.00
G01 X-16.5468 Y-14.0107
G01 X-16.5305 Y-14.1187
G01 X-16.5232 Y-14.2500
G01 X-16.5291 Y-14.3702
G01 X-16.5468 Y-14.4893
G01 X-16.5760 Y-14.6061
G01 X-16.6137 Y-14.7120
G01 X-16.5780 Y-14.7477
G01 X-16.5417 Y-14.6648
G01 X-16.4899 Y-14.4603
G01 X-16.4724 Y-14.2500
G01 X-16.4899 Y-14.0397
G01 X-16.5417 Y-13.8352
G01 X-16.5780 Y-13.7523
G01 X-16.6137 Y-13.7880
G01 X-16.5731 Y-13.9046
G00 Z2.0000
G00 X-17.4364 Y-15.4885
G01 F60.00
G01 Z-0.0250
G01 F120.00
G01 X-17.2499 Y-15.4244
G01 X-17.2880 Y-15.3863
G01 X-17.3939 Y-15.4240
G01 X-17.5107 Y-15.4532
G01 X-17.6298 Y-15.4709
G01 X-17.7500 Y-15.4768
G01 X-17.8702 Y-15.4709
G01 X-17.9893 Y-15.4532
G01 X-18.1061 Y-15.4240
G01 X-18.2120 Y-15.3863
G01 X-18.2501 Y-15.4244
G01 X-18.0636 Y-15.4885
G01 X-17.8555 Y-15.5232
G01 X-17.6445 Y-15.5232
G01 X-17.4364 Y-15.4885
G00 X-17.4364 Y-15.4885
G01 F60.00
G01 Z-0.0500
G01 F120.00
G01 X-17.2499 Y-15.4244
G01 X-17.2880 Y-15.3863
G01 X-17.3939 Y-15.4240
G01 X-17.5107 Y-15.4532
G01 X-17.6298 Y-15.4709
G01 X-17.7500 Y-15.4768
G01 X-17.8702 Y-15.4709
G01 X-17.9893 Y-15.4532
G01 X-18.1061 Y-15.4240
G01 X-18.2120 Y-15.3863
G01 X-18.2501 Y-15.4244
G01 X-18.0636 Y-15.4885
G01 X-17.8555 Y-15.5232
G01 X-17.6445 Y-15.5232
G01 X-17.4364 Y-15.4885
G00 X-17.4364 Y-15.4885
G01 F60.00
G01 Z-0.0750
G01 F120.00
G01 X-17.2499 Y-15.4244
G01 X-17.2880 Y-15.3863
G01 X-17.3939 Y-15.4240
G01 X-17.5107 Y-15.4532
G01 X-17.6298 Y-15.4709
G01 X-17.7500 Y-15.4768
G01 X-17.8702 Y-15.4709
G01 X-17.9893 Y-15.4532
G01 X-18.1061 Y-15.4240
G01 X-18.2120 Y-15.3863
G01 X-18.2501 Y-15.4244
G01 X-18.0636 Y-15.4885
G01 X-17.8555 Y-15.5232
G01 X-17.6445 Y-15.5232
G01 X-17.4364 Y-15.4885
G00 X-17.4364 Y-15.4885
G01 F60.00
G01 Z-0.1000
G01 F120.00
G01 X-17.2499 Y-15.4244
G01 X-17.2880 Y-15.3863
G01 X-17.3939 Y-15.4240
G01 X-17.5107 Y-15.4532
G01 X-17.6298 Y-15.4709
G01 X-17.7500 Y-15.4768
G01 X-17.8702 Y-15.4709
G01 X-17.9893 Y-15.4532
G01 X-18.1061 Y-15.4240
G01 X-18.2120 Y-15.3863
G01 X-18.2501 Y-15.4244
G01 X-18.0636 Y-15.4885
G01 X-17.8555 Y-15.5232
G01 X-17.6445 Y-15.5232
G01 X-17.4364 Y-15.4885
G00 Z2.0000
G00 X-18.9240 Y-14.6061
G01 F60.00
G01 Z-0.0250
G01 F120.00
G01 X-18.9532 Y-14.4893
G01 X-18.9695 Y-14.3813
G01 X-18.9768 Y-14.2500
G01 X-18.9709 Y-14.1298
G01 X-18.9532 Y-14.0107
G01 X-18.9240 Y-13.8939
G01 X-18.8863 Y-13.7880
G01 X-18.9220 Y-13.7523
G01 X-18.9583 Y-13.8352
G01 X-19.0101 Y-14.0397
G01 X-19.0276 Y-14.2500
G01 X-19.0101 Y-14.4603
G01 X-18.9583 Y-14.6648
G01 X-18.9220 Y-14.7477
G01 X-18.8863 Y-14.7120
G01 X-18.9240 Y-14.6061
G00 X-18.9240 Y-14.6061
G01 F60.00
G01 Z-0.0500
G01 F120.00
G01 X-18.9532 Y-14.4893
G01 X-18.9695 Y-14.3813
G01 X-18.9768 Y-14.2500
G01 X-18.9709 Y-14.1298
G01 X-18.9532 Y-14.0107
G01 X-18.9240 Y-13.8939
G01 X-18.8863 Y-13.7880
G01 X-18.9220 Y-13.7523
G01 X-18.9583 Y-13.8352
G01 X-19.0101 Y-14.0397
G01 X-19.0276 Y-14.2500
G01 X-19.0101 Y-14.4603
G01 X-18.9583 Y-14.6648
G01 X-18.9220 Y-14.7477
G01 X-18.8863 Y-14.7120
G01 X-18.9240 Y-14.6061
G00 X-18.9240 Y-14.6061
G01 F60.00
G01 Z-0.0750
G01 F120.00
G01 X-18.9532 Y-14.4893
G01 X-18.9695 Y-14.3813
G01 X-18.9768 Y-14.2500
G01 X-18.9709 Y-14.1298
G01 X-18.9532 Y-14.0107
G01 X-18.9240 Y-13.8939
G01 X-18.8863 Y-13.7880
G01 X-18.9220 Y-13.7523
G01 X-18.9583 Y-13.8352
G01 X-19.0101 Y-14.0397
G01 X-19.0276 Y-14.2500
G01 X-19.0101 Y-14.4603
G01 X-18.9583 Y-14.6648
G01 X-18.9220 Y-14.7477
G01 X-18.8863 Y-14.7120
G01 X-18.9240 Y-14.6061
G00 X-18.9240 Y-14.6061
G01 F60.00
G01 Z-0.1000
G01 F120.00
G01 X-18.9532 Y-14.4893
G01 X-18.9695 Y-14.3813
G01 X-18.9768 Y-14.2500
G01 X-18.9709 Y-14.1298
G01 X-18.9532 Y-14.0107
G01 X-18.9240 Y-13.8939
G01 X-18.8863 Y-13.7880
G01 X-18.9220 Y-13.7523
G01 X-18.9583 Y-13.8352
G01 X-19.0101 Y-14.0397
G01 X-19.0276 Y-14.2500
G01 X-19.0101 Y-14.4603
G01 X-18.9583 Y-14.6648
G01 X-18.9220 Y-14.7477
G01 X-18.8863 Y-14.7120
G01 X-18.9240 Y-14.6061
G00 Z2.0000
G00 X-23.0731 Y-13.9046
G01 F60.00
G01 Z-0.0250
G01 F120.00
G01 X-23.0468 Y-14.0107
G01 X-23.0305 Y-14.1187
G01 X-23.0232 Y-14.2500
G01 X-23.0291 Y-14.3702
G01 X-23.0468 Y-14.4893
G01 X-23.0760 Y-14.6061
G01 X-23.1137 Y-14.7120
G01 X-23.0780 Y-14.7477
G01 X-23.0417 Y-14.6648
G01 X-22.9899 Y-14.4603
G01 X-22.9724 Y-14.2500
G01 X-22.9899 Y-14.0397
G01 X-23.0417 Y-13.8352
G01 X-23.0780 Y-13.7523
G01 X-23.1137 Y-13.7880
G01 X-23.0731 Y-13.9046
G00 X-23.0731 Y-13.9046
G01 F60.00
G01 Z-0.0500
G01 F120.00
G01 X-23.0468 Y-14.0107
G01 X-23.0305 Y-14.1187
G01 X-23.0232 Y-14.2500
G01 X-23.0291 Y-14.3702
G01 X-23.0468 Y-14.4893
G01 X-23.0760 Y-14.6061
G01 X-23.1137 Y-14.7120
G01 X-23.0780 Y-14.7477
G01 X-23.0417 Y-14.6648
G01 X-22.9899 Y-14.4603
G01 X-22.9724 Y-14.2500
G01 X-22.9899 Y-14.0397
G01 X-23.0417 Y-13.8352
G01 X-23.0780 Y-13.7523
G01 X-23.1137 Y-13.7880
G01 X-23.0731 Y-13.9046
G00 X-23.0731 Y-13.9046
G01 F60.00
G01 Z-0.0750
G01 F120.00
G01 X-23.0468 Y-14.0107
G01 X-23.0305 Y-14.1187
G01 X-23.0232 Y-14.2500
G01 X-23.0291 Y-14.3702
G01 X-23.0468 Y-14.4893
G01 X-23.0760 Y-14.6061
G01 X-23.1137 Y-14.7120
G01 X-23.0780 Y-14.7477
G01 X-23.0417 Y-14.6648
G01 X-22.9899 Y-14.4603
G01 X-22.9724 Y-14.2500
G01 X-22.9899 Y-14.0397
G01 X-23.0417 Y-13.8352
G01 X-23.0780 Y-13.7523
G01 X-23.1137 Y-13.7880
G01 X-23.0731 Y-13.9046
G00 X-23.0731 Y-13.9046
G01 F60.00
G01 Z-0.1000
G01 F120.00
G01 X-23.0468 Y-14.0107
G01 X-23.0305 Y-14.1187
G01 X-23.0232 Y-14.2500
G01 X-23.0291 Y-14.3702
G01 X-23.0468 Y-14.4893
G01 X-23.0760 Y-14.6061
G01 X-23.1137 Y-14.7120
G01 X-23.0780 Y-14.7477
G01 X-23.0417 Y-14.6648
G01 X-22.9899 Y-14.4603
G01 X-22.9724 Y-14.2500
G01 X-22.9899 Y-14.0397
G01 X-23.0417 Y-13.8352
G01 X-23.0780 Y-13.7523
G01 X-23.1137 Y-13.7880
G01 X-23.0731 Y-13.9046
G00 Z2.0000
G00 X-24.5954 Y-13.0731
G01 F60.00
G01 Z-0.0250
G01 F120.00
G01 X-24.4893 Y-13.0468
G01 X-24.3813 Y-13.0305
G01 X-24.2500 Y-13.0232
G01 X-24.1298 Y-13.0291
G01 X-24.0107 Y-13.0468
G01 X-23.8939 Y-13.0760
G01 X-23.7880 Y-13.1137
G01 X-23.7499 Y-13.0756
G01 X-23.9364 Y-13.0115
G01 X-24.1445 Y-12.9768
G01 X-24.3555 Y-12.9768
G01 X-24.5636 Y-13.0115
G01 X-24.7501 Y-13.0756
G01 X-24.7120 Y-13.1137
G01 X-24.5954 Y-13.0731
G00 X-24.5954 Y-13.0731
G01 F60.00
G01 Z-0.0500
G01 F120.00
G01 X-24.4893 Y-13.0468
G01 X-24.3813 Y-13.0305
G01 X-24.2500 Y-13.0232
G01 X-24.1298 Y-13.0291
G01 X-24.0107 Y-13.0468
G01 X-23.8939 Y-13.0760
G01 X-23.7880 Y-13.1137
G01 X-23.7499 Y-13.0756
G01 X-23.9364 Y-13.0115
G01 X-24.1445 Y-12.9768
G01 X-24.3555 Y-12.9768
G01 X-24.5636 Y-13.0115
G01 X-24.7501 Y-13.0756
G01 X-24.7120 Y-13.1137
G01 X-24.5954 Y-13.0731
G00 X-24.5954 Y-13.0731
G01 F60.00
G01 Z-0.0750
G01 F120.00
G01 X-24.4893 Y-13.0468
G01 X-24.3813 Y-13.0305
G01 X-24.2500 Y-13.0232
G01 X-24.1298 Y-13.0291
G01 X-24.0107 Y-13.0468
G01 X-23.8939 Y-13.0760
G01 X-23.7880 Y-13.1137
G01 X-23.7499 Y-13.0756
G01 X-23.9364 Y-13.0115
G01 X-24.1445 Y-12.9768
G01 X-24.3555 Y-12.9768
G01 X-24.5636 Y-13.0115
G01 X-24.7501 Y-13.0756
G01 X-24.7120 Y-13.1137
G01 X-24.5954 Y-13.0731
G00 X-24.5954 Y-13.0731
G01 F60.00
G01 Z-0.1000
G01 F120.00
G01 X-24.4893 Y-13.0468
G01 X-24.3813 Y-13.0305
G01 X-24.2500 Y-13.0232
G01 X-24.1298 Y-13.0291
G01 X-24.0107 Y-13.0468
G01 X-23.8939 Y-13.0760
G01 X-23.7880 Y-13.1137
G01 X-23.7499 Y-13.0756
G01 X-23.9364 Y-13.0115
G01 X-24.1445 Y-12.9768
G01 X-24.3555 Y-12.9768
G01 X-24.5636 Y-13.0115
G01 X-24.7501 Y-13.0756
G01 X-24.7120 Y-13.1137
G01 X-24.5954 Y-13.0731
G00 Z2.0000
G00 X-25.4240 Y-14.6061
G01 F60.00
G01 Z-0.0250
G01 F120.00
G01 X-25.4532 Y-14.4893
G01 X-25.4695 Y-14.3813
G01 X-25.4768 Y-14.2500
G01 X-25.4709 Y-14.1298
G01 X-25.4532 Y-14.0107
G01 X-25.4240 Y-13.8939
G01 X-25.3863 Y-13.7880
G01 X-25.4220 Y-13.7523
G01 X-25.4583 Y-13.8352
G01 X-25.5101 Y-14.0397
G01 X-25.5276 Y-14.2500
G01 X-25.5101 Y-14.4603
G01 X-25.4583 Y-14.6648
G01 X-25.4220 Y-14.7477
G01 X-25.3863 Y-14.7120
G01 X-25.4240 Y-14.6061
G00 X-25.4240 Y-14.6061
G01 F60.00
G01 Z-0.0500
G01 F120.00
G01 X-25.4532 Y-14.4893
G01 X-25.4695 Y-14.3813
G01 X-25.4768 Y-14.2500
G01 X-25.4709 Y-14.1298
G01 X-25.4532 Y-14.0107
G01 X-25.4240 Y-13.8939
G01 X-25.3863 Y-13.7880
G01 X-25.4220 Y-13.7523
G01 X-25.4583 Y-13.8352
G01 X-25.5101 Y-14.0397
G01 X-25.5276 Y-14.2500
G01 X-25.5101 Y-14.4603
G01 X-25.4583 Y-14.6648
G01 X-25.4220 Y-14.7477
G01 X-25.3863 Y-14.7120
G01 X-25.4240 Y-14.6061
G00 X-25.4240 Y-14.6061
G01 F60.00
G01 Z-0.0750
G01 F120.00
G01 X-25.4532 Y-14.4893
G01 X-25.4695 Y-14.3813
G01 X-25.4768 Y-14.2500
G01 X-25.4709 Y-14.1298
G01 X-25.4532 Y-14.0107
G01 X-25.4240 Y-13.8939
G01 X-25.3863 Y-13.7880
G01 X-25.4220 Y-13.7523
G01 X-25.4583 Y-13.8352
G01 X-25.5101 Y-14.0397
G01 X-25.5276 Y-14.2500
G01 X-25.5101 Y-14.4603
G01 X-25.4583 Y-14.6648
G01 X-25.4220 Y-14.7477
G01 X-25.3863 Y-14.7120
G01 X-25.4240 Y-14.6061
G00 X-25.4240 Y-14.6061
G01 F60.00
G01 Z-0.1000
G01 F120.00
G01 X-25.4532 Y-14.4893
G01 X-25.4695 Y-14.3813
G01 X-25.4768 Y-14.2500
G01 X-25.4709 Y-14.1298
G01 X-25.4532 Y-14.0107
G01 X-25.4240 Y-13.8939
G01 X-25.3863 Y-13.7880
G01 X-25.4220 Y-13.7523
G01 X-25.4583 Y-13.8352
G01 X-25.5101 Y-14.0397
G01 X-25.5276 Y-14.2500
G01 X-25.5101 Y-14.4603
G01 X-25.4583 Y-14.6648
G01 X-25.4220 Y-14.7477
G01 X-25.3863 Y-14.7120
G01 X-25.4240 Y-14.6061
G00 Z2.0000
G00 X-23.9364 Y-15.4885
G01 F60.00
G01 Z-0.0250
G01 F120.00
G01 X-23.7499 Y-15.4244
G01 X-23.7880 Y-15.3863
G01 X-23.8939 Y-15.4240
G01 X-24.0107 Y-15.4532
G01 X-24.1298 Y-15.4709
G01 X-24.2500 Y-15.4768
G01 X-24.3702 Y-15.4709
G01 X-24.4893 Y-15.4532
G01 X-24.6061 Y-15.4240
G01 X-24.7120 Y-15.3863
G01 X-24.7501 Y-15.4244
G01 X-24.5636 Y-15.4885
G01 X-24.3555 Y-15.5232
G01 X-24.1445 Y-15.5232
G01 X-23.9364 Y-15.4885
G00 X-23.9364 Y-15.4885
G01 F60.00
G01 Z-0.0500
G01 F120.00
G01 X-23.7499 Y-15.4244
G01 X-23.7880 Y-15.3863
G01 X-23.8939 Y-15.4240
G01 X-24.0107 Y-15.4532
G01 X-24.1298 Y-15.4709
G01 X-24.2500 Y-15.4768
G01 X-24.3702 Y-15.4709
G01 X-24.4893 Y-15.4532
G01 X-24.6061 Y-15.4240
G01 X-24.7120 Y-15.3863
G01 X-24.7501 Y-15.4244
G01 X-24.5636 Y-15.4885
G01 X-24.3555 Y-15.5232
G01 X-24.1445 Y-15.5232
G01 X-23.9364 Y-15.4885
G00 X-23.9364 Y-15.4885
G01 F60.00
G01 Z-0.0750
G01 F120.00
G01 X-23.7499 Y-15.4244
G01 X-23.7880 Y-15.3863
G01 X-23.8939 Y-15.4240
G01 X-24.0107 Y-15.4532
G01 X-24.1298 Y-15.4709
G01 X-24.2500 Y-15.4768
G01 X-24.3702 Y-15.4709
G01 X-24.4893 Y-15.4532
G01 X-24.6061 Y-15.4240
G01 X-24.7120 Y-15.3863
G01 X-24.7501 Y-15.4244
G01 X-24.5636 Y-15.4885
G01 X-24.3555 Y-15.5232
G01 X-24.1445 Y-15.5232
G01 X-23.9364 Y-15.4885
G00 X-23.9364 Y-15.4885
G01 F60.00
G01 Z-0.1000
G01 F120.00
G01 X-23.7499 Y-15.4244
G01 X-23.7880 Y-15.3863
G01 X-23.8939 Y-15.4240
G01 X-24.0107 Y-15.4532
G01 X-24.1298 Y-15.4709
G01 X-24.2500 Y-15.4768
G01 X-24.3702 Y-15.4709
G01 X-24.4893 Y-15.4532
G01 X-24.6061 Y-15.4240
G01 X-24.7120 Y-15.3863
G01 X-24.7501 Y-15.4244
G01 X-24.5636 Y-15.4885
G01 X-24.3555 Y-15.5232
G01 X-24.1445 Y-15.5232
G01 X-23.9364 Y-15.4885
G00 Z2.0000
G00 X-18.8740 Y-19.1417
G01 F60.00
G01 Z-0.0250
G01 F120.00
G01 X-18.9588 Y-19.3350
G01 X-19.0106 Y-19.5396
G01 X-19.0281 Y-19.7500
G01 X-19.0106 Y-19.9604
G01 X-18.9588 Y-20.1650
G01 X-18.8740 Y-20.3583
G01 X-18.7586 Y-20.5350
G01 X-18.6156 Y-20.6903
G01 X-18.4490 Y-20.8200
G01 X-18.2634 Y-20.9204
G01 X-18.0637 Y-20.9890
G01 X-17.8555 Y-21.0237
G01 X-17.6445 Y-21.0237
G01 X-17.4363 Y-20.9890
G01 X-17.2366 Y-20.9204
G01 X-17.0510 Y-20.8200
G01 X-16.8844 Y-20.6903
G01 X-16.7414 Y-20.5350
G01 X-16.6260 Y-20.3583
G01 X-16.5412 Y-20.1650
G01 X-16.4894 Y-19.9604
G01 X-16.4719 Y-19.7500
G01 X-16.4894 Y-19.5396
G01 X-16.5412 Y-19.3350
G01 X-16.6260 Y-19.1417
G01 X-16.7414 Y-18.9650
G01 X-16.8844 Y-18.8097
G01 X-17.0510 Y-18.6800
G01 X-17.2366 Y-18.5796
G01 X-17.4362 Y-18.5110
G01 X-17.6445 Y-18.4763
G01 X-17.8555 Y-18.4763
G01 X-18.0637 Y-18.5110
G01 X-18.2634 Y-18.5796
G01 X-18.4490 Y-18.6800
G01 X-18.6156 Y-18.8097
G01 X-18.7586 Y-18.9650
G01 X-18.8740 Y-19.1417
G00 X-18.8740 Y-19.1417
G01 F60.00
G01 Z-0.0500
G01 F120.00
G01 X-18.9588 Y-19.3350
G01 X-19.0106 Y-19.5396
G01 X-19.0281 Y-19.7500
G01 X-19.0106 Y-19.9604
G01 X-18.9588 Y-20.1650
G01 X-18.8740 Y-20.3583
G01 X-18.7586 Y-20.5350
G01 X-18.6156 Y-20.6903
G01 X-18.4490 Y-20.8200
G01 X-18.2634 Y-20.9204
G01 X-18.0637 Y-20.9890
G01 X-17.8555 Y-21.0237
G01 X-17.6445 Y-21.0237
G01 X-17.4363 Y-20.9890
G01 X-17.2366 Y-20.9204
G01 X-17.0510 Y-20.8200
G01 X-16.8844 Y-20.6903
G01 X-16.7414 Y-20.5350
G01 X-16.6260 Y-20.3583
G01 X-16.5412 Y-20.1650
G01 X-16.4894 Y-19.9604
G01 X-16.4719 Y-19.7500
G01 X-16.4894 Y-19.5396
G01 X-16.5412 Y-19.3350
G01 X-16.6260 Y-19.1417
G01 X-16.7414 Y-18.9650
G01 X-16.8844 Y-18.8097
G01 X-17.0510 Y-18.6800
G01 X-17.2366 Y-18.5796
G01 X-17.4362 Y-18.5110
G01 X-17.6445 Y-18.4763
G01 X-17.8555 Y-18.4763
G01 X-18.0637 Y-18.5110
G01 X-18.2634 Y-18.5796
G01 X-18.4490 Y-18.6800
G01 X-18.6156 Y-18.8097
G01 X-18.7586 Y-18.9650
G01 X-18.8740 Y-19.1417
G00 X-18.8740 Y-19.1417
G01 F60.00
G01 Z-0.0750
G01 F120.00
G01 X-18.9588 Y-19.3350
G01 X-19.0106 Y-19.5396
G01 X-19.0281 Y-19.7500
G01 X-19.0106 Y-19.9604
G01 X-18.9588 Y-20.1650
G01 X-18.8740 Y-20.3583
G01 X-18.7586 Y-20.5350
G01 X-18.6156 Y-20.6903
G01 X-18.4490 Y-20.8200
G01 X-18.2634 Y-20.9204
G01 X-18.0637 Y-20.9890
G01 X-17.8555 Y-21.0237
G01 X-17.6445 Y-21.0237
G01 X-17.4363 Y-20.9890
G01 X-17.2366 Y-20.9204
G01 X-17.0510 Y-20.8200
G01 X-16.8844 Y-20.6903
G01 X-16.7414 Y-20.5350
G01 X-16.6260 Y-20.3583
G01 X-16.5412 Y-20.1650
G01 X-16.4894 Y-19.9604
G01 X-16.4719 Y-19.7500
G01 X-16.4894 Y-19.5396
G01 X-16.5412 Y-19.3350
G01 X-16.6260 Y-19.1417
G01 X-16.7414 Y-18.9650
G01 X-16.8844 Y-18.8097
G01 X-17.0510 Y-18.6800
G01 X-17.2366 Y-18.5796
G01 X-17.4362 Y-18.5110
G01 X-17.6445 Y-18.4763
G01 X-17.8555 Y-18.4763
G01 X-18.0637 Y-18.5110
G01 X-18.2634 Y-18.5796
G01 X-18.4490 Y-18.6800
G01 X-18.6156 Y-18.8097
G01 X-18.7586 Y-18.9650
G01 X-18.8740 Y-19.1417
G00 X-18.8740 Y-19.1417
G01 F60.00
G01 Z-0.1000
G01 F120.00
G01 X-18.9588 Y-19.3350
G01 X-19.0106 Y-19.5396
G01 X-19.0281 Y-19.7500
G01 X-19.0106 Y-19.9604
G01 X-18.9588 Y-20.1650
G01 X-18.8740 Y-20.3583
G01 X-18.7586 Y-20.5350
G01 X-18.6156 Y-20.6903
G01 X-18.4490 Y-20.8200
G01 X-18.2634 Y-20.9204
G01 X-18.0637 Y-20.9890
G01 X-17.8555 Y-21.0237
G01 X-17.6445 Y-21.0237
G01 X-17.4363 Y-20.9890
G01 X-17.2366 Y-20.9204
G01 X-17.0510 Y-20.8200
G01 X-16.8844 Y-20.6903
G01 X-16.7414 Y-20.5350
G01 X-16.6260 Y-20.3583
G01 X-16.5412 Y-20.1650
G01 X-16.4894 Y-19.9604
G01 X-16.4719 Y-19.7500
G01 X-16.4894 Y-19.5396
G01 X-16.5412 Y-19.3350
G01 X-16.6260 Y-19.1417
G01 X-16.7414 Y-18.9650
G01 X-16.8844 Y-18.8097
G01 X-17.0510 Y-18.6800
G01 X-17.2366 Y-18.5796
G01 X-17.4362 Y-18.5110
G01 X-17.6445 Y-18.4763
G01 X-17.8555 Y-18.4763
G01 X-18.0637 Y-18.5110
G01 X-18.2634 Y-18.5796
G01 X-18.4490 Y-18.6800
G01 X-18.6156 Y-18.8097
G01 X-18.7586 Y-18.9650
G01 X-18.8740 Y-19.1417
G00 Z2.0000
G00 X-18.9551 Y-19.5216
G01 F60.00
G01 Z-0.0250
G01 F120.00
G01 X-18.9709 Y-19.6298
G01 X-18.9768 Y-19.7500
G01 X-18.9709 Y-19.8702
G01 X-18.9532 Y-19.9893
G01 X-18.9240 Y-20.1061
G01 X-18.8834 Y-20.2195
G01 X-18.8319 Y-20.3283
G01 X-18.7700 Y-20.4316
G01 X-18.6983 Y-20.5283
G01 X-18.6175 Y-20.6175
G01 X-18.5283 Y-20.6983
G01 X-18.4316 Y-20.7700
G01 X-18.3283 Y-20.8319
G01 X-18.2195 Y-20.8834
G01 X-18.1061 Y-20.9240
G01 X-17.9893 Y-20.9532
G01 X-17.8702 Y-20.9709
G01 X-17.7500 Y-20.9768
G01 X-17.6298 Y-20.9709
G01 X-17.5107 Y-20.9532
G01 X-17.3939 Y-20.9240
G01 X-17.2805 Y-20.8834
G01 X-17.1717 Y-20.8319
G01 X-17.0684 Y-20.7700
G01 X-16.9717 Y-20.6983
G01 X-16.8825 Y-20.6175
G01 X-16.8017 Y-20.5283
G01 X-16.7300 Y-20.4316
G01 X-16.6681 Y-20.3283
G01 X-16.6166 Y-20.2195
G01 X-16.5760 Y-20.1061
G01 X-16.5468 Y-19.9893
G01 X-16.5291 Y-19.8702
G01 X-16.5232 Y-19.7500
G01 X-16.5291 Y-19.6298
G01 X-16.5468 Y-19.5107
G01 X-16.5760 Y-19.3939
G01 X-16.6166 Y-19.2805
G01 X-16.6681 Y-19.1717
G01 X-16.7300 Y-19.0684
G01 X-16.8017 Y-18.9717
G01 X-16.8825 Y-18.8825
G01 X-16.9717 Y-18.8017
G01 X-17.0684 Y-18.7300
G01 X-17.1717 Y-18.6681
G01 X-17.2805 Y-18.6166
G01 X-17.3939 Y-18.5760
G01 X-17.5107 Y-18.5468
G01 X-17.6298 Y-18.5291
G01 X-17.7500 Y-18.5232
G01 X-17.8702 Y-18.5291
G01 X-17.9893 Y-18.5468
G01 X-18.1061 Y-18.5760
G01 X-18.2195 Y-18.6166
G01 X-18.3283 Y-18.6681
G01 X-18.4316 Y-18.7300
G01 X-18.5283 Y-18.8017
G01 X-18.6175 Y-18.8825
G01 X-18.6983 Y-18.9717
G01 X-18.7700 Y-19.0684
G01 X-18.8319 Y-19.1717
G01 X-18.8834 Y-19.2805
G01 X-18.9240 Y-19.3939
G01 X-18.9551 Y-19.5216
G00 X-18.9551 Y-19.5216
G01 F60.00
G01 Z-0.0500
G01 F120.00
G01 X-18.9709 Y-19.6298
G01 X-18.9768 Y-19.7500
G01 X-18.9709 Y-19.8702
G01 X-18.9532 Y-19.9893
G01 X-18.9240 Y-20.1061
G01 X-18.8834 Y-20.2195
G01 X-18.8319 Y-20.3283
G01 X-18.7700 Y-20.4316
G01 X-18.6983 Y-20.5283
G01 X-18.6175 Y-20.6175
G01 X-18.5283 Y-20.6983
G01 X-18.4316 Y-20.7700
G01 X-18.3283 Y-20.8319
G01 X-18.2195 Y-20.8834
G01 X-18.1061 Y-20.9240
G01 X-17.9893 Y-20.9532
G01 X-17.8702 Y-20.9709
G01 X-17.7500 Y-20.9768
G01 X-17.6298 Y-20.9709
G01 X-17.5107 Y-20.9532
G01 X-17.3939 Y-20.9240
G01 X-17.2805 Y-20.8834
G01 X-17.1717 Y-20.8319
G01 X-17.0684 Y-20.7700
G01 X-16.9717 Y-20.6983
G01 X-16.8825 Y-20.6175
G01 X-16.8017 Y-20.5283
G01 X-16.7300 Y-20.4316
G01 X-16.6681 Y-20.3283
G01 X-16.6166 Y-20.2195
G01 X-16.5760 Y-20.1061
G01 X-16.5468 Y-19.9893
G01 X-16.5291 Y-19.8702
G01 X-16.5232 Y-19.7500
G01 X-16.5291 Y-19.6298
G01 X-16.5468 Y-19.5107
G01 X-16.5760 Y-19.3939
G01 X-16.6166 Y-19.2805
G01 X-16.6681 Y-19.1717
G01 X-16.7300 Y-19.0684
G01 X-16.8017 Y-18.9717
G01 X-16.8825 Y-18.8825
G01 X-16.9717 Y-18.8017
G01 X-17.0684 Y-18.7300
G01 X-17.1717 Y-18.6681
G01 X-17.2805 Y-18.6166
G01 X-17.3939 Y-18.5760
G01 X-17.5107 Y-18.5468
G01 X-17.6298 Y-18.5291
G01 X-17.7500 Y-18.5232
G01 X-17.8702 Y-18.5291
G01 X-17.9893 Y-18.5468
G01 X-18.1061 Y-18.5760
G01 X-18.2195 Y-18.6166
G01 X-18.3283 Y-18.6681
G01 X-18.4316 Y-18.7300
G01 X-18.5283 Y-18.8017
G01 X-18.6175 Y-18.8825
G01 X-18.6983 Y-18.9717
G01 X-18.7700 Y-19.0684
G01 X-18.8319 Y-19.1717
G01 X-18.8834 Y-19.2805
G01 X-18.9240 Y-19.3939
G01 X-18.9551 Y-19.5216
G00 X-18.9551 Y-19.5216
G01 F60.00
G01 Z-0.0750
G01 F120.00
G01 X-18.9709 Y-19.6298
G01 X-18.9768 Y-19.7500
G01 X-18.9709 Y-19.8702
G01 X-18.9532 Y-19.9893
G01 X-18.9240 Y-20.1061
G01 X-18.8834 Y-20.2195
G01 X-18.8319 Y-20.3283
G01 X-18.7700 Y-20.4316
G01 X-18.6983 Y-20.5283
G01 X-18.6175 Y-20.6175
G01 X-18.5283 Y-20.6983
G01 X-18.4316 Y-20.7700
G01 X-18.3283 Y-20.8319
G01 X-18.2195 Y-20.8834
G01 X-18.1061 Y-20.9240
G01 X-17.9893 Y-20.9532
G01 X-17.8702 Y-20.9709
G01 X-17.7500 Y-20.9768
G01 X-17.6298 Y-20.9709
G01 X-17.5107 Y-20.9532
G01 X-17.3939 Y-20.9240
G01 X-17.2805 Y-20.8834
G01 X-17.1717 Y-20.8319
G01 X-17.0684 Y-20.7700
G01 X-16.9717 Y-20.6983
G01 X-16.8825 Y-20.6175
G01 X-16.8017 Y-20.5283
G01 X-16.7300 Y-20.4316
G01 X-16.6681 Y-20.3283
G01 X-16.6166 Y-20.2195
G01 X-16.5760 Y-20.1061
G01 X-16.5468 Y-19.9893
G01 X-16.5291 Y-19.8702
G01 X-16.5232 Y-19.7500
G01 X-16.5291 Y-19.6298
G01 X-16.5468 Y-19.5107
G01 X-16.5760 Y-19.3939
G01 X-16.6166 Y-19.2805
G01 X-16.6681 Y-19.1717
G01 X-16.7300 Y-19.0684
G01 X-16.8017 Y-18.9717
G01 X-16.8825 Y-18.8825
G01 X-16.9717 Y-18.8017
G01 X-17.0684 Y-18.7300
G01 X-17.1717 Y-18.6681
G01 X-17.2805 Y-18.6166
G01 X-17.3939 Y-18.5760
G01 X-17.5107 Y-18.5468
G01 X-17.6298 Y-18.5291
G01 X-17.7500 Y-18.5232
G01 X-17.8702 Y-18.5291
G01 X-17.9893 Y-18.5468
G01 X-18.1061 Y-18.5760
G01 X-18.2195 Y-18.6166
G01 X-18.3283 Y-18.6681
G01 X-18.4316 Y-18.7300
G01 X-18.5283 Y-18.8017
G01 X-18.6175 Y-18.8825
G01 X-18.6983 Y-18.9717
G01 X-18.7700 Y-19.0684
G01 X-18.8319 Y-19.1717
G01 X-18.8834 Y-19.2805
G01 X-18.9240 Y-19.3939
G01 X-18.9551 Y-19.5216
G00 X-18.9551 Y-19.5216
G01 F60.00
G01 Z-0.1000
G01 F120.00
G01 X-18.9709 Y-19.6298
G01 X-18.9768 Y-19.7500
G01 X-18.9709 Y-19.8702
G01 X-18.9532 Y-19.9893
G01 X-18.9240 Y-20.1061
G01 X-18.8834 Y-20.2195
G01 X-18.8319 Y-20.3283
G01 X-18.7700 Y-20.4316
G01 X-18.6983 Y-20.5283
G01 X-18.6175 Y-20.6175
G01 X-18.5283 Y-20.6983
G01 X-18.4316 Y-20.7700
G01 X-18.3283 Y-20.8319
G01 X-18.2195 Y-20.8834
G01 X-18.1061 Y-20.9240
G01 X-17.9893 Y-20.9532
G01 X-17.8702 Y-20.9709
G01 X-17.7500 Y-20.9768
G01 X-17.6298 Y-20.9709
G01 X-17.5107 Y-20.9532
G01 X-17.3939 Y-20.9240
G01 X-17.2805 Y-20.8834
G01 X-17.1717 Y-20.8319
G01 X-17.0684 Y-20.7700
G01 X-16.9717 Y-20.6983
G01 X-16.8825 Y-20.6175
G01 X-16.8017 Y-20.5283
G01 X-16.7300 Y-20.4316
G01 X-16.6681 Y-20.3283
G01 X-16.6166 Y-20.2195
G01 X-16.5760 Y-20.1061
G01 X-16.5468 Y-19.9893
G01 X-16.5291 Y-19.8702
G01 X-16.5232 Y-19.7500
G01 X-16.5291 Y-19.6298
G01 X-16.5468 Y-19.5107
G01 X-16.5760 Y-19.3939
G01 X-16.6166 Y-19.2805
G01 X-16.6681 Y-19.1717
G01 X-16.7300 Y-19.0684
G01 X-16.8017 Y-18.9717
G01 X-16.8825 Y-18.8825
G01 X-16.9717 Y-18.8017
G01 X-17.0684 Y-18.7300
G01 X-17.1717 Y-18.6681
G01 X-17.2805 Y-18.6166
G01 X-17.3939 Y-18.5760
G01 X-17.5107 Y-18.5468
G01 X-17.6298 Y-18.5291
G01 X-17.7500 Y-18.5232
G01 X-17.8702 Y-18.5291
G01 X-17.9893 Y-18.5468
G01 X-18.1061 Y-18.5760
G01 X-18.2195 Y-18.6166
G01 X-18.3283 Y-18.6681
G01 X-18.4316 Y-18.7300
G01 X-18.5283 Y-18.8017
G01 X-18.6175 Y-18.8825
G01 X-18.6983 Y-18.9717
G01 X-18.7700 Y-19.0684
G01 X-18.8319 Y-19.1717
G01 X-18.8834 Y-19.2805
G01 X-18.9240 Y-19.3939
G01 X-18.9551 Y-19.5216
G00 Z2.0000
G00 X-18.0954 Y-23.0731
G01 F60.00
G01 Z-0.0250
G01 F120.00
G01 X-17.9893 Y-23.0468
G01 X-17.8813 Y-23.0305
G01 X-17.7500 Y-23.0232
G01 X-17.6298 Y-23.0291
G01 X-17.5107 Y-23.0468
G01 X-17.3939 Y-23.0760
G01 X-17.2880 Y-23.1137
G01 X-17.2499 Y-23.0756
G01 X-17.4364 Y-23.0115
G01 X-17.6445 Y-22.9768
G01 X-17.8555 Y-22.9768
G01 X-18.0636 Y-23.0115
G01 X-18.2501 Y-23.0756
G01 X-18.2120 Y-23.1137
G01 X-18.0954 Y-23.0731
G00 X-18.0954 Y-23.0731
G01 F60.00
G01 Z-0.0500
G01 F120.00
G01 X-17.9893 Y-23.0468
G01 X-17.8813 Y-23.0305
G01 X-17.7500 Y-23.0232
G01 X-17.6298 Y-23.0291
G01 X-17.5107 Y-23.0468
G01 X-17.3939 Y-23.0760
G01 X-17.2880 Y-23.1137
G01 X-17.2499 Y-23.0756
G01 X-17.4364 Y-23.0115
G01 X-17.6445 Y-22.9768
G01 X-17.8555 Y-22.9768
G01 X-18.0636 Y-23.0115
G01 X-18.2501 Y-23.0756
G01 X-18.2120 Y-23.1137
G01 X-18.0954 Y-23.0731
G00 X-18.0954 Y-23.0731
G01 F60.00
G01 Z-0.0750
G01 F120.00
G01 X-17.9893 Y-23.0468
G01 X-17.8813 Y-23.0305
G01 X-17.7500 Y-23.0232
G01 X-17.6298 Y-23.0291
G01 X-17.5107 Y-23.0468
G01 X-17.3939 Y-23.0760
G01 X-17.2880 Y-23.1137
G01 X-17.2499 Y-23.0756
G01 X-17.4364 Y-23.0115
G01 X-17.6445 Y-22.9768
G01 X-17.8555 Y-22.9768
G01 X-18.0636 Y-23.0115
G01 X-18.2501 Y-23.0756
G01 X-18.2120 Y-23.1137
G01 X-18.0954 Y-23.0731
G00 X-18.0954 Y-23.0731
G01 F60.00
G01 Z-0.1000
G01 F120.00
G01 X-17.9893 Y-23.0468
G01 X-17.8813 Y-23.0305
G01 X-17.7500 Y-23.0232
G01 X-17.6298 Y-23.0291
G01 X-17.5107 Y-23.0468
G01 X-17.3939 Y-23.0760
G01 X-17.2880 Y-23.1137
G01 X-17.2499 Y-23.0756
G01 X-17.4364 Y-23.0115
G01 X-17.6445 Y-22.9768
G01 X-17.8555 Y-22.9768
G01 X-18.0636 Y-23.0115
G01 X-18.2501 Y-23.0756
G01 X-18.2120 Y-23.1137
G01 X-18.0954 Y-23.0731
G00 Z2.0000
G00 X-16.5731 Y-23.9046
G01 F60.00
G01 Z-0.0250
G01 F120.00
G01 X-16.5468 Y-24.0107
G01 X-16.5305 Y-24.1187
G01 X-16.5232 Y-24.2500
G01 X-16.5291 Y-24.3702
G01 X-16.5468 Y-24.4893
G01 X-16.5760 Y-24.6061
G01 X-16.6137 Y-24.7120
G01 X-16.5780 Y-24.7477
G01 X-16.5417 Y-24.6648
G01 X-16.4899 Y-24.4603
G01 X-16.4724 Y-24.2500
G01 X-16.4899 Y-24.0397
G01 X-16.5417 Y-23.8352
G01 X-16.5780 Y-23.7523
G01 X-16.6137 Y-23.7880
G01 X-16.5731 Y-23.9046
G00 X-16.5731 Y-23.9046
G01 F60.00
G01 Z-0.0500
G01 F120.00
G01 X-16.5468 Y-24.0107
G01 X-16.5305 Y-24.1187
G01 X-16.5232 Y-24.2500
G01 X-16.5291 Y-24.3702
G01 X-16.5468 Y-24.4893
G01 X-16.5760 Y-24.6061
G01 X-16.6137 Y-24.7120
G01 X-16.5780 Y-24.7477
G01 X-16.5417 Y-24.6648
G01 X-16.4899 Y-24.4603
G01 X-16.4724 Y-24.2500
G01 X-16.4899 Y-24.0397
G01 X-16.5417 Y-23.8352
G01 X-16.5780 Y-23.7523
G01 X-16.6137 Y-23.7880
G01 X-16.5731 Y-23.9046
G00 X-16.5731 Y-23.9046
G01 F60.00
G01 Z-0.0750
G01 F120.00
G01 X-16.5468 Y-24.0107
G01 X-16.5305 Y-24.1187
G01 X-16.5232 Y-24.2500
G01 X-16.5291 Y-24.3702
G01 X-16.5468 Y-24.4893
G01 X-16.5760 Y-24.6061
G01 X-16.6137 Y-24.7120
G01 X-16.5780 Y-24.7477
G01 X-16.5417 Y-24.6648
G01 X-16.4899 Y-24.4603
G01 X-16.4724 Y-24.2500
G01 X-16.4899 Y-24.0397
G01 X-16.5417 Y-23.8352
G01 X-16.5780 Y-23.7523
G01 X-16.6137 Y-23.7880
G01 X-16.5731 Y-23.9046
G00 X-16.5731 Y-23.9046
G01 F60.00
G01 Z-0.1000
G01 F120.00
G01 X-16.5468 Y-24.0107
G01 X-16.5305 Y-24.1187
G01 X-16.5232 Y-24.2500
G01 X-16.5291 Y-24.3702
G01 X-16.5468 Y-24.4893
G01 X-16.5760 Y-24.6061
G01 X-16.6137 Y-24.7120
G01 X-16.5780 Y-24.7477
G01 X-16.5417 Y-24.6648
G01 X-16.4899 Y-24.4603
G01 X-16.4724 Y-24.2500
G01 X-16.4899 Y-24.0397
G01 X-16.5417 Y-23.8352
G01 X-16.5780 Y-23.7523
G01 X-16.6137 Y-23.7880
G01 X-16.5731 Y-23.9046
G00 Z2.0000
G00 X-17.4364 Y-25.4885
G01 F60.00
G01 Z-0.0250
G01 F120.00
G01 X-17.2499 Y-25.4244
G01 X-17.2880 Y-25.3863
G01 X-17.3939 Y-25.4240
G01 X-17.5107 Y-25.4532
G01 X-17.6298 Y-25.4709
G01 X-17.7500 Y-25.4768
G01 X-17.8702 Y-25.4709
G01 X-17.9893 Y-25.4532
G01 X-18.1061 Y-25.4240
G01 X-18.2120 Y-25.3863
G01 X-18.2501 Y-25.4244
G01 X-18.0636 Y-25.4885
G01 X-17.8555 Y-25.5232
G01 X-17.6445 Y-25.5232
G01 X-17.4364 Y-25.4885
G00 X-17.4364 Y-25.4885
G01 F60.00
G01 Z-0.0500
G01 F120.00
G01 X-17.2499 Y-25.4244
G01 X-17.2880 Y-25.3863
G01 X-17.3939 Y-25.4240
G01 X-17.5107 Y-25.4532
G01 X-17.6298 Y-25.4709
G01 X-17.7500 Y-25.4768
G01 X-17.8702 Y-25.4709
G01 X-17.9893 Y-25.4532
G01 X-18.1061 Y-25.4240
G01 X-18.2120 Y-25.3863
G01 X-18.2501 Y-25.4244
G01 X-18.0636 Y-25.4885
G01 X-17.8555 Y-25.5232
G01 X-17.6445 Y-25.5232
G01 X-17.4364 Y-25.4885
G00 X-17.4364 Y-25.4885
G01 F60.00
G01 Z-0.0750
G01 F120.00
G01 X-17.2499 Y-25.4244
G01 X-17.2880 Y-25.3863
G01 X-17.3939 Y-25.4240
G01 X-17.5107 Y-25.4532
G01 X-17.6298 Y-25.4709
G01 X-17.7500 Y-25.4768
G01 X-17.8702 Y-25.4709
G01 X-17.9893 Y-25.4532
G01 X-18.1061 Y-25.4240
G01 X-18.2120 Y-25.3863
G01 X-18.2501 Y-25.4244
G01 X-18.0636 Y-25.4885
G01 X-17.8555 Y-25.5232
G01 X-17.6445 Y-25.5232
G01 X-17.4364 Y-25.4885
G00 X-17.4364 Y-25.4885
G01 F60.00
G01 Z-0.1000
G01 F120.00
G01 X-17.2499 Y-25.4244
G01 X-17.2880 Y-25.3863
G01 X-17.3939 Y-25.4240
G01 X-17.5107 Y-25.4532
G01 X-17.6298 Y-25.4709
G01 X-17.7500 Y-25.4768
G01 X-17.8702 Y-25.4709
G01 X-17.9893 Y-25.4532
G01 X-18.1061 Y-25.4240
G01 X-18.2120 Y-25.3863
G01 X-18.2501 Y-25.4244
G01 X-18.0636 Y-25.4885
G01 X-17.8555 Y-25.5232
G01 X-17.6445 Y-25.5232
G01 X-17.4364 Y-25.4885
G00 Z2.0000
G00 X-18.9240 Y-24.6061
G01 F60.00
G01 Z-0.0250
G01 F120.00
G01 X-18.9532 Y-24.4893
G01 X-18.9695 Y-24.3813
G01 X-18.9768 Y-24.2500
G01 X-18.9709 Y-24.1298
G01 X-18.9532 Y-24.0107
G01 X-18.9240 Y-23.8939
G01 X-18.8863 Y-23.7880
G01 X-18.9220 Y-23.7523
G01 X-18.9583 Y-23.8352
G01 X-19.0101 Y-24.0397
G01 X-19.0276 Y-24.2500
G01 X-19.0101 Y-24.4603
G01 X-18.9583 Y-24.6648
G01 X-18.9220 Y-24.7477
G01 X-18.8863 Y-24.7120
G01 X-18.9240 Y-24.6061
G00 X-18.9240 Y-24.6061
G01 F60.00
G01 Z-0.0500
G01 F120.00
G01 X-18.9532 Y-24.4893
G01 X-18.9695 Y-24.3813
G01 X-18.9768 Y-24.2500
G01 X-18.9709 Y-24.1298
G01 X-18.9532 Y-24.0107
G01 X-18.9240 Y-23.8939
G01 X-18.8863 Y-23.7880
G01 X-18.9220 Y-23.7523
G01 X-18.9583 Y-23.8352
G01 X-19.0101 Y-24.0397
G01 X-19.0276 Y-24.2500
G01 X-19.0101 Y-24.4603
G01 X-18.9583 Y-24.6648
G01 X-18.9220 Y-24.7477
G01 X-18.8863 Y-24.7120
G01 X-18.9240 Y-24.6061
G00 X-18.9240 Y-24.6061
G01 F60.00
G01 Z-0.0750
G01 F120.00
G01 X-18.9532 Y-24.4893
G01 X-18.9695 Y-24.3813
G01 X-18.9768 Y-24.2500
G01 X-18.9709 Y-24.1298
G01 X-18.9532 Y-24.0107
G01 X-18.9240 Y-23.8939
G01 X-18.8863 Y-23.7880
G01 X-18.9220 Y-23.7523
G01 X-18.9583 Y-23.8352
G01 X-19.0101 Y-24.0397
G01 X-19.0276 Y-24.2500
G01 X-19.0101 Y-24.4603
G01 X-18.9583 Y-24.6648
G01 X-18.9220 Y-24.7477
G01 X-18.8863 Y-24.7120
G01 X-18.9240 Y-24.6061
G00 X-18.9240 Y-24.6061
G01 F60.00
G01 Z-0.1000
G01 F120.00
G01 X-18.9532 Y-24.4893
G01 X-18.9695 Y-24.3813
G01 X-18.9768 Y-24.2500
G01 X-18.9709 Y-24.1298
G01 X-18.9532 Y-24.0107
G01 X-18.9240 Y-23.8939
G01 X-18.8863 Y-23.7880
G01 X-18.9220 Y-23.7523
G01 X-18.9583 Y-23.8352
G01 X-19.0101 Y-24.0397
G01 X-19.0276 Y-24.2500
G01 X-19.0101 Y-24.4603
G01 X-18.9583 Y-24.6648
G01 X-18.9220 Y-24.7477
G01 X-18.8863 Y-24.7120
G01 X-18.9240 Y-24.6061
G00 Z2.0000
G00 X-23.0731 Y-23.9046
G01 F60.00
G01 Z-0.0250
G01 F120.00
G01 X-23.0468 Y-24.0107
G01 X-23.0305 Y-24.1187
G01 X-23.0232 Y-24.2500
G01 X-23.0291 Y-24.3702
G01 X-23.0468 Y-24.4893
G01 X-23.0760 Y-24.6061
G01 X-23.1137 Y-24.7120
G01 X-23.0780 Y-24.7477
G01 X-23.0417 Y-24.6648
G01 X-22.9899 Y-24.4603
G01 X-22.9724 Y-24.2500
G01 X-22.9899 Y-24.0397
G01 X-23.0417 Y-23.8352
G01 X-23.0780 Y-23.7523
G01 X-23.1137 Y-23.7880
G01 X-23.0731 Y-23.9046
G00 X-23.0731 Y-23.9046
G01 F60.00
G01 Z-0.0500
G01 F120.00
G01 X-23.0468 Y-24.0107
G01 X-23.0305 Y-24.1187
G01 X-23.0232 Y-24.2500
G01 X-23.0291 Y-24.3702
G01 X-23.0468 Y-24.4893
G01 X-23.0760 Y-24.6061
G01 X-23.1137 Y-24.7120
G01 X-23.0780 Y-24.7477
G01 X-23.0417 Y-24.6648
G01 X-22.9899 Y-24.4603
G01 X-22.9724 Y-24.2500
G01 X-22.9899 Y-24.0397
G01 X-23.0417 Y-23.8352
G01 X-23.0780 Y-23.7523
G01 X-23.1137 Y-23.7880
G01 X-23.0731 Y-23.9046
G00 X-23.0731 Y-23.9046
G01 F60.00
G01 Z-0.0750
G01 F120.00
G01 X-23.0468 Y-24.0107
G01 X-23.0305 Y-24.1187
G01 X-23.0232 Y-24.2500
G01 X-23.0291 Y-24.3702
G01 X-23.0468 Y-24.4893
G01 X-23.0760 Y-24.6061
G01 X-23.1137 Y-24.7120
G01 X-23.0780 Y-24.7477
G01 X-23.0417 Y-24.6648
G01 X-22.9899 Y-24.4603
G01 X-22.9724 Y-24.2500
G01 X-22.9899 Y-24.0397
G01 X-23.0417 Y-23.8352
G01 X-23.0780 Y-23.7523
G01 X-23.1137 Y-23.7880
G01 X-23.0731 Y-23.9046
G00 X-23.0731 Y-23.9046
G01 F60.00
G01 Z-0.1000
G01 F120.00
G01 X-23.0468 Y-24.0107
G01 X-23.0305 Y-24.1187
G01 X-23.0232 Y-24.2500
G01 X-23.0291 Y-24.3702
G01 X-23.0468 Y-24.4893
G01 X-23.0760 Y-24.6061
G01 X-23.1137 Y-24.7120
G01 X-23.0780 Y-24.7477
G01 X-23.0417 Y-24.6648
G01 X-22.9899 Y-24.4603
G01 X-22.9724 Y-24.2500
G01 X-22.9899 Y-24.0397
G01 X-23.0417 Y-23.8352
G01 X-23.0780 Y-23.7523
G01 X-23.1137 Y-23.7880
G01 X-23.0731 Y-23.9046
G00 Z2.0000
G00 X-24.5954 Y-23.0731
G01 F60.00
G01 Z-0.0250
G01 F120.00
G01 X-24.4893 Y-23.0468
G01 X-24.3813 Y-23.0305
G01 X-24.2500 Y-23.0232
G01 X-24.1298 Y-23.0291
G01 X-24.0107 Y-23.0468
G01 X-23.8939 Y-23.0760
G01 X-23.7880 Y-23.1137
G01 X-23.7499 Y-23.0756
G01 X-23.9364 Y-23.0115
G01 X-24.1445 Y-22.9768
G01 X-24.3555 Y-22.9768
G01 X-24.5636 Y-23.0115
G01 X-24.7501 Y-23.0756
G01 X-24.7120 Y-23.1137
G01 X-24.5954 Y-23.0731
G00 X-24.5954 Y-23.0731
G01 F60.00
G01 Z-0.0500
G01 F120.00
G01 X-24.4893 Y-23.0468
G01 X-24.3813 Y-23.0305
G01 X-24.2500 Y-23.0232
G01 X-24.1298 Y-23.0291
G01 X-24.0107 Y-23.0468
G01 X-23.8939 Y-23.0760
G01 X-23.7880 Y-23.1137
G01 X-23.7499 Y-23.0756
G01 X-23.9364 Y-23.0115
G01 X-24.1445 Y-22.9768
G01 X-24.3555 Y-22.9768
G01 X-24.5636 Y-23.0115
G01 X-24.7501 Y-23.0756
G01 X-24.7120 Y-23.1137
G01 X-24.5954 Y-23.0731
G00 X-24.5954 Y-23.0731
G01 F60.00
G01 Z-0.0750
G01 F120.00
G01 X-24.4893 Y-23.0468
G01 X-24.3813 Y-23.0305
G01 X-24.2500 Y-23.0232
G01 X-24.1298 Y-23.0291
G01 X-24.0107 Y-23.0468
G01 X-23.8939 Y-23.0760
G01 X-23.7880 Y-23.1137
G01 X-23.7499 Y-23.0756
G01 X-23.9364 Y-23.0115
G01 X-24.1445 Y-22.9768
G01 X-24.3555 Y-22.9768
G01 X-24.5636 Y-23.0115
G01 X-24.7501 Y-23.0756
G01 X-24.7120 Y-23.1137
G01 X-24.5954 Y-23.0731
G00 X-24.5954 Y-23.0731
G01 F60.00
G01 Z-0.1000
G01 F120.00
G01 X-24.4893 Y-23.0468
G01 X-24.3813 Y-23.0305
G01 X-24.2500 Y-23.0232
G01 X-24.1298 Y-23.0291
G01 X-24.0107 Y-23.0468
G01 X-23.8939 Y-23.0760
G01 X-23.7880 Y-23.1137
G01 X-23.7499 Y-23.0756
G01 X-23.9364 Y-23.0115
G01 X-24.1445 Y-22.9768
G01 X-24.3555 Y-22.9768
G01 X-24.5636 Y-23.0115
G01 X-24.7501 Y-23.0756
G01 X-24.7120 Y-23.1137
G01 X-24.5954 Y-23.0731
G00 Z2.0000
G00 X-25.4240 Y-24.6061
G01 F60.00
G01 Z-0.0250
G01 F120.00
G01 X-25.4532 Y-24.4893
G01 X-25.4695 Y-24.3813
G01 X-25.4768 Y-24.2500
G01 X-25.4709 Y-24.1298
G01 X-25.4532 Y-24.0107
G01 X-25.4240 Y-23.8939
G01 X-25.3863 Y-23.7880
G01 X-25.4220 Y-23.7523
G01 X-25.4583 Y-23.8352
G01 X-25.5101 Y-24.0397
G01 X-25.5276 Y-24.2500
G01 X-25.5101 Y-24.4603
G01 X-25.4583 Y-24.6648
G01 X-25.4220 Y-24.7477
G01 X-25.3863 Y-24.7120
G01 X-25.4240 Y-24.6061
G00 X-25.4240 Y-24.6061
G01 F60.00
G01 Z-0.0500
G01 F120.00
G01 X-25.4532 Y-24.4893
G01 X-25.4695 Y-24.3813
G01 X-25.4768 Y-24.2500
G01 X-25.4709 Y-24.1298
G01 X-25.4532 Y-24.0107
G01 X-25.4240 Y-23.8939
G01 X-25.3863 Y-23.7880
G01 X-25.4220 Y-23.7523
G01 X-25.4583 Y-23.8352
G01 X-25.5101 Y-24.0397
G01 X-25.5276 Y-24.2500
G01 X-25.5101 Y-24.4603
G01 X-25.4583 Y-24.6648
G01 X-25.4220 Y-24.7477
G01 X-25.3863 Y-24.7120
G01 X-25.4240 Y-24.6061
G00 X-25.4240 Y-24.6061
G01 F60.00
G01 Z-0.0750
G01 F120.00
G01 X-25.4532 Y-24.4893
G01 X-25.4695 Y-24.3813
G01 X-25.4768 Y-24.2500
G01 X-25.4709 Y-24.1298
G01 X-25.4532 Y-24.0107
G01 X-25.4240 Y-23.8939
G01 X-25.3863 Y-23.7880
G01 X-25.4220 Y-23.7523
G01 X-25.4583 Y-23.8352
G01 X-25.5101 Y-24.0397
G01 X-25.5276 Y-24.2500
G01 X-25.5101 Y-24.4603
G01 X-25.4583 Y-24.6648
G01 X-25.4220 Y-24.7477
G01 X-25.3863 Y-24.7120
G01 X-25.4240 Y-24.6061
G00 X-25.4240 Y-24.6061
G01 F60.00
G01 Z-0.1000
G01 F120.00
G01 X-25.4532 Y-24.4893
G01 X-25.4695 Y-24.3813
G01 X-25.4768 Y-24.2500
G01 X-25.4709 Y-24.1298
G01 X-25.4532 Y-24.0107
G01 X-25.4240 Y-23.8939
G01 X-25.3863 Y-23.7880
G01 X-25.4220 Y-23.7523
G01 X-25.4583 Y-23.8352
G01 X-25.5101 Y-24.0397
G01 X-25.5276 Y-24.2500
G01 X-25.5101 Y-24.4603
G01 X-25.4583 Y-24.6648
G01 X-25.4220 Y-24.7477
G01 X-25.3863 Y-24.7120
G01 X-25.4240 Y-24.6061
G00 Z2.0000
G00 X-28.2561 Y-23.8530
G01 F60.00
G01 Z-0.0250
G01 F120.00
G01 X-28.1467 Y-23.9342
G01 X-28.0775 Y-24.0232
G01 X-28.0226 Y-24.0232
G01 X-28.0717 Y-23.9436
G01 X-28.1561 Y-23.8592
G01 X-28.2577 Y-23.7965
G01 X-28.2982 Y-23.7831
G01 X-28.2982 Y-23.8332
G01 X-28.2561 Y-23.8530
G00 X-28.2561 Y-23.8530
G01 F60.00
G01 Z-0.0500
G01 F120.00
G01 X-28.1467 Y-23.9342
G01 X-28.0775 Y-24.0232
G01 X-28.0226 Y-24.0232
G01 X-28.0717 Y-23.9436
G01 X-28.1561 Y-23.8592
G01 X-28.2577 Y-23.7965
G01 X-28.2982 Y-23.7831
G01 X-28.2982 Y-23.8332
G01 X-28.2561 Y-23.8530
G00 X-28.2561 Y-23.8530
G01 F60.00
G01 Z-0.0750
G01 F120.00
G01 X-28.1467 Y-23.9342
G01 X-28.0775 Y-24.0232
G01 X-28.0226 Y-24.0232
G01 X-28.0717 Y-23.9436
G01 X-28.1561 Y-23.8592
G01 X-28.2577 Y-23.7965
G01 X-28.2982 Y-23.7831
G01 X-28.2982 Y-23.8332
G01 X-28.2561 Y-23.8530
G00 X-28.2561 Y-23.8530
G01 F60.00
G01 Z-0.1000
G01 F120.00
G01 X-28.1467 Y-23.9342
G01 X-28.0775 Y-24.0232
G01 X-28.0226 Y-24.0232
G01 X-28.0717 Y-23.9436
G01 X-28.1561 Y-23.8592
G01 X-28.2577 Y-23.7965
G01 X-28.2982 Y-23.7831
G01 X-28.2982 Y-23.8332
G01 X-28.2561 Y-23.8530
G00 Z2.0000
G00 X-34.1419 Y-21.3594
G01 F60.00
G01 Z-0.0250
G01 F120.00
G01 X-34.1418 Y-25.3500
G01 X-34.1365 Y-25.4125
G01 X-34.1086 Y-25.5044
G01 X-34.0563 Y-25.5890
G01 X-33.9953 Y-25.6481
G01 X-33.9092 Y-25.6981
G01 X-33.8385 Y-25.7196
G01 X-33.7761 Y-25.7265
G01 X-33.4025 Y-25.7215
G01 X-33.2874 Y-25.6823
G01 X-33.1909 Y-25.6084
G01 X-33.1517 Y-25.5593
G01 X-33.1214 Y-25.5044
G01 X-33.0900 Y-25.3869
G01 X-33.0880 Y-21.5833
G01 X-31.7817 Y-20.2770
G01 X-25.3565 Y-20.2770
G01 X-25.2700 Y-20.4316
G01 X-25.1983 Y-20.5283
G01 X-25.1252 Y-20.6094
G01 X-25.0195 Y-20.7052
G01 X-24.9316 Y-20.7700
G01 X-24.8283 Y-20.8319
G01 X-24.7091 Y-20.8874
G01 X-24.6061 Y-20.9240
G01 X-24.4893 Y-20.9532
G01 X-24.3591 Y-20.9717
G01 X-24.2500 Y-20.9768
G01 X-24.1298 Y-20.9709
G01 X-24.0107 Y-20.9532
G01 X-23.8939 Y-20.9240
G01 X-23.7805 Y-20.8834
G01 X-23.6717 Y-20.8319
G01 X-23.5684 Y-20.7700
G01 X-23.4717 Y-20.6983
G01 X-23.3825 Y-20.6175
G01 X-23.2948 Y-20.5195
G01 X-23.2300 Y-20.4316
G01 X-23.1631 Y-20.3184
G01 X-23.1126 Y-20.2091
G01 X-23.0760 Y-20.1061
G01 X-23.0492 Y-20.0002
G01 X-23.0291 Y-19.8702
G01 X-23.0232 Y-19.7500
G01 X-23.0291 Y-19.6298
G01 X-23.0449 Y-19.5216
G01 X-23.0760 Y-19.3939
G01 X-23.1126 Y-19.2909
G01 X-23.1735 Y-19.1620
G01 X-23.2300 Y-19.0684
G01 X-23.3017 Y-18.9717
G01 X-23.3825 Y-18.8825
G01 X-23.4717 Y-18.8017
G01 X-23.5684 Y-18.7300
G01 X-23.6620 Y-18.6735
G01 X-23.7909 Y-18.6126
G01 X-23.8939 Y-18.5760
G01 X-24.0107 Y-18.5468
G01 X-24.1298 Y-18.5291
G01 X-24.2389 Y-18.5235
G01 X-24.3813 Y-18.5305
G01 X-24.4893 Y-18.5468
G01 X-24.6061 Y-18.5760
G01 X-24.7297 Y-18.6211
G01 X-24.8283 Y-18.6681
G01 X-24.9222 Y-18.7240
G01 X-25.0367 Y-18.8089
G01 X-25.1175 Y-18.8825
G01 X-25.1911 Y-18.9633
G01 X-25.2700 Y-19.0684
G01 X-25.3565 Y-19.2230
G01 X-32.0000 Y-19.2230
G01 X-32.0918 Y-19.2313
G01 X-32.1635 Y-19.2492
G01 X-32.2484 Y-19.2853
G01 X-32.3019 Y-19.3183
G01 X-32.3686 Y-19.3735
G01 X-33.9915 Y-20.9964
G01 X-34.0531 Y-21.0722
G01 X-34.1018 Y-21.1633
G01 X-34.1318 Y-21.2622
G01 X-34.1419 Y-21.3594
G00 X-34.1419 Y-21.3594
G01 F60.00
G01 Z-0.0500
G01 F120.00
G01 X-34.1418 Y-25.3500
G01 X-34.1365 Y-25.4125
G01 X-34.1086 Y-25.5044
G01 X-34.0563 Y-25.5890
G01 X-33.9953 Y-25.6481
G01 X-33.9092 Y-25.6981
G01 X-33.8385 Y-25.7196
G01 X-33.7761 Y-25.7265
G01 X-33.4025 Y-25.7215
G01 X-33.2874 Y-25.6823
G01 X-33.1909 Y-25.6084
G01 X-33.1517 Y-25.5593
G01 X-33.1214 Y-25.5044
G01 X-33.0900 Y-25.3869
G01 X-33.0880 Y-21.5833
G01 X-31.7817 Y-20.2770
G01 X-25.3565 Y-20.2770
G01 X-25.2700 Y-20.4316
G01 X-25.1983 Y-20.5283
G01 X-25.1252 Y-20.6094
G01 X-25.0195 Y-20.7052
G01 X-24.9316 Y-20.7700
G01 X-24.8283 Y-20.8319
G01 X-24.7091 Y-20.8874
G01 X-24.6061 Y-20.9240
G01 X-24.4893 Y-20.9532
G01 X-24.3591 Y-20.9717
G01 X-24.2500 Y-20.9768
G01 X-24.1298 Y-20.9709
G01 X-24.0107 Y-20.9532
G01 X-23.8939 Y-20.9240
G01 X-23.7805 Y-20.8834
G01 X-23.6717 Y-20.8319
G01 X-23.5684 Y-20.7700
G01 X-23.4717 Y-20.6983
G01 X-23.3825 Y-20.6175
G01 X-23.2948 Y-20.5195
G01 X-23.2300 Y-20.4316
G01 X-23.1631 Y-20.3184
G01 X-23.1126 Y-20.2091
G01 X-23.0760 Y-20.1061
G01 X-23.0492 Y-20.0002
G01 X-23.0291 Y-19.8702
G01 X-23.0232 Y-19.7500
G01 X-23.0291 Y-19.6298
G01 X-23.0449 Y-19.5216
G01 X-23.0760 Y-19.3939
G01 X-23.1126 Y-19.2909
G01 X-23.1735 Y-19.1620
G01 X-23.2300 Y-19.0684
G01 X-23.3017 Y-18.9717
G01 X-23.3825 Y-18.8825
G01 X-23.4717 Y-18.8017
G01 X-23.5684 Y-18.7300
G01 X-23.6620 Y-18.6735
G01 X-23.7909 Y-18.6126
G01 X-23.8939 Y-18.5760
G01 X-24.0107 Y-18.5468
G01 X-24.1298 Y-18.5291
G01 X-24.2389 Y-18.5235
G01 X-24.3813 Y-18.5305
G01 X-24.4893 Y-18.5468
G01 X-24.6061 Y-18.5760
G01 X-24.7297 Y-18.6211
G01 X-24.8283 Y-18.6681
G01 X-24.9222 Y-18.7240
G01 X-25.0367 Y-18.8089
G01 X-25.1175 Y-18.8825
G01 X-25.1911 Y-18.9633
G01 X-25.2700 Y-19.0684
G01 X-25.3565 Y-19.2230
G01 X-32.0000 Y-19.2230
G01 X-32.0918 Y-19.2313
G01 X-32.1635 Y-19.2492
G01 X-32.2484 Y-19.2853
G01 X-32.3019 Y-19.3183
G01 X-32.3686 Y-19.3735
G01 X-33.9915 Y-20.9964
G01 X-34.0531 Y-21.0722
G01 X-34.1018 Y-21.1633
G01 X-34.1318 Y-21.2622
G01 X-34.1419 Y-21.3594
G00 X-34.1419 Y-21.3594
G01 F60.00
G01 Z-0.0750
G01 F120.00
G01 X-34.1418 Y-25.3500
G01 X-34.1365 Y-25.4125
G01 X-34.1086 Y-25.5044
G01 X-34.0563 Y-25.5890
G01 X-33.9953 Y-25.6481
G01 X-33.9092 Y-25.6981
G01 X-33.8385 Y-25.7196
G01 X-33.7761 Y-25.7265
G01 X-33.4025 Y-25.7215
G01 X-33.2874 Y-25.6823
G01 X-33.1909 Y-25.6084
G01 X-33.1517 Y-25.5593
G01 X-33.1214 Y-25.5044
G01 X-33.0900 Y-25.3869
G01 X-33.0880 Y-21.5833
G01 X-31.7817 Y-20.2770
G01 X-25.3565 Y-20.2770
G01 X-25.2700 Y-20.4316
G01 X-25.1983 Y-20.5283
G01 X-25.1252 Y-20.6094
G01 X-25.0195 Y-20.7052
G01 X-24.9316 Y-20.7700
G01 X-24.8283 Y-20.8319
G01 X-24.7091 Y-20.8874
G01 X-24.6061 Y-20.9240
G01 X-24.4893 Y-20.9532
G01 X-24.3591 Y-20.9717
G01 X-24.2500 Y-20.9768
G01 X-24.1298 Y-20.9709
G01 X-24.0107 Y-20.9532
G01 X-23.8939 Y-20.9240
G01 X-23.7805 Y-20.8834
G01 X-23.6717 Y-20.8319
G01 X-23.5684 Y-20.7700
G01 X-23.4717 Y-20.6983
G01 X-23.3825 Y-20.6175
G01 X-23.2948 Y-20.5195
G01 X-23.2300 Y-20.4316
G01 X-23.1631 Y-20.3184
G01 X-23.1126 Y-20.2091
G01 X-23.0760 Y-20.1061
G01 X-23.0492 Y-20.0002
G01 X-23.0291 Y-19.8702
G01 X-23.0232 Y-19.7500
G01 X-23.0291 Y-19.6298
G01 X-23.0449 Y-19.5216
G01 X-23.0760 Y-19.3939
G01 X-23.1126 Y-19.2909
G01 X-23.1735 Y-19.1620
G01 X-23.2300 Y-19.0684
G01 X-23.3017 Y-18.9717
G01 X-23.3825 Y-18.8825
G01 X-23.4717 Y-18.8017
G01 X-23.5684 Y-18.7300
G01 X-23.6620 Y-18.6735
G01 X-23.7909 Y-18.6126
G01 X-23.8939 Y-18.5760
G01 X-24.0107 Y-18.5468
G01 X-24.1298 Y-18.5291
G01 X-24.2389 Y-18.5235
G01 X-24.3813 Y-18.5305
G01 X-24.4893 Y-18.5468
G01 X-24.6061 Y-18.5760
G01 X-24.7297 Y-18.6211
G01 X-24.8283 Y-18.6681
G01 X-24.9222 Y-18.7240
G01 X-25.0367 Y-18.8089
G01 X-25.1175 Y-18.8825
G01 X-25.1911 Y-18.9633
G01 X-25.2700 Y-19.0684
G01 X-25.3565 Y-19.2230
G01 X-32.0000 Y-19.2230
G01 X-32.0918 Y-19.2313
G01 X-32.1635 Y-19.2492
G01 X-32.2484 Y-19.2853
G01 X-32.3019 Y-19.3183
G01 X-32.3686 Y-19.3735
G01 X-33.9915 Y-20.9964
G01 X-34.0531 Y-21.0722
G01 X-34.1018 Y-21.1633
G01 X-34.1318 Y-21.2622
G01 X-34.1419 Y-21.3594
G00 X-34.1419 Y-21.3594
G01 F60.00
G01 Z-0.1000
G01 F120.00
G01 X-34.1418 Y-25.3500
G01 X-34.1365 Y-25.4125
G01 X-34.1086 Y-25.5044
G01 X-34.0563 Y-25.5890
G01 X-33.9953 Y-25.6481
G01 X-33.9092 Y-25.6981
G01 X-33.8385 Y-25.7196
G01 X-33.7761 Y-25.7265
G01 X-33.4025 Y-25.7215
G01 X-33.2874 Y-25.6823
G01 X-33.1909 Y-25.6084
G01 X-33.1517 Y-25.5593
G01 X-33.1214 Y-25.5044
G01 X-33.0900 Y-25.3869
G01 X-33.0880 Y-21.5833
G01 X-31.7817 Y-20.2770
G01 X-25.3565 Y-20.2770
G01 X-25.2700 Y-20.4316
G01 X-25.1983 Y-20.5283
G01 X-25.1252 Y-20.6094
G01 X-25.0195 Y-20.7052
G01 X-24.9316 Y-20.7700
G01 X-24.8283 Y-20.8319
G01 X-24.7091 Y-20.8874
G01 X-24.6061 Y-20.9240
G01 X-24.4893 Y-20.9532
G01 X-24.3591 Y-20.9717
G01 X-24.2500 Y-20.9768
G01 X-24.1298 Y-20.9709
G01 X-24.0107 Y-20.9532
G01 X-23.8939 Y-20.9240
G01 X-23.7805 Y-20.8834
G01 X-23.6717 Y-20.8319
G01 X-23.5684 Y-20.7700
G01 X-23.4717 Y-20.6983
G01 X-23.3825 Y-20.6175
G01 X-23.2948 Y-20.5195
G01 X-23.2300 Y-20.4316
G01 X-23.1631 Y-20.3184
G01 X-23.1126 Y-20.2091
G01 X-23.0760 Y-20.1061
G01 X-23.0492 Y-20.0002
G01 X-23.0291 Y-19.8702
G01 X-23.0232 Y-19.7500
G01 X-23.0291 Y-19.6298
G01 X-23.0449 Y-19.5216
G01 X-23.0760 Y-19.3939
G01 X-23.1126 Y-19.2909
G01 X-23.1735 Y-19.1620
G01 X-23.2300 Y-19.0684
G01 X-23.3017 Y-18.9717
G01 X-23.3825 Y-18.8825
G01 X-23.4717 Y-18.8017
G01 X-23.5684 Y-18.7300
G01 X-23.6620 Y-18.6735
G01 X-23.7909 Y-18.6126
G01 X-23.8939 Y-18.5760
G01 X-24.0107 Y-18.5468
G01 X-24.1298 Y-18.5291
G01 X-24.2389 Y-18.5235
G01 X-24.3813 Y-18.5305
G01 X-24.4893 Y-18.5468
G01 X-24.6061 Y-18.5760
G01 X-24.7297 Y-18.6211
G01 X-24.8283 Y-18.6681
G01 X-24.9222 Y-18.7240
G01 X-25.0367 Y-18.8089
G01 X-25.1175 Y-18.8825
G01 X-25.1911 Y-18.9633
G01 X-25.2700 Y-19.0684
G01 X-25.3565 Y-19.2230
G01 X-32.0000 Y-19.2230
G01 X-32.0918 Y-19.2313
G01 X-32.1635 Y-19.2492
G01 X-32.2484 Y-19.2853
G01 X-32.3019 Y-19.3183
G01 X-32.3686 Y-19.3735
G01 X-33.9915 Y-20.9964
G01 X-34.0531 Y-21.0722
G01 X-34.1018 Y-21.1633
G01 X-34.1318 Y-21.2622
G01 X-34.1419 Y-21.3594
G00 Z2.0000
G00 X-34.1419 Y-28.4775
G01 F60.00
G01 Z-0.0250
G01 F120.00
G01 X-34.1418 Y-30.3000
G01 X-34.1365 Y-30.3625
G01 X-34.0973 Y-30.4776
G01 X-34.0314 Y-30.5664
G01 X-33.9327 Y-30.6373
G01 X-33.8744 Y-30.6606
G01 X-33.8130 Y-30.6736
G01 X-33.4594 Y-30.6767
G01 X-33.3556 Y-30.6606
G01 X-33.2874 Y-30.6323
G01 X-33.2260 Y-30.5913
G01 X-33.1737 Y-30.5390
G01 X-33.1277 Y-30.4677
G01 X-33.0979 Y-30.3844
G01 X-33.0883 Y-30.3056
G01 X-33.0880 Y-28.7013
G01 X-32.6537 Y-28.2670
G01 X-26.4783 Y-28.2670
G01 X-25.4050 Y-29.3402
G01 X-25.4508 Y-29.4998
G01 X-25.4709 Y-29.6298
G01 X-25.4765 Y-29.7611
G01 X-25.4709 Y-29.8702
G01 X-25.4551 Y-29.9784
G01 X-25.4240 Y-30.1061
G01 X-25.3789 Y-30.2297
G01 X-25.3265 Y-30.3380
G01 X-25.2700 Y-30.4316
G01 X-25.2052 Y-30.5195
G01 X-25.1175 Y-30.6175
G01 X-25.0283 Y-30.6983
G01 X-24.9316 Y-30.7700
G01 X-24.8380 Y-30.8265
G01 X-24.7091 Y-30.8874
G01 X-24.6061 Y-30.9240
G01 X-24.4784 Y-30.9551
G01 X-24.3702 Y-30.9709
G01 X-24.2500 Y-30.9768
G01 X-24.1298 Y-30.9709
G01 X-23.9998 Y-30.9508
G01 X-23.8939 Y-30.9240
G01 X-23.7909 Y-30.8874
G01 X-23.6816 Y-30.8369
G01 X-23.5684 Y-30.7700
G01 X-23.4805 Y-30.7052
G01 X-23.3825 Y-30.6175
G01 X-23.3017 Y-30.5283
G01 X-23.2300 Y-30.4316
G01 X-23.1681 Y-30.3283
G01 X-23.1166 Y-30.2195
G01 X-23.0760 Y-30.1061
G01 X-23.0468 Y-29.9893
G01 X-23.0305 Y-29.8813
G01 X-23.0232 Y-29.7500
G01 X-23.0305 Y-29.6187
G01 X-23.0468 Y-29.5107
G01 X-23.0731 Y-29.4046
G01 X-23.1166 Y-29.2805
G01 X-23.1735 Y-29.1620
G01 X-23.2300 Y-29.0684
G01 X-23.2948 Y-28.9805
G01 X-23.3825 Y-28.8825
G01 X-23.4717 Y-28.8017
G01 X-23.5684 Y-28.7300
G01 X-23.6816 Y-28.6631
G01 X-23.7805 Y-28.6166
G01 X-23.8833 Y-28.5795
G01 X-24.0107 Y-28.5468
G01 X-24.1409 Y-28.5283
G01 X-24.2500 Y-28.5232
G01 X-24.3702 Y-28.5291
G01 X-24.5002 Y-28.5492
G01 X-24.6598 Y-28.5950
G01 X-25.9173 Y-27.3399
G01 X-25.9766 Y-27.2959
G01 X-26.0583 Y-27.2532
G01 X-26.1973 Y-27.2170
G01 X-32.8719 Y-27.2130
G01 X-32.9638 Y-27.2213
G01 X-33.0838 Y-27.2577
G01 X-33.1553 Y-27.2959
G01 X-33.2147 Y-27.3399
G01 X-33.9915 Y-28.1144
G01 X-34.0531 Y-28.1903
G01 X-34.1018 Y-28.2814
G01 X-34.1318 Y-28.3803
G01 X-34.1419 Y-28.4775
G00 X-34.1419 Y-28.4775
G01 F60.00
G01 Z-0.0500
G01 F120.00
G01 X-34.1418 Y-30.3000
G01 X-34.1365 Y-30.3625
G01 X-34.0973 Y-30.4776
G01 X-34.0314 Y-30.5664
G01 X-33.9327 Y-30.6373
G01 X-33.8744 Y-30.6606
G01 X-33.8130 Y-30.6736
G01 X-33.4594 Y-30.6767
G01 X-33.3556 Y-30.6606
G01 X-33.2874 Y-30.6323
G01 X-33.2260 Y-30.5913
G01 X-33.1737 Y-30.5390
G01 X-33.1277 Y-30.4677
G01 X-33.0979 Y-30.3844
G01 X-33.0883 Y-30.3056
G01 X-33.0880 Y-28.7013
G01 X-32.6537 Y-28.2670
G01 X-26.4783 Y-28.2670
G01 X-25.4050 Y-29.3402
G01 X-25.4508 Y-29.4998
G01 X-25.4709 Y-29.6298
G01 X-25.4765 Y-29.7611
G01 X-25.4709 Y-29.8702
G01 X-25.4551 Y-29.9784
G01 X-25.4240 Y-30.1061
G01 X-25.3789 Y-30.2297
G01 X-25.3265 Y-30.3380
G01 X-25.2700 Y-30.4316
G01 X-25.2052 Y-30.5195
G01 X-25.1175 Y-30.6175
G01 X-25.0283 Y-30.6983
G01 X-24.9316 Y-30.7700
G01 X-24.8380 Y-30.8265
G01 X-24.7091 Y-30.8874
G01 X-24.6061 Y-30.9240
G01 X-24.4784 Y-30.9551
G01 X-24.3702 Y-30.9709
G01 X-24.2500 Y-30.9768
G01 X-24.1298 Y-30.9709
G01 X-23.9998 Y-30.9508
G01 X-23.8939 Y-30.9240
G01 X-23.7909 Y-30.8874
G01 X-23.6816 Y-30.8369
G01 X-23.5684 Y-30.7700
G01 X-23.4805 Y-30.7052
G01 X-23.3825 Y-30.6175
G01 X-23.3017 Y-30.5283
G01 X-23.2300 Y-30.4316
G01 X-23.1681 Y-30.3283
G01 X-23.1166 Y-30.2195
G01 X-23.0760 Y-30.1061
G01 X-23.0468 Y-29.9893
G01 X-23.0305 Y-29.8813
G01 X-23.0232 Y-29.7500
G01 X-23.0305 Y-29.6187
G01 X-23.0468 Y-29.5107
G01 X-23.0731 Y-29.4046
G01 X-23.1166 Y-29.2805
G01 X-23.1735 Y-29.1620
G01 X-23.2300 Y-29.0684
G01 X-23.2948 Y-28.9805
G01 X-23.3825 Y-28.8825
G01 X-23.4717 Y-28.8017
G01 X-23.5684 Y-28.7300
G01 X-23.6816 Y-28.6631
G01 X-23.7805 Y-28.6166
G01 X-23.8833 Y-28.5795
G01 X-24.0107 Y-28.5468
G01 X-24.1409 Y-28.5283
G01 X-24.2500 Y-28.5232
G01 X-24.3702 Y-28.5291
G01 X-24.5002 Y-28.5492
G01 X-24.6598 Y-28.5950
G01 X-25.9173 Y-27.3399
G01 X-25.9766 Y-27.2959
G01 X-26.0583 Y-27.2532
G01 X-26.1973 Y-27.2170
G01 X-32.8719 Y-27.2130
G01 X-32.9638 Y-27.2213
G01 X-33.0838 Y-27.2577
G01 X-33.1553 Y-27.2959
G01 X-33.2147 Y-27.3399
G01 X-33.9915 Y-28.1144
G01 X-34.0531 Y-28.1903
G01 X-34.1018 Y-28.2814
G01 X-34.1318 Y-28.3803
G01 X-34.1419 Y-28.4775
G00 X-34.1419 Y-28.4775
G01 F60.00
G01 Z-0.0750
G01 F120.00
G01 X-34.1418 Y-30.3000
G01 X-34.1365 Y-30.3625
G01 X-34.0973 Y-30.4776
G01 X-34.0314 Y-30.5664
G01 X-33.9327 Y-30.6373
G01 X-33.8744 Y-30.6606
G01 X-33.8130 Y-30.6736
G01 X-33.4594 Y-30.6767
G01 X-33.3556 Y-30.6606
G01 X-33.2874 Y-30.6323
G01 X-33.2260 Y-30.5913
G01 X-33.1737 Y-30.5390
G01 X-33.1277 Y-30.4677
G01 X-33.0979 Y-30.3844
G01 X-33.0883 Y-30.3056
G01 X-33.0880 Y-28.7013
G01 X-32.6537 Y-28.2670
G01 X-26.4783 Y-28.2670
G01 X-25.4050 Y-29.3402
G01 X-25.4508 Y-29.4998
G01 X-25.4709 Y-29.6298
G01 X-25.4765 Y-29.7611
G01 X-25.4709 Y-29.8702
G01 X-25.4551 Y-29.9784
G01 X-25.4240 Y-30.1061
G01 X-25.3789 Y-30.2297
G01 X-25.3265 Y-30.3380
G01 X-25.2700 Y-30.4316
G01 X-25.2052 Y-30.5195
G01 X-25.1175 Y-30.6175
G01 X-25.0283 Y-30.6983
G01 X-24.9316 Y-30.7700
G01 X-24.8380 Y-30.8265
G01 X-24.7091 Y-30.8874
G01 X-24.6061 Y-30.9240
G01 X-24.4784 Y-30.9551
G01 X-24.3702 Y-30.9709
G01 X-24.2500 Y-30.9768
G01 X-24.1298 Y-30.9709
G01 X-23.9998 Y-30.9508
G01 X-23.8939 Y-30.9240
G01 X-23.7909 Y-30.8874
G01 X-23.6816 Y-30.8369
G01 X-23.5684 Y-30.7700
G01 X-23.4805 Y-30.7052
G01 X-23.3825 Y-30.6175
G01 X-23.3017 Y-30.5283
G01 X-23.2300 Y-30.4316
G01 X-23.1681 Y-30.3283
G01 X-23.1166 Y-30.2195
G01 X-23.0760 Y-30.1061
G01 X-23.0468 Y-29.9893
G01 X-23.0305 Y-29.8813
G01 X-23.0232 Y-29.7500
G01 X-23.0305 Y-29.6187
G01 X-23.0468 Y-29.5107
G01 X-23.0731 Y-29.4046
G01 X-23.1166 Y-29.2805
G01 X-23.1735 Y-29.1620
G01 X-23.2300 Y-29.0684
G01 X-23.2948 Y-28.9805
G01 X-23.3825 Y-28.8825
G01 X-23.4717 Y-28.8017
G01 X-23.5684 Y-28.7300
G01 X-23.6816 Y-28.6631
G01 X-23.7805 Y-28.6166
G01 X-23.8833 Y-28.5795
G01 X-24.0107 Y-28.5468
G01 X-24.1409 Y-28.5283
G01 X-24.2500 Y-28.5232
G01 X-24.3702 Y-28.5291
G01 X-24.5002 Y-28.5492
G01 X-24.6598 Y-28.5950
G01 X-25.9173 Y-27.3399
G01 X-25.9766 Y-27.2959
G01 X-26.0583 Y-27.2532
G01 X-26.1973 Y-27.2170
G01 X-32.8719 Y-27.2130
G01 X-32.9638 Y-27.2213
G01 X-33.0838 Y-27.2577
G01 X-33.1553 Y-27.2959
G01 X-33.2147 Y-27.3399
G01 X-33.9915 Y-28.1144
G01 X-34.0531 Y-28.1903
G01 X-34.1018 Y-28.2814
G01 X-34.1318 Y-28.3803
G01 X-34.1419 Y-28.4775
G00 X-34.1419 Y-28.4775
G01 F60.00
G01 Z-0.1000
G01 F120.00
G01 X-34.1418 Y-30.3000
G01 X-34.1365 Y-30.3625
G01 X-34.0973 Y-30.4776
G01 X-34.0314 Y-30.5664
G01 X-33.9327 Y-30.6373
G01 X-33.8744 Y-30.6606
G01 X-33.8130 Y-30.6736
G01 X-33.4594 Y-30.6767
G01 X-33.3556 Y-30.6606
G01 X-33.2874 Y-30.6323
G01 X-33.2260 Y-30.5913
G01 X-33.1737 Y-30.5390
G01 X-33.1277 Y-30.4677
G01 X-33.0979 Y-30.3844
G01 X-33.0883 Y-30.3056
G01 X-33.0880 Y-28.7013
G01 X-32.6537 Y-28.2670
G01 X-26.4783 Y-28.2670
G01 X-25.4050 Y-29.3402
G01 X-25.4508 Y-29.4998
G01 X-25.4709 Y-29.6298
G01 X-25.4765 Y-29.7611
G01 X-25.4709 Y-29.8702
G01 X-25.4551 Y-29.9784
G01 X-25.4240 Y-30.1061
G01 X-25.3789 Y-30.2297
G01 X-25.3265 Y-30.3380
G01 X-25.2700 Y-30.4316
G01 X-25.2052 Y-30.5195
G01 X-25.1175 Y-30.6175
G01 X-25.0283 Y-30.6983
G01 X-24.9316 Y-30.7700
G01 X-24.8380 Y-30.8265
G01 X-24.7091 Y-30.8874
G01 X-24.6061 Y-30.9240
G01 X-24.4784 Y-30.9551
G01 X-24.3702 Y-30.9709
G01 X-24.2500 Y-30.9768
G01 X-24.1298 Y-30.9709
G01 X-23.9998 Y-30.9508
G01 X-23.8939 Y-30.9240
G01 X-23.7909 Y-30.8874
G01 X-23.6816 Y-30.8369
G01 X-23.5684 Y-30.7700
G01 X-23.4805 Y-30.7052
G01 X-23.3825 Y-30.6175
G01 X-23.3017 Y-30.5283
G01 X-23.2300 Y-30.4316
G01 X-23.1681 Y-30.3283
G01 X-23.1166 Y-30.2195
G01 X-23.0760 Y-30.1061
G01 X-23.0468 Y-29.9893
G01 X-23.0305 Y-29.8813
G01 X-23.0232 Y-29.7500
G01 X-23.0305 Y-29.6187
G01 X-23.0468 Y-29.5107
G01 X-23.0731 Y-29.4046
G01 X-23.1166 Y-29.2805
G01 X-23.1735 Y-29.1620
G01 X-23.2300 Y-29.0684
G01 X-23.2948 Y-28.9805
G01 X-23.3825 Y-28.8825
G01 X-23.4717 Y-28.8017
G01 X-23.5684 Y-28.7300
G01 X-23.6816 Y-28.6631
G01 X-23.7805 Y-28.6166
G01 X-23.8833 Y-28.5795
G01 X-24.0107 Y-28.5468
G01 X-24.1409 Y-28.5283
G01 X-24.2500 Y-28.5232
G01 X-24.3702 Y-28.5291
G01 X-24.5002 Y-28.5492
G01 X-24.6598 Y-28.5950
G01 X-25.9173 Y-27.3399
G01 X-25.9766 Y-27.2959
G01 X-26.0583 Y-27.2532
G01 X-26.1973 Y-27.2170
G01 X-32.8719 Y-27.2130
G01 X-32.9638 Y-27.2213
G01 X-33.0838 Y-27.2577
G01 X-33.1553 Y-27.2959
G01 X-33.2147 Y-27.3399
G01 X-33.9915 Y-28.1144
G01 X-34.0531 Y-28.1903
G01 X-34.1018 Y-28.2814
G01 X-34.1318 Y-28.3803
G01 X-34.1419 Y-28.4775
G00 Z2.0000
G00 X-34.5795 Y-30.6960
G01 F60.00
G01 Z-0.0250
G01 F120.00
G01 X-34.6782 Y-30.7237
G01 X-35.0918 Y-30.7237
G01 X-35.1912 Y-30.7039
G01 X-35.2772 Y-30.7043
G01 X-35.3303 Y-30.7134
G01 X-35.3889 Y-30.7404
G01 X-35.4565 Y-30.7844
G01 X-35.4963 Y-30.8208
G01 X-35.5287 Y-30.8703
G01 X-35.5754 Y-30.9866
G01 X-35.5813 Y-31.0497
G01 X-35.5813 Y-35.7121
G01 X-35.5736 Y-35.7708
G01 X-35.5358 Y-35.8842
G01 X-35.4786 Y-35.9601
G01 X-32.3651 Y-39.0736
G01 X-32.3228 Y-39.1068
G01 X-32.2112 Y-39.1631
G01 X-32.1171 Y-39.1763
G01 X-25.5649 Y-39.1753
G01 X-25.4448 Y-39.1440
G01 X-25.3853 Y-39.1127
G01 X-25.3146 Y-39.0457
G01 X-25.2586 Y-38.9650
G01 X-25.1156 Y-38.8097
G01 X-24.9490 Y-38.6800
G01 X-24.7634 Y-38.5796
G01 X-24.5637 Y-38.5110
G01 X-24.3555 Y-38.4763
G01 X-24.1445 Y-38.4763
G01 X-23.9362 Y-38.5110
G01 X-23.7366 Y-38.5796
G01 X-23.5510 Y-38.6800
G01 X-23.3844 Y-38.8097
G01 X-23.2414 Y-38.9650
G01 X-23.1260 Y-39.1417
G01 X-23.0412 Y-39.3350
G01 X-23.0018 Y-39.4813
G01 X-22.9334 Y-39.5970
G01 X-22.8862 Y-39.6411
G01 X-22.7912 Y-39.6914
G01 X-22.7454 Y-39.7073
G01 X-22.6918 Y-39.7132
G01 X-22.5476 Y-39.6924
G01 X-22.4404 Y-39.6275
G01 X-21.6764 Y-38.8651
G01 X-21.6432 Y-38.8228
G01 X-21.5869 Y-38.7112
G01 X-21.5737 Y-38.6171
G01 X-21.5737 Y-27.4245
G01 X-21.5814 Y-27.3658
G01 X-21.6238 Y-27.2441
G01 X-21.6637 Y-27.1933
G01 X-21.7517 Y-27.1200
G01 X-21.8138 Y-27.0928
G01 X-21.9245 Y-27.0737
G01 X-25.2789 Y-27.0740
G01 X-25.4042 Y-27.1042
G01 X-25.4577 Y-27.1294
G01 X-25.5029 Y-27.1676
G01 X-25.5773 Y-27.2596
G01 X-25.6036 Y-27.3301
G01 X-25.6166 Y-27.4637
G01 X-25.6014 Y-27.5264
G01 X-25.5503 Y-27.6317
G01 X-24.7646 Y-28.4208
G01 X-24.6664 Y-28.4768
G01 X-24.6050 Y-28.4964
G01 X-24.5046 Y-28.5001
G01 X-24.3555 Y-28.4763
G01 X-24.1445 Y-28.4763
G01 X-23.9362 Y-28.5110
G01 X-23.7366 Y-28.5796
G01 X-23.5510 Y-28.6800
G01 X-23.3844 Y-28.8097
G01 X-23.2414 Y-28.9650
G01 X-23.1260 Y-29.1417
G01 X-23.0412 Y-29.3350
G01 X-22.9894 Y-29.5396
G01 X-22.9719 Y-29.7500
G01 X-22.9894 Y-29.9604
G01 X-23.0412 Y-30.1650
G01 X-23.1260 Y-30.3583
G01 X-23.2414 Y-30.5350
G01 X-23.3844 Y-30.6903
G01 X-23.5510 Y-30.8200
G01 X-23.7366 Y-30.9204
G01 X-23.9363 Y-30.9890
G01 X-24.1445 Y-31.0237
G01 X-24.3555 Y-31.0237
G01 X-24.5637 Y-30.9890
G01 X-24.7634 Y-30.9204
G01 X-24.9490 Y-30.8200
G01 X-25.1156 Y-30.6903
G01 X-25.2586 Y-30.5350
G01 X-25.3740 Y-30.3583
G01 X-25.4588 Y-30.1650
G01 X-25.5106 Y-29.9604
G01 X-25.5281 Y-29.7500
G01 X-25.5047 Y-29.4996
G01 X-25.5092 Y-29.3849
G01 X-25.5296 Y-29.3179
G01 X-25.5744 Y-29.2435
G01 X-26.4027 Y-28.4090
G01 X-26.5279 Y-28.3346
G01 X-26.5704 Y-28.3213
G01 X-26.6369 Y-28.3138
G01 X-31.4533 Y-28.3160
G01 X-31.5622 Y-28.3459
G01 X-31.6107 Y-28.3694
G01 X-31.6559 Y-28.4076
G01 X-31.7313 Y-28.5015
G01 X-31.7527 Y-28.5538
G01 X-31.7705 Y-28.6403
G01 X-31.7718 Y-28.9982
G01 X-31.8182 Y-28.9982
G01 X-31.8183 Y-28.6444
G01 X-31.8254 Y-28.5765
G01 X-31.8682 Y-28.4627
G01 X-31.9037 Y-28.4110
G01 X-31.9475 Y-28.3660
G01 X-32.0508 Y-28.3019
G01 X-32.1581 Y-28.2750
G01 X-32.5006 Y-28.2733
G01 X-32.6044 Y-28.2894
G01 X-32.7043 Y-28.3367
G01 X-32.7863 Y-28.4110
G01 X-32.8431 Y-28.5058
G01 X-32.8700 Y-28.6131
G01 X-32.8717 Y-30.3056
G01 X-32.8585 Y-30.3987
G01 X-32.8218 Y-30.4873
G01 X-32.8218 Y-30.6010
G01 X-32.8738 Y-30.5763
G01 X-32.9262 Y-30.5636
G01 X-33.0503 Y-30.5686
G01 X-33.1258 Y-30.5916
G01 X-33.2954 Y-30.6919
G01 X-33.4034 Y-30.7233
G01 X-33.8218 Y-30.7237
G01 X-33.9346 Y-30.6919
G01 X-34.0618 Y-30.6156
G01 X-34.1442 Y-30.5767
G01 X-34.2343 Y-30.5626
G01 X-34.3206 Y-30.5690
G01 X-34.3755 Y-30.5827
G01 X-34.5795 Y-30.6960
G00 X-34.5795 Y-30.6960
G01 F60.00
G01 Z-0.0500
G01 F120.00
G01 X-34.6782 Y-30.7237
G01 X-35.0918 Y-30.7237
G01 X-35.1912 Y-30.7039
G01 X-35.2772 Y-30.7043
G01 X-35.3303 Y-30.7134
G01 X-35.3889 Y-30.7404
G01 X-35.4565 Y-30.7844
G01 X-35.4963 Y-30.8208
G01 X-35.5287 Y-30.8703
G01 X-35.5754 Y-30.9866
G01 X-35.5813 Y-31.0497
G01 X-35.5813 Y-35.7121
G01 X-35.5736 Y-35.7708
G01 X-35.5358 Y-35.8842
G01 X-35.4786 Y-35.9601
G01 X-32.3651 Y-39.0736
G01 X-32.3228 Y-39.1068
G01 X-32.2112 Y-39.1631
G01 X-32.1171 Y-39.1763
G01 X-25.5649 Y-39.1753
G01 X-25.4448 Y-39.1440
G01 X-25.3853 Y-39.1127
G01 X-25.3146 Y-39.0457
G01 X-25.2586 Y-38.9650
G01 X-25.1156 Y-38.8097
G01 X-24.9490 Y-38.6800
G01 X-24.7634 Y-38.5796
G01 X-24.5637 Y-38.5110
G01 X-24.3555 Y-38.4763
G01 X-24.1445 Y-38.4763
G01 X-23.9362 Y-38.5110
G01 X-23.7366 Y-38.5796
G01 X-23.5510 Y-38.6800
G01 X-23.3844 Y-38.8097
G01 X-23.2414 Y-38.9650
G01 X-23.1260 Y-39.1417
G01 X-23.0412 Y-39.3350
G01 X-23.0018 Y-39.4813
G01 X-22.9334 Y-39.5970
G01 X-22.8862 Y-39.6411
G01 X-22.7912 Y-39.6914
G01 X-22.7454 Y-39.7073
G01 X-22.6918 Y-39.7132
G01 X-22.5476 Y-39.6924
G01 X-22.4404 Y-39.6275
G01 X-21.6764 Y-38.8651
G01 X-21.6432 Y-38.8228
G01 X-21.5869 Y-38.7112
G01 X-21.5737 Y-38.6171
G01 X-21.5737 Y-27.4245
G01 X-21.5814 Y-27.3658
G01 X-21.6238 Y-27.2441
G01 X-21.6637 Y-27.1933
G01 X-21.7517 Y-27.1200
G01 X-21.8138 Y-27.0928
G01 X-21.9245 Y-27.0737
G01 X-25.2789 Y-27.0740
G01 X-25.4042 Y-27.1042
G01 X-25.4577 Y-27.1294
G01 X-25.5029 Y-27.1676
G01 X-25.5773 Y-27.2596
G01 X-25.6036 Y-27.3301
G01 X-25.6166 Y-27.4637
G01 X-25.6014 Y-27.5264
G01 X-25.5503 Y-27.6317
G01 X-24.7646 Y-28.4208
G01 X-24.6664 Y-28.4768
G01 X-24.6050 Y-28.4964
G01 X-24.5046 Y-28.5001
G01 X-24.3555 Y-28.4763
G01 X-24.1445 Y-28.4763
G01 X-23.9362 Y-28.5110
G01 X-23.7366 Y-28.5796
G01 X-23.5510 Y-28.6800
G01 X-23.3844 Y-28.8097
G01 X-23.2414 Y-28.9650
G01 X-23.1260 Y-29.1417
G01 X-23.0412 Y-29.3350
G01 X-22.9894 Y-29.5396
G01 X-22.9719 Y-29.7500
G01 X-22.9894 Y-29.9604
G01 X-23.0412 Y-30.1650
G01 X-23.1260 Y-30.3583
G01 X-23.2414 Y-30.5350
G01 X-23.3844 Y-30.6903
G01 X-23.5510 Y-30.8200
G01 X-23.7366 Y-30.9204
G01 X-23.9363 Y-30.9890
G01 X-24.1445 Y-31.0237
G01 X-24.3555 Y-31.0237
G01 X-24.5637 Y-30.9890
G01 X-24.7634 Y-30.9204
G01 X-24.9490 Y-30.8200
G01 X-25.1156 Y-30.6903
G01 X-25.2586 Y-30.5350
G01 X-25.3740 Y-30.3583
G01 X-25.4588 Y-30.1650
G01 X-25.5106 Y-29.9604
G01 X-25.5281 Y-29.7500
G01 X-25.5047 Y-29.4996
G01 X-25.5092 Y-29.3849
G01 X-25.5296 Y-29.3179
G01 X-25.5744 Y-29.2435
G01 X-26.4027 Y-28.4090
G01 X-26.5279 Y-28.3346
G01 X-26.5704 Y-28.3213
G01 X-26.6369 Y-28.3138
G01 X-31.4533 Y-28.3160
G01 X-31.5622 Y-28.3459
G01 X-31.6107 Y-28.3694
G01 X-31.6559 Y-28.4076
G01 X-31.7313 Y-28.5015
G01 X-31.7527 Y-28.5538
G01 X-31.7705 Y-28.6403
G01 X-31.7718 Y-28.9982
G01 X-31.8182 Y-28.9982
G01 X-31.8183 Y-28.6444
G01 X-31.8254 Y-28.5765
G01 X-31.8682 Y-28.4627
G01 X-31.9037 Y-28.4110
G01 X-31.9475 Y-28.3660
G01 X-32.0508 Y-28.3019
G01 X-32.1581 Y-28.2750
G01 X-32.5006 Y-28.2733
G01 X-32.6044 Y-28.2894
G01 X-32.7043 Y-28.3367
G01 X-32.7863 Y-28.4110
G01 X-32.8431 Y-28.5058
G01 X-32.8700 Y-28.6131
G01 X-32.8717 Y-30.3056
G01 X-32.8585 Y-30.3987
G01 X-32.8218 Y-30.4873
G01 X-32.8218 Y-30.6010
G01 X-32.8738 Y-30.5763
G01 X-32.9262 Y-30.5636
G01 X-33.0503 Y-30.5686
G01 X-33.1258 Y-30.5916
G01 X-33.2954 Y-30.6919
G01 X-33.4034 Y-30.7233
G01 X-33.8218 Y-30.7237
G01 X-33.9346 Y-30.6919
G01 X-34.0618 Y-30.6156
G01 X-34.1442 Y-30.5767
G01 X-34.2343 Y-30.5626
G01 X-34.3206 Y-30.5690
G01 X-34.3755 Y-30.5827
G01 X-34.5795 Y-30.6960
G00 X-34.5795 Y-30.6960
G01 F60.00
G01 Z-0.0750
G01 F120.00
G01 X-34.6782 Y-30.7237
G01 X-35.0918 Y-30.7237
G01 X-35.1912 Y-30.7039
G01 X-35.2772 Y-30.7043
G01 X-35.3303 Y-30.7134
G01 X-35.3889 Y-30.7404
G01 X-35.4565 Y-30.7844
G01 X-35.4963 Y-30.8208
G01 X-35.5287 Y-30.8703
G01 X-35.5754 Y-30.9866
G01 X-35.5813 Y-31.0497
G01 X-35.5813 Y-35.7121
G01 X-35.5736 Y-35.7708
G01 X-35.5358 Y-35.8842
G01 X-35.4786 Y-35.9601
G01 X-32.3651 Y-39.0736
G01 X-32.3228 Y-39.1068
G01 X-32.2112 Y-39.1631
G01 X-32.1171 Y-39.1763
G01 X-25.5649 Y-39.1753
G01 X-25.4448 Y-39.1440
G01 X-25.3853 Y-39.1127
G01 X-25.3146 Y-39.0457
G01 X-25.2586 Y-38.9650
G01 X-25.1156 Y-38.8097
G01 X-24.9490 Y-38.6800
G01 X-24.7634 Y-38.5796
G01 X-24.5637 Y-38.5110
G01 X-24.3555 Y-38.4763
G01 X-24.1445 Y-38.4763
G01 X-23.9362 Y-38.5110
G01 X-23.7366 Y-38.5796
G01 X-23.5510 Y-38.6800
G01 X-23.3844 Y-38.8097
G01 X-23.2414 Y-38.9650
G01 X-23.1260 Y-39.1417
G01 X-23.0412 Y-39.3350
G01 X-23.0018 Y-39.4813
G01 X-22.9334 Y-39.5970
G01 X-22.8862 Y-39.6411
G01 X-22.7912 Y-39.6914
G01 X-22.7454 Y-39.7073
G01 X-22.6918 Y-39.7132
G01 X-22.5476 Y-39.6924
G01 X-22.4404 Y-39.6275
G01 X-21.6764 Y-38.8651
G01 X-21.6432 Y-38.8228
G01 X-21.5869 Y-38.7112
G01 X-21.5737 Y-38.6171
G01 X-21.5737 Y-27.4245
G01 X-21.5814 Y-27.3658
G01 X-21.6238 Y-27.2441
G01 X-21.6637 Y-27.1933
G01 X-21.7517 Y-27.1200
G01 X-21.8138 Y-27.0928
G01 X-21.9245 Y-27.0737
G01 X-25.2789 Y-27.0740
G01 X-25.4042 Y-27.1042
G01 X-25.4577 Y-27.1294
G01 X-25.5029 Y-27.1676
G01 X-25.5773 Y-27.2596
G01 X-25.6036 Y-27.3301
G01 X-25.6166 Y-27.4637
G01 X-25.6014 Y-27.5264
G01 X-25.5503 Y-27.6317
G01 X-24.7646 Y-28.4208
G01 X-24.6664 Y-28.4768
G01 X-24.6050 Y-28.4964
G01 X-24.5046 Y-28.5001
G01 X-24.3555 Y-28.4763
G01 X-24.1445 Y-28.4763
G01 X-23.9362 Y-28.5110
G01 X-23.7366 Y-28.5796
G01 X-23.5510 Y-28.6800
G01 X-23.3844 Y-28.8097
G01 X-23.2414 Y-28.9650
G01 X-23.1260 Y-29.1417
G01 X-23.0412 Y-29.3350
G01 X-22.9894 Y-29.5396
G01 X-22.9719 Y-29.7500
G01 X-22.9894 Y-29.9604
G01 X-23.0412 Y-30.1650
G01 X-23.1260 Y-30.3583
G01 X-23.2414 Y-30.5350
G01 X-23.3844 Y-30.6903
G01 X-23.5510 Y-30.8200
G01 X-23.7366 Y-30.9204
G01 X-23.9363 Y-30.9890
G01 X-24.1445 Y-31.0237
G01 X-24.3555 Y-31.0237
G01 X-24.5637 Y-30.9890
G01 X-24.7634 Y-30.9204
G01 X-24.9490 Y-30.8200
G01 X-25.1156 Y-30.6903
G01 X-25.2586 Y-30.5350
G01 X-25.3740 Y-30.3583
G01 X-25.4588 Y-30.1650
G01 X-25.5106 Y-29.9604
G01 X-25.5281 Y-29.7500
G01 X-25.5047 Y-29.4996
G01 X-25.5092 Y-29.3849
G01 X-25.5296 Y-29.3179
G01 X-25.5744 Y-29.2435
G01 X-26.4027 Y-28.4090
G01 X-26.5279 Y-28.3346
G01 X-26.5704 Y-28.3213
G01 X-26.6369 Y-28.3138
G01 X-31.4533 Y-28.3160
G01 X-31.5622 Y-28.3459
G01 X-31.6107 Y-28.3694
G01 X-31.6559 Y-28.4076
G01 X-31.7313 Y-28.5015
G01 X-31.7527 Y-28.5538
G01 X-31.7705 Y-28.6403
G01 X-31.7718 Y-28.9982
G01 X-31.8182 Y-28.9982
G01 X-31.8183 Y-28.6444
G01 X-31.8254 Y-28.5765
G01 X-31.8682 Y-28.4627
G01 X-31.9037 Y-28.4110
G01 X-31.9475 Y-28.3660
G01 X-32.0508 Y-28.3019
G01 X-32.1581 Y-28.2750
G01 X-32.5006 Y-28.2733
G01 X-32.6044 Y-28.2894
G01 X-32.7043 Y-28.3367
G01 X-32.7863 Y-28.4110
G01 X-32.8431 Y-28.5058
G01 X-32.8700 Y-28.6131
G01 X-32.8717 Y-30.3056
G01 X-32.8585 Y-30.3987
G01 X-32.8218 Y-30.4873
G01 X-32.8218 Y-30.6010
G01 X-32.8738 Y-30.5763
G01 X-32.9262 Y-30.5636
G01 X-33.0503 Y-30.5686
G01 X-33.1258 Y-30.5916
G01 X-33.2954 Y-30.6919
G01 X-33.4034 Y-30.7233
G01 X-33.8218 Y-30.7237
G01 X-33.9346 Y-30.6919
G01 X-34.0618 Y-30.6156
G01 X-34.1442 Y-30.5767
G01 X-34.2343 Y-30.5626
G01 X-34.3206 Y-30.5690
G01 X-34.3755 Y-30.5827
G01 X-34.5795 Y-30.6960
G00 X-34.5795 Y-30.6960
G01 F60.00
G01 Z-0.1000
G01 F120.00
G01 X-34.6782 Y-30.7237
G01 X-35.0918 Y-30.7237
G01 X-35.1912 Y-30.7039
G01 X-35.2772 Y-30.7043
G01 X-35.3303 Y-30.7134
G01 X-35.3889 Y-30.7404
G01 X-35.4565 Y-30.7844
G01 X-35.4963 Y-30.8208
G01 X-35.5287 Y-30.8703
G01 X-35.5754 Y-30.9866
G01 X-35.5813 Y-31.0497
G01 X-35.5813 Y-35.7121
G01 X-35.5736 Y-35.7708
G01 X-35.5358 Y-35.8842
G01 X-35.4786 Y-35.9601
G01 X-32.3651 Y-39.0736
G01 X-32.3228 Y-39.1068
G01 X-32.2112 Y-39.1631
G01 X-32.1171 Y-39.1763
G01 X-25.5649 Y-39.1753
G01 X-25.4448 Y-39.1440
G01 X-25.3853 Y-39.1127
G01 X-25.3146 Y-39.0457
G01 X-25.2586 Y-38.9650
G01 X-25.1156 Y-38.8097
G01 X-24.9490 Y-38.6800
G01 X-24.7634 Y-38.5796
G01 X-24.5637 Y-38.5110
G01 X-24.3555 Y-38.4763
G01 X-24.1445 Y-38.4763
G01 X-23.9362 Y-38.5110
G01 X-23.7366 Y-38.5796
G01 X-23.5510 Y-38.6800
G01 X-23.3844 Y-38.8097
G01 X-23.2414 Y-38.9650
G01 X-23.1260 Y-39.1417
G01 X-23.0412 Y-39.3350
G01 X-23.0018 Y-39.4813
G01 X-22.9334 Y-39.5970
G01 X-22.8862 Y-39.6411
G01 X-22.7912 Y-39.6914
G01 X-22.7454 Y-39.7073
G01 X-22.6918 Y-39.7132
G01 X-22.5476 Y-39.6924
G01 X-22.4404 Y-39.6275
G01 X-21.6764 Y-38.8651
G01 X-21.6432 Y-38.8228
G01 X-21.5869 Y-38.7112
G01 X-21.5737 Y-38.6171
G01 X-21.5737 Y-27.4245
G01 X-21.5814 Y-27.3658
G01 X-21.6238 Y-27.2441
G01 X-21.6637 Y-27.1933
G01 X-21.7517 Y-27.1200
G01 X-21.8138 Y-27.0928
G01 X-21.9245 Y-27.0737
G01 X-25.2789 Y-27.0740
G01 X-25.4042 Y-27.1042
G01 X-25.4577 Y-27.1294
G01 X-25.5029 Y-27.1676
G01 X-25.5773 Y-27.2596
G01 X-25.6036 Y-27.3301
G01 X-25.6166 Y-27.4637
G01 X-25.6014 Y-27.5264
G01 X-25.5503 Y-27.6317
G01 X-24.7646 Y-28.4208
G01 X-24.6664 Y-28.4768
G01 X-24.6050 Y-28.4964
G01 X-24.5046 Y-28.5001
G01 X-24.3555 Y-28.4763
G01 X-24.1445 Y-28.4763
G01 X-23.9362 Y-28.5110
G01 X-23.7366 Y-28.5796
G01 X-23.5510 Y-28.6800
G01 X-23.3844 Y-28.8097
G01 X-23.2414 Y-28.9650
G01 X-23.1260 Y-29.1417
G01 X-23.0412 Y-29.3350
G01 X-22.9894 Y-29.5396
G01 X-22.9719 Y-29.7500
G01 X-22.9894 Y-29.9604
G01 X-23.0412 Y-30.1650
G01 X-23.1260 Y-30.3583
G01 X-23.2414 Y-30.5350
G01 X-23.3844 Y-30.6903
G01 X-23.5510 Y-30.8200
G01 X-23.7366 Y-30.9204
G01 X-23.9363 Y-30.9890
G01 X-24.1445 Y-31.0237
G01 X-24.3555 Y-31.0237
G01 X-24.5637 Y-30.9890
G01 X-24.7634 Y-30.9204
G01 X-24.9490 Y-30.8200
G01 X-25.1156 Y-30.6903
G01 X-25.2586 Y-30.5350
G01 X-25.3740 Y-30.3583
G01 X-25.4588 Y-30.1650
G01 X-25.5106 Y-29.9604
G01 X-25.5281 Y-29.7500
G01 X-25.5047 Y-29.4996
G01 X-25.5092 Y-29.3849
G01 X-25.5296 Y-29.3179
G01 X-25.5744 Y-29.2435
G01 X-26.4027 Y-28.4090
G01 X-26.5279 Y-28.3346
G01 X-26.5704 Y-28.3213
G01 X-26.6369 Y-28.3138
G01 X-31.4533 Y-28.3160
G01 X-31.5622 Y-28.3459
G01 X-31.6107 Y-28.3694
G01 X-31.6559 Y-28.4076
G01 X-31.7313 Y-28.5015
G01 X-31.7527 Y-28.5538
G01 X-31.7705 Y-28.6403
G01 X-31.7718 Y-28.9982
G01 X-31.8182 Y-28.9982
G01 X-31.8183 Y-28.6444
G01 X-31.8254 Y-28.5765
G01 X-31.8682 Y-28.4627
G01 X-31.9037 Y-28.4110
G01 X-31.9475 Y-28.3660
G01 X-32.0508 Y-28.3019
G01 X-32.1581 Y-28.2750
G01 X-32.5006 Y-28.2733
G01 X-32.6044 Y-28.2894
G01 X-32.7043 Y-28.3367
G01 X-32.7863 Y-28.4110
G01 X-32.8431 Y-28.5058
G01 X-32.8700 Y-28.6131
G01 X-32.8717 Y-30.3056
G01 X-32.8585 Y-30.3987
G01 X-32.8218 Y-30.4873
G01 X-32.8218 Y-30.6010
G01 X-32.8738 Y-30.5763
G01 X-32.9262 Y-30.5636
G01 X-33.0503 Y-30.5686
G01 X-33.1258 Y-30.5916
G01 X-33.2954 Y-30.6919
G01 X-33.4034 Y-30.7233
G01 X-33.8218 Y-30.7237
G01 X-33.9346 Y-30.6919
G01 X-34.0618 Y-30.6156
G01 X-34.1442 Y-30.5767
G01 X-34.2343 Y-30.5626
G01 X-34.3206 Y-30.5690
G01 X-34.3755 Y-30.5827
G01 X-34.5795 Y-30.6960
G00 Z2.0000
G00 X-31.7718 Y-30.3567
G01 F60.00
G01 Z-0.0250
G01 F120.00
G01 X-31.7718 Y-29.9518
G01 X-31.8182 Y-29.9518
G01 X-31.8200 Y-30.3369
G01 X-31.8344 Y-30.4094
G01 X-31.8682 Y-30.4873
G01 X-31.8682 Y-30.5717
G01 X-31.8035 Y-30.4694
G01 X-31.7718 Y-30.3567
G00 X-31.7718 Y-30.3567
G01 F60.00
G01 Z-0.0500
G01 F120.00
G01 X-31.7718 Y-29.9518
G01 X-31.8182 Y-29.9518
G01 X-31.8200 Y-30.3369
G01 X-31.8344 Y-30.4094
G01 X-31.8682 Y-30.4873
G01 X-31.8682 Y-30.5717
G01 X-31.8035 Y-30.4694
G01 X-31.7718 Y-30.3567
G00 X-31.7718 Y-30.3567
G01 F60.00
G01 Z-0.0750
G01 F120.00
G01 X-31.7718 Y-29.9518
G01 X-31.8182 Y-29.9518
G01 X-31.8200 Y-30.3369
G01 X-31.8344 Y-30.4094
G01 X-31.8682 Y-30.4873
G01 X-31.8682 Y-30.5717
G01 X-31.8035 Y-30.4694
G01 X-31.7718 Y-30.3567
G00 X-31.7718 Y-30.3567
G01 F60.00
G01 Z-0.1000
G01 F120.00
G01 X-31.7718 Y-29.9518
G01 X-31.8182 Y-29.9518
G01 X-31.8200 Y-30.3369
G01 X-31.8344 Y-30.4094
G01 X-31.8682 Y-30.4873
G01 X-31.8682 Y-30.5717
G01 X-31.8035 Y-30.4694
G01 X-31.7718 Y-30.3567
G00 Z2.0000
G00 X-36.6808 Y-28.6242
G01 F60.00
G01 Z-0.0250
G01 F120.00
G01 X-36.6820 Y-36.0950
G01 X-36.6737 Y-36.1868
G01 X-36.6558 Y-36.2585
G01 X-36.5991 Y-36.3784
G01 X-36.5276 Y-36.4676
G01 X-32.8427 Y-40.1501
G01 X-32.7834 Y-40.1941
G01 X-32.6913 Y-40.2408
G01 X-32.6028 Y-40.2668
G01 X-32.5056 Y-40.2769
G01 X-25.3565 Y-40.2770
G01 X-25.2760 Y-40.4222
G01 X-25.1983 Y-40.5283
G01 X-25.1094 Y-40.6252
G01 X-25.0283 Y-40.6983
G01 X-24.9316 Y-40.7700
G01 X-24.8184 Y-40.8369
G01 X-24.7195 Y-40.8834
G01 X-24.6061 Y-40.9240
G01 X-24.4784 Y-40.9551
G01 X-24.3702 Y-40.9709
G01 X-24.2611 Y-40.9765
G01 X-24.1298 Y-40.9709
G01 X-24.0107 Y-40.9532
G01 X-23.8939 Y-40.9240
G01 X-23.7703 Y-40.8789
G01 X-23.6717 Y-40.8319
G01 X-23.5593 Y-40.7636
G01 X-23.4633 Y-40.6911
G01 X-23.3825 Y-40.6175
G01 X-23.3089 Y-40.5367
G01 X-23.2300 Y-40.4316
G01 X-23.1631 Y-40.3184
G01 X-23.1166 Y-40.2195
G01 X-23.0795 Y-40.1167
G01 X-23.0449 Y-39.9784
G01 X-23.0291 Y-39.8702
G01 X-23.0235 Y-39.7611
G01 X-23.0291 Y-39.6298
G01 X-23.0468 Y-39.5107
G01 X-23.0731 Y-39.4046
G01 X-23.1166 Y-39.2805
G01 X-23.1735 Y-39.1620
G01 X-23.2300 Y-39.0684
G01 X-23.2948 Y-38.9805
G01 X-23.3825 Y-38.8825
G01 X-23.4805 Y-38.7948
G01 X-23.5684 Y-38.7300
G01 X-23.6620 Y-38.6735
G01 X-23.7805 Y-38.6166
G01 X-23.9046 Y-38.5731
G01 X-24.0107 Y-38.5468
G01 X-24.1187 Y-38.5305
G01 X-24.2611 Y-38.5235
G01 X-24.3702 Y-38.5291
G01 X-24.4893 Y-38.5468
G01 X-24.6167 Y-38.5795
G01 X-24.7195 Y-38.6166
G01 X-24.8283 Y-38.6681
G01 X-24.9316 Y-38.7300
G01 X-25.0195 Y-38.7948
G01 X-25.1252 Y-38.8906
G01 X-25.1983 Y-38.9717
G01 X-25.2700 Y-39.0684
G01 X-25.3565 Y-39.2230
G01 X-32.2817 Y-39.2230
G01 X-35.6280 Y-35.8767
G01 X-35.6314 Y-28.6020
G01 X-35.6569 Y-28.5058
G01 X-35.6981 Y-28.4316
G01 X-35.7660 Y-28.3587
G01 X-35.8373 Y-28.3127
G01 X-35.8956 Y-28.2894
G01 X-35.9681 Y-28.2750
G01 X-36.3106 Y-28.2733
G01 X-36.3785 Y-28.2804
G01 X-36.4492 Y-28.3019
G01 X-36.5143 Y-28.3367
G01 X-36.5634 Y-28.3759
G01 X-36.6119 Y-28.4316
G01 X-36.6423 Y-28.4823
G01 X-36.6685 Y-28.5513
G01 X-36.6808 Y-28.6242
G00 X-36.6808 Y-28.6242
G01 F60.00
G01 Z-0.0500
G01 F120.00
G01 X-36.6820 Y-36.0950
G01 X-36.6737 Y-36.1868
G01 X-36.6558 Y-36.2585
G01 X-36.5991 Y-36.3784
G01 X-36.5276 Y-36.4676
G01 X-32.8427 Y-40.1501
G01 X-32.7834 Y-40.1941
G01 X-32.6913 Y-40.2408
G01 X-32.6028 Y-40.2668
G01 X-32.5056 Y-40.2769
G01 X-25.3565 Y-40.2770
G01 X-25.2760 Y-40.4222
G01 X-25.1983 Y-40.5283
G01 X-25.1094 Y-40.6252
G01 X-25.0283 Y-40.6983
G01 X-24.9316 Y-40.7700
G01 X-24.8184 Y-40.8369
G01 X-24.7195 Y-40.8834
G01 X-24.6061 Y-40.9240
G01 X-24.4784 Y-40.9551
G01 X-24.3702 Y-40.9709
G01 X-24.2611 Y-40.9765
G01 X-24.1298 Y-40.9709
G01 X-24.0107 Y-40.9532
G01 X-23.8939 Y-40.9240
G01 X-23.7703 Y-40.8789
G01 X-23.6717 Y-40.8319
G01 X-23.5593 Y-40.7636
G01 X-23.4633 Y-40.6911
G01 X-23.3825 Y-40.6175
G01 X-23.3089 Y-40.5367
G01 X-23.2300 Y-40.4316
G01 X-23.1631 Y-40.3184
G01 X-23.1166 Y-40.2195
G01 X-23.0795 Y-40.1167
G01 X-23.0449 Y-39.9784
G01 X-23.0291 Y-39.8702
G01 X-23.0235 Y-39.7611
G01 X-23.0291 Y-39.6298
G01 X-23.0468 Y-39.5107
G01 X-23.0731 Y-39.4046
G01 X-23.1166 Y-39.2805
G01 X-23.1735 Y-39.1620
G01 X-23.2300 Y-39.0684
G01 X-23.2948 Y-38.9805
G01 X-23.3825 Y-38.8825
G01 X-23.4805 Y-38.7948
G01 X-23.5684 Y-38.7300
G01 X-23.6620 Y-38.6735
G01 X-23.7805 Y-38.6166
G01 X-23.9046 Y-38.5731
G01 X-24.0107 Y-38.5468
G01 X-24.1187 Y-38.5305
G01 X-24.2611 Y-38.5235
G01 X-24.3702 Y-38.5291
G01 X-24.4893 Y-38.5468
G01 X-24.6167 Y-38.5795
G01 X-24.7195 Y-38.6166
G01 X-24.8283 Y-38.6681
G01 X-24.9316 Y-38.7300
G01 X-25.0195 Y-38.7948
G01 X-25.1252 Y-38.8906
G01 X-25.1983 Y-38.9717
G01 X-25.2700 Y-39.0684
G01 X-25.3565 Y-39.2230
G01 X-32.2817 Y-39.2230
G01 X-35.6280 Y-35.8767
G01 X-35.6314 Y-28.6020
G01 X-35.6569 Y-28.5058
G01 X-35.6981 Y-28.4316
G01 X-35.7660 Y-28.3587
G01 X-35.8373 Y-28.3127
G01 X-35.8956 Y-28.2894
G01 X-35.9681 Y-28.2750
G01 X-36.3106 Y-28.2733
G01 X-36.3785 Y-28.2804
G01 X-36.4492 Y-28.3019
G01 X-36.5143 Y-28.3367
G01 X-36.5634 Y-28.3759
G01 X-36.6119 Y-28.4316
G01 X-36.6423 Y-28.4823
G01 X-36.6685 Y-28.5513
G01 X-36.6808 Y-28.6242
G00 X-36.6808 Y-28.6242
G01 F60.00
G01 Z-0.0750
G01 F120.00
G01 X-36.6820 Y-36.0950
G01 X-36.6737 Y-36.1868
G01 X-36.6558 Y-36.2585
G01 X-36.5991 Y-36.3784
G01 X-36.5276 Y-36.4676
G01 X-32.8427 Y-40.1501
G01 X-32.7834 Y-40.1941
G01 X-32.6913 Y-40.2408
G01 X-32.6028 Y-40.2668
G01 X-32.5056 Y-40.2769
G01 X-25.3565 Y-40.2770
G01 X-25.2760 Y-40.4222
G01 X-25.1983 Y-40.5283
G01 X-25.1094 Y-40.6252
G01 X-25.0283 Y-40.6983
G01 X-24.9316 Y-40.7700
G01 X-24.8184 Y-40.8369
G01 X-24.7195 Y-40.8834
G01 X-24.6061 Y-40.9240
G01 X-24.4784 Y-40.9551
G01 X-24.3702 Y-40.9709
G01 X-24.2611 Y-40.9765
G01 X-24.1298 Y-40.9709
G01 X-24.0107 Y-40.9532
G01 X-23.8939 Y-40.9240
G01 X-23.7703 Y-40.8789
G01 X-23.6717 Y-40.8319
G01 X-23.5593 Y-40.7636
G01 X-23.4633 Y-40.6911
G01 X-23.3825 Y-40.6175
G01 X-23.3089 Y-40.5367
G01 X-23.2300 Y-40.4316
G01 X-23.1631 Y-40.3184
G01 X-23.1166 Y-40.2195
G01 X-23.0795 Y-40.1167
G01 X-23.0449 Y-39.9784
G01 X-23.0291 Y-39.8702
G01 X-23.0235 Y-39.7611
G01 X-23.0291 Y-39.6298
G01 X-23.0468 Y-39.5107
G01 X-23.0731 Y-39.4046
G01 X-23.1166 Y-39.2805
G01 X-23.1735 Y-39.1620
G01 X-23.2300 Y-39.0684
G01 X-23.2948 Y-38.9805
G01 X-23.3825 Y-38.8825
G01 X-23.4805 Y-38.7948
G01 X-23.5684 Y-38.7300
G01 X-23.6620 Y-38.6735
G01 X-23.7805 Y-38.6166
G01 X-23.9046 Y-38.5731
G01 X-24.0107 Y-38.5468
G01 X-24.1187 Y-38.5305
G01 X-24.2611 Y-38.5235
G01 X-24.3702 Y-38.5291
G01 X-24.4893 Y-38.5468
G01 X-24.6167 Y-38.5795
G01 X-24.7195 Y-38.6166
G01 X-24.8283 Y-38.6681
G01 X-24.9316 Y-38.7300
G01 X-25.0195 Y-38.7948
G01 X-25.1252 Y-38.8906
G01 X-25.1983 Y-38.9717
G01 X-25.2700 Y-39.0684
G01 X-25.3565 Y-39.2230
G01 X-32.2817 Y-39.2230
G01 X-35.6280 Y-35.8767
G01 X-35.6314 Y-28.6020
G01 X-35.6569 Y-28.5058
G01 X-35.6981 Y-28.4316
G01 X-35.7660 Y-28.3587
G01 X-35.8373 Y-28.3127
G01 X-35.8956 Y-28.2894
G01 X-35.9681 Y-28.2750
G01 X-36.3106 Y-28.2733
G01 X-36.3785 Y-28.2804
G01 X-36.4492 Y-28.3019
G01 X-36.5143 Y-28.3367
G01 X-36.5634 Y-28.3759
G01 X-36.6119 Y-28.4316
G01 X-36.6423 Y-28.4823
G01 X-36.6685 Y-28.5513
G01 X-36.6808 Y-28.6242
G00 X-36.6808 Y-28.6242
G01 F60.00
G01 Z-0.1000
G01 F120.00
G01 X-36.6820 Y-36.0950
G01 X-36.6737 Y-36.1868
G01 X-36.6558 Y-36.2585
G01 X-36.5991 Y-36.3784
G01 X-36.5276 Y-36.4676
G01 X-32.8427 Y-40.1501
G01 X-32.7834 Y-40.1941
G01 X-32.6913 Y-40.2408
G01 X-32.6028 Y-40.2668
G01 X-32.5056 Y-40.2769
G01 X-25.3565 Y-40.2770
G01 X-25.2760 Y-40.4222
G01 X-25.1983 Y-40.5283
G01 X-25.1094 Y-40.6252
G01 X-25.0283 Y-40.6983
G01 X-24.9316 Y-40.7700
G01 X-24.8184 Y-40.8369
G01 X-24.7195 Y-40.8834
G01 X-24.6061 Y-40.9240
G01 X-24.4784 Y-40.9551
G01 X-24.3702 Y-40.9709
G01 X-24.2611 Y-40.9765
G01 X-24.1298 Y-40.9709
G01 X-24.0107 Y-40.9532
G01 X-23.8939 Y-40.9240
G01 X-23.7703 Y-40.8789
G01 X-23.6717 Y-40.8319
G01 X-23.5593 Y-40.7636
G01 X-23.4633 Y-40.6911
G01 X-23.3825 Y-40.6175
G01 X-23.3089 Y-40.5367
G01 X-23.2300 Y-40.4316
G01 X-23.1631 Y-40.3184
G01 X-23.1166 Y-40.2195
G01 X-23.0795 Y-40.1167
G01 X-23.0449 Y-39.9784
G01 X-23.0291 Y-39.8702
G01 X-23.0235 Y-39.7611
G01 X-23.0291 Y-39.6298
G01 X-23.0468 Y-39.5107
G01 X-23.0731 Y-39.4046
G01 X-23.1166 Y-39.2805
G01 X-23.1735 Y-39.1620
G01 X-23.2300 Y-39.0684
G01 X-23.2948 Y-38.9805
G01 X-23.3825 Y-38.8825
G01 X-23.4805 Y-38.7948
G01 X-23.5684 Y-38.7300
G01 X-23.6620 Y-38.6735
G01 X-23.7805 Y-38.6166
G01 X-23.9046 Y-38.5731
G01 X-24.0107 Y-38.5468
G01 X-24.1187 Y-38.5305
G01 X-24.2611 Y-38.5235
G01 X-24.3702 Y-38.5291
G01 X-24.4893 Y-38.5468
G01 X-24.6167 Y-38.5795
G01 X-24.7195 Y-38.6166
G01 X-24.8283 Y-38.6681
G01 X-24.9316 Y-38.7300
G01 X-25.0195 Y-38.7948
G01 X-25.1252 Y-38.8906
G01 X-25.1983 Y-38.9717
