(G-code generated by FlatCAM Evo vUnstable - Version Date: 2022/4/31)

(Name: lasko_ir_remote.drl_exc_cnc_cnc)
(Type: G-code from Geometry)
(Units: MM)

(Created on Wednesday, 20 September 2023 at 07:32)

(This preprocessor is the default preprocessor.)
(It is made to work with MACH3 compatible motion controllers.)

(TOOL DIAMETER: 1.0 mm)
(Feedrate_XY: 120.0 mm/min)
(Feedrate_Z: 60.0 mm/min)
(Feedrate rapids 1500.0 mm/min)

(Z_Cut: -2.5 mm)
(DepthPerCut: 0.5 mm <=>5 passes)
(Z_Move: 2.0 mm)
(Z Start: None mm)
(Z End: 15.0 mm)
(X,Y End: 0.0000, 0.0000 mm)
(Steps per circle: 16)
(Preprocessor Geometry: default)

(X range:  -39.4995 ...   -2.9007  mm)
(Y range:  -95.1001 ...   -2.0244  mm)

(Spindle Speed: 13000.0 RPM)
G21
G90
G94

G01 F120.00
G00 Z2.0000

M03 S13000.0
G4 P1.0
G01 F120.00
G00 X-3.4013 Y-4.5009
G01 F60.00
G01 Z-0.5000
G01 F120.00
G01 X-3.4066 Y-4.6087
G01 X-3.4224 Y-4.7154
G01 X-3.4486 Y-4.8201
G01 X-3.4850 Y-4.9217
G01 X-3.5311 Y-5.0192
G01 X-3.5866 Y-5.1118
G01 X-3.6509 Y-5.1985
G01 X-3.7233 Y-5.2784
G01 X-3.8033 Y-5.3509
G01 X-3.8900 Y-5.4152
G01 X-3.9825 Y-5.4706
G01 X-4.0801 Y-5.5168
G01 X-4.1817 Y-5.5531
G01 X-4.2864 Y-5.5793
G01 X-4.3931 Y-5.5952
G01 X-4.5009 Y-5.6005
G01 X-4.6087 Y-5.5952
G01 X-4.7154 Y-5.5793
G01 X-4.8201 Y-5.5531
G01 X-4.9217 Y-5.5168
G01 X-5.0192 Y-5.4706
G01 X-5.1118 Y-5.4152
G01 X-5.1985 Y-5.3509
G01 X-5.2784 Y-5.2784
G01 X-5.3509 Y-5.1985
G01 X-5.4152 Y-5.1118
G01 X-5.4706 Y-5.0192
G01 X-5.5168 Y-4.9217
G01 X-5.5531 Y-4.8201
G01 X-5.5793 Y-4.7154
G01 X-5.5952 Y-4.6087
G01 X-5.6005 Y-4.5009
G01 X-5.5952 Y-4.3931
G01 X-5.5793 Y-4.2864
G01 X-5.5531 Y-4.1817
G01 X-5.5168 Y-4.0801
G01 X-5.4706 Y-3.9825
G01 X-5.4152 Y-3.8900
G01 X-5.3509 Y-3.8033
G01 X-5.2784 Y-3.7233
G01 X-5.1985 Y-3.6509
G01 X-5.1118 Y-3.5866
G01 X-5.0192 Y-3.5311
G01 X-4.9217 Y-3.4850
G01 X-4.8201 Y-3.4486
G01 X-4.7154 Y-3.4224
G01 X-4.6087 Y-3.4066
G01 X-4.5009 Y-3.4013
G01 X-4.3931 Y-3.4066
G01 X-4.2864 Y-3.4224
G01 X-4.1817 Y-3.4486
G01 X-4.0801 Y-3.4850
G01 X-3.9825 Y-3.5311
G01 X-3.8900 Y-3.5866
G01 X-3.8033 Y-3.6509
G01 X-3.7233 Y-3.7233
G01 X-3.6509 Y-3.8033
G01 X-3.5866 Y-3.8900
G01 X-3.5311 Y-3.9825
G01 X-3.4850 Y-4.0801
G01 X-3.4486 Y-4.1817
G01 X-3.4224 Y-4.2864
G01 X-3.4066 Y-4.3931
G01 X-3.4013 Y-4.5009
G00 X-3.4013 Y-4.5009
G01 F60.00
G01 Z-1.0000
G01 F120.00
G01 X-3.4066 Y-4.3931
G01 X-3.4224 Y-4.2864
G01 X-3.4486 Y-4.1817
G01 X-3.4850 Y-4.0801
G01 X-3.5311 Y-3.9825
G01 X-3.5866 Y-3.8900
G01 X-3.6509 Y-3.8033
G01 X-3.7233 Y-3.7233
G01 X-3.8033 Y-3.6509
G01 X-3.8900 Y-3.5866
G01 X-3.9825 Y-3.5311
G01 X-4.0801 Y-3.4850
G01 X-4.1817 Y-3.4486
G01 X-4.2864 Y-3.4224
G01 X-4.3931 Y-3.4066
G01 X-4.5009 Y-3.4013
G01 X-4.6087 Y-3.4066
G01 X-4.7154 Y-3.4224
G01 X-4.8201 Y-3.4486
G01 X-4.9217 Y-3.4850
G01 X-5.0192 Y-3.5311
G01 X-5.1118 Y-3.5866
G01 X-5.1985 Y-3.6509
G01 X-5.2784 Y-3.7233
G01 X-5.3509 Y-3.8033
G01 X-5.4152 Y-3.8900
G01 X-5.4706 Y-3.9825
G01 X-5.5168 Y-4.0801
G01 X-5.5531 Y-4.1817
G01 X-5.5793 Y-4.2864
G01 X-5.5952 Y-4.3931
G01 X-5.6005 Y-4.5009
G01 X-5.5952 Y-4.6087
G01 X-5.5793 Y-4.7154
G01 X-5.5531 Y-4.8201
G01 X-5.5168 Y-4.9217
G01 X-5.4706 Y-5.0192
G01 X-5.4152 Y-5.1118
G01 X-5.3509 Y-5.1985
G01 X-5.2784 Y-5.2784
G01 X-5.1985 Y-5.3509
G01 X-5.1118 Y-5.4152
G01 X-5.0192 Y-5.4706
G01 X-4.9217 Y-5.5168
G01 X-4.8201 Y-5.5531
G01 X-4.7154 Y-5.5793
G01 X-4.6087 Y-5.5952
G01 X-4.5009 Y-5.6005
G01 X-4.3931 Y-5.5952
G01 X-4.2864 Y-5.5793
G01 X-4.1817 Y-5.5531
G01 X-4.0801 Y-5.5168
G01 X-3.9825 Y-5.4706
G01 X-3.8900 Y-5.4152
G01 X-3.8033 Y-5.3509
G01 X-3.7233 Y-5.2784
G01 X-3.6509 Y-5.1985
G01 X-3.5866 Y-5.1118
G01 X-3.5311 Y-5.0192
G01 X-3.4850 Y-4.9217
G01 X-3.4486 Y-4.8201
G01 X-3.4224 Y-4.7154
G01 X-3.4066 Y-4.6087
G01 X-3.4013 Y-4.5009
G00 X-3.4013 Y-4.5009
G01 F60.00
G01 Z-1.5000
G01 F120.00
G01 X-3.4066 Y-4.6087
G01 X-3.4224 Y-4.7154
G01 X-3.4486 Y-4.8201
G01 X-3.4850 Y-4.9217
G01 X-3.5311 Y-5.0192
G01 X-3.5866 Y-5.1118
G01 X-3.6509 Y-5.1985
G01 X-3.7233 Y-5.2784
G01 X-3.8033 Y-5.3509
G01 X-3.8900 Y-5.4152
G01 X-3.9825 Y-5.4706
G01 X-4.0801 Y-5.5168
G01 X-4.1817 Y-5.5531
G01 X-4.2864 Y-5.5793
G01 X-4.3931 Y-5.5952
G01 X-4.5009 Y-5.6005
G01 X-4.6087 Y-5.5952
G01 X-4.7154 Y-5.5793
G01 X-4.8201 Y-5.5531
G01 X-4.9217 Y-5.5168
G01 X-5.0192 Y-5.4706
G01 X-5.1118 Y-5.4152
G01 X-5.1985 Y-5.3509
G01 X-5.2784 Y-5.2784
G01 X-5.3509 Y-5.1985
G01 X-5.4152 Y-5.1118
G01 X-5.4706 Y-5.0192
G01 X-5.5168 Y-4.9217
G01 X-5.5531 Y-4.8201
G01 X-5.5793 Y-4.7154
G01 X-5.5952 Y-4.6087
G01 X-5.6005 Y-4.5009
G01 X-5.5952 Y-4.3931
G01 X-5.5793 Y-4.2864
G01 X-5.5531 Y-4.1817
G01 X-5.5168 Y-4.0801
G01 X-5.4706 Y-3.9825
G01 X-5.4152 Y-3.8900
G01 X-5.3509 Y-3.8033
G01 X-5.2784 Y-3.7233
G01 X-5.1985 Y-3.6509
G01 X-5.1118 Y-3.5866
G01 X-5.0192 Y-3.5311
G01 X-4.9217 Y-3.4850
G01 X-4.8201 Y-3.4486
G01 X-4.7154 Y-3.4224
G01 X-4.6087 Y-3.4066
G01 X-4.5009 Y-3.4013
G01 X-4.3931 Y-3.4066
G01 X-4.2864 Y-3.4224
G01 X-4.1817 Y-3.4486
G01 X-4.0801 Y-3.4850
G01 X-3.9825 Y-3.5311
G01 X-3.8900 Y-3.5866
G01 X-3.8033 Y-3.6509
G01 X-3.7233 Y-3.7233
G01 X-3.6509 Y-3.8033
G01 X-3.5866 Y-3.8900
G01 X-3.5311 Y-3.9825
G01 X-3.4850 Y-4.0801
G01 X-3.4486 Y-4.1817
G01 X-3.4224 Y-4.2864
G01 X-3.4066 Y-4.3931
G01 X-3.4013 Y-4.5009
G00 X-3.4013 Y-4.5009
G01 F60.00
G01 Z-2.0000
G01 F120.00
G01 X-3.4066 Y-4.3931
G01 X-3.4224 Y-4.2864
G01 X-3.4486 Y-4.1817
G01 X-3.4850 Y-4.0801
G01 X-3.5311 Y-3.9825
G01 X-3.5866 Y-3.8900
G01 X-3.6509 Y-3.8033
G01 X-3.7233 Y-3.7233
G01 X-3.8033 Y-3.6509
G01 X-3.8900 Y-3.5866
G01 X-3.9825 Y-3.5311
G01 X-4.0801 Y-3.4850
G01 X-4.1817 Y-3.4486
G01 X-4.2864 Y-3.4224
G01 X-4.3931 Y-3.4066
G01 X-4.5009 Y-3.4013
G01 X-4.6087 Y-3.4066
G01 X-4.7154 Y-3.4224
G01 X-4.8201 Y-3.4486
G01 X-4.9217 Y-3.4850
G01 X-5.0192 Y-3.5311
G01 X-5.1118 Y-3.5866
G01 X-5.1985 Y-3.6509
G01 X-5.2784 Y-3.7233
G01 X-5.3509 Y-3.8033
G01 X-5.4152 Y-3.8900
G01 X-5.4706 Y-3.9825
G01 X-5.5168 Y-4.0801
G01 X-5.5531 Y-4.1817
G01 X-5.5793 Y-4.2864
G01 X-5.5952 Y-4.3931
G01 X-5.6005 Y-4.5009
G01 X-5.5952 Y-4.6087
G01 X-5.5793 Y-4.7154
G01 X-5.5531 Y-4.8201
G01 X-5.5168 Y-4.9217
G01 X-5.4706 Y-5.0192
G01 X-5.4152 Y-5.1118
G01 X-5.3509 Y-5.1985
G01 X-5.2784 Y-5.2784
G01 X-5.1985 Y-5.3509
G01 X-5.1118 Y-5.4152
G01 X-5.0192 Y-5.4706
G01 X-4.9217 Y-5.5168
G01 X-4.8201 Y-5.5531
G01 X-4.7154 Y-5.5793
G01 X-4.6087 Y-5.5952
G01 X-4.5009 Y-5.6005
G01 X-4.3931 Y-5.5952
G01 X-4.2864 Y-5.5793
G01 X-4.1817 Y-5.5531
G01 X-4.0801 Y-5.5168
G01 X-3.9825 Y-5.4706
G01 X-3.8900 Y-5.4152
G01 X-3.8033 Y-5.3509
G01 X-3.7233 Y-5.2784
G01 X-3.6509 Y-5.1985
G01 X-3.5866 Y-5.1118
G01 X-3.5311 Y-5.0192
G01 X-3.4850 Y-4.9217
G01 X-3.4486 Y-4.8201
G01 X-3.4224 Y-4.7154
G01 X-3.4066 Y-4.6087
G01 X-3.4013 Y-4.5009
G00 X-3.4013 Y-4.5009
G01 F60.00
G01 Z-2.5000
G01 F120.00
G01 X-3.4066 Y-4.6087
G01 X-3.4224 Y-4.7154
G01 X-3.4486 Y-4.8201
G01 X-3.4850 Y-4.9217
G01 X-3.5311 Y-5.0192
G01 X-3.5866 Y-5.1118
G01 X-3.6509 Y-5.1985
G01 X-3.7233 Y-5.2784
G01 X-3.8033 Y-5.3509
G01 X-3.8900 Y-5.4152
G01 X-3.9825 Y-5.4706
G01 X-4.0801 Y-5.5168
G01 X-4.1817 Y-5.5531
G01 X-4.2864 Y-5.5793
G01 X-4.3931 Y-5.5952
G01 X-4.5009 Y-5.6005
G01 X-4.6087 Y-5.5952
G01 X-4.7154 Y-5.5793
G01 X-4.8201 Y-5.5531
G01 X-4.9217 Y-5.5168
G01 X-5.0192 Y-5.4706
G01 X-5.1118 Y-5.4152
G01 X-5.1985 Y-5.3509
G01 X-5.2784 Y-5.2784
G01 X-5.3509 Y-5.1985
G01 X-5.4152 Y-5.1118
G01 X-5.4706 Y-5.0192
G01 X-5.5168 Y-4.9217
G01 X-5.5531 Y-4.8201
G01 X-5.5793 Y-4.7154
G01 X-5.5952 Y-4.6087
G01 X-5.6005 Y-4.5009
G01 X-5.5952 Y-4.3931
G01 X-5.5793 Y-4.2864
G01 X-5.5531 Y-4.1817
G01 X-5.5168 Y-4.0801
G01 X-5.4706 Y-3.9825
G01 X-5.4152 Y-3.8900
G01 X-5.3509 Y-3.8033
G01 X-5.2784 Y-3.7233
G01 X-5.1985 Y-3.6509
G01 X-5.1118 Y-3.5866
G01 X-5.0192 Y-3.5311
G01 X-4.9217 Y-3.4850
G01 X-4.8201 Y-3.4486
G01 X-4.7154 Y-3.4224
G01 X-4.6087 Y-3.4066
G01 X-4.5009 Y-3.4013
G01 X-4.3931 Y-3.4066
G01 X-4.2864 Y-3.4224
G01 X-4.1817 Y-3.4486
G01 X-4.0801 Y-3.4850
G01 X-3.9825 Y-3.5311
G01 X-3.8900 Y-3.5866
G01 X-3.8033 Y-3.6509
G01 X-3.7233 Y-3.7233
G01 X-3.6509 Y-3.8033
G01 X-3.5866 Y-3.8900
G01 X-3.5311 Y-3.9825
G01 X-3.4850 Y-4.0801
G01 X-3.4486 Y-4.1817
G01 X-3.4224 Y-4.2864
G01 X-3.4066 Y-4.3931
G01 X-3.4013 Y-4.5009
G00 Z2.0000
G00 X-4.0509 Y-4.5009
G01 F60.00
G01 Z-0.5000
G01 F120.00
G01 X-4.0595 Y-4.5887
G01 X-4.0851 Y-4.6731
G01 X-4.1267 Y-4.7509
G01 X-4.1827 Y-4.8191
G01 X-4.2509 Y-4.8750
G01 X-4.3287 Y-4.9166
G01 X-4.4131 Y-4.9422
G01 X-4.5009 Y-4.9509
G01 X-4.5887 Y-4.9422
G01 X-4.6731 Y-4.9166
G01 X-4.7509 Y-4.8750
G01 X-4.8191 Y-4.8191
G01 X-4.8750 Y-4.7509
G01 X-4.9166 Y-4.6731
G01 X-4.9422 Y-4.5887
G01 X-4.9509 Y-4.5009
G01 X-4.9422 Y-4.4131
G01 X-4.9166 Y-4.3287
G01 X-4.8750 Y-4.2509
G01 X-4.8191 Y-4.1827
G01 X-4.7509 Y-4.1267
G01 X-4.6731 Y-4.0851
G01 X-4.5887 Y-4.0595
G01 X-4.5009 Y-4.0509
G01 X-4.4131 Y-4.0595
G01 X-4.3287 Y-4.0851
G01 X-4.2509 Y-4.1267
G01 X-4.1827 Y-4.1827
G01 X-4.1267 Y-4.2509
G01 X-4.0851 Y-4.3287
G01 X-4.0595 Y-4.4131
G01 X-4.0509 Y-4.5009
G00 X-4.0509 Y-4.5009
G01 F60.00
G01 Z-1.0000
G01 F120.00
G01 X-4.0595 Y-4.4131
G01 X-4.0851 Y-4.3287
G01 X-4.1267 Y-4.2509
G01 X-4.1827 Y-4.1827
G01 X-4.2509 Y-4.1267
G01 X-4.3287 Y-4.0851
G01 X-4.4131 Y-4.0595
G01 X-4.5009 Y-4.0509
G01 X-4.5887 Y-4.0595
G01 X-4.6731 Y-4.0851
G01 X-4.7509 Y-4.1267
G01 X-4.8191 Y-4.1827
G01 X-4.8750 Y-4.2509
G01 X-4.9166 Y-4.3287
G01 X-4.9422 Y-4.4131
G01 X-4.9509 Y-4.5009
G01 X-4.9422 Y-4.5887
G01 X-4.9166 Y-4.6731
G01 X-4.8750 Y-4.7509
G01 X-4.8191 Y-4.8191
G01 X-4.7509 Y-4.8750
G01 X-4.6731 Y-4.9166
G01 X-4.5887 Y-4.9422
G01 X-4.5009 Y-4.9509
G01 X-4.4131 Y-4.9422
G01 X-4.3287 Y-4.9166
G01 X-4.2509 Y-4.8750
G01 X-4.1827 Y-4.8191
G01 X-4.1267 Y-4.7509
G01 X-4.0851 Y-4.6731
G01 X-4.0595 Y-4.5887
G01 X-4.0509 Y-4.5009
G00 X-4.0509 Y-4.5009
G01 F60.00
G01 Z-1.5000
G01 F120.00
G01 X-4.0595 Y-4.5887
G01 X-4.0851 Y-4.6731
G01 X-4.1267 Y-4.7509
G01 X-4.1827 Y-4.8191
G01 X-4.2509 Y-4.8750
G01 X-4.3287 Y-4.9166
G01 X-4.4131 Y-4.9422
G01 X-4.5009 Y-4.9509
G01 X-4.5887 Y-4.9422
G01 X-4.6731 Y-4.9166
G01 X-4.7509 Y-4.8750
G01 X-4.8191 Y-4.8191
G01 X-4.8750 Y-4.7509
G01 X-4.9166 Y-4.6731
G01 X-4.9422 Y-4.5887
G01 X-4.9509 Y-4.5009
G01 X-4.9422 Y-4.4131
G01 X-4.9166 Y-4.3287
G01 X-4.8750 Y-4.2509
G01 X-4.8191 Y-4.1827
G01 X-4.7509 Y-4.1267
G01 X-4.6731 Y-4.0851
G01 X-4.5887 Y-4.0595
G01 X-4.5009 Y-4.0509
G01 X-4.4131 Y-4.0595
G01 X-4.3287 Y-4.0851
G01 X-4.2509 Y-4.1267
G01 X-4.1827 Y-4.1827
G01 X-4.1267 Y-4.2509
G01 X-4.0851 Y-4.3287
G01 X-4.0595 Y-4.4131
G01 X-4.0509 Y-4.5009
G00 X-4.0509 Y-4.5009
G01 F60.00
G01 Z-2.0000
G01 F120.00
G01 X-4.0595 Y-4.4131
G01 X-4.0851 Y-4.3287
G01 X-4.1267 Y-4.2509
G01 X-4.1827 Y-4.1827
G01 X-4.2509 Y-4.1267
G01 X-4.3287 Y-4.0851
G01 X-4.4131 Y-4.0595
G01 X-4.5009 Y-4.0509
G01 X-4.5887 Y-4.0595
G01 X-4.6731 Y-4.0851
G01 X-4.7509 Y-4.1267
G01 X-4.8191 Y-4.1827
G01 X-4.8750 Y-4.2509
G01 X-4.9166 Y-4.3287
G01 X-4.9422 Y-4.4131
G01 X-4.9509 Y-4.5009
G01 X-4.9422 Y-4.5887
G01 X-4.9166 Y-4.6731
G01 X-4.8750 Y-4.7509
G01 X-4.8191 Y-4.8191
G01 X-4.7509 Y-4.8750
G01 X-4.6731 Y-4.9166
G01 X-4.5887 Y-4.9422
G01 X-4.5009 Y-4.9509
G01 X-4.4131 Y-4.9422
G01 X-4.3287 Y-4.9166
G01 X-4.2509 Y-4.8750
G01 X-4.1827 Y-4.8191
G01 X-4.1267 Y-4.7509
G01 X-4.0851 Y-4.6731
G01 X-4.0595 Y-4.5887
G01 X-4.0509 Y-4.5009
G00 X-4.0509 Y-4.5009
G01 F60.00
G01 Z-2.5000
G01 F120.00
G01 X-4.0595 Y-4.5887
G01 X-4.0851 Y-4.6731
G01 X-4.1267 Y-4.7509
G01 X-4.1827 Y-4.8191
G01 X-4.2509 Y-4.8750
G01 X-4.3287 Y-4.9166
G01 X-4.4131 Y-4.9422
G01 X-4.5009 Y-4.9509
G01 X-4.5887 Y-4.9422
G01 X-4.6731 Y-4.9166
G01 X-4.7509 Y-4.8750
G01 X-4.8191 Y-4.8191
G01 X-4.8750 Y-4.7509
G01 X-4.9166 Y-4.6731
G01 X-4.9422 Y-4.5887
G01 X-4.9509 Y-4.5009
G01 X-4.9422 Y-4.4131
G01 X-4.9166 Y-4.3287
G01 X-4.8750 Y-4.2509
G01 X-4.8191 Y-4.1827
G01 X-4.7509 Y-4.1267
G01 X-4.6731 Y-4.0851
G01 X-4.5887 Y-4.0595
G01 X-4.5009 Y-4.0509
G01 X-4.4131 Y-4.0595
G01 X-4.3287 Y-4.0851
G01 X-4.2509 Y-4.1267
G01 X-4.1827 Y-4.1827
G01 X-4.1267 Y-4.2509
G01 X-4.0851 Y-4.3287
G01 X-4.0595 Y-4.4131
G01 X-4.0509 Y-4.5009
G00 Z2.0000
G00 X-36.4010 Y-4.5009
G01 F60.00
G01 Z-0.5000
G01 F120.00
G01 X-36.4063 Y-4.6087
G01 X-36.4221 Y-4.7154
G01 X-36.4483 Y-4.8201
G01 X-36.4847 Y-4.9217
G01 X-36.5308 Y-5.0192
G01 X-36.5863 Y-5.1118
G01 X-36.6506 Y-5.1985
G01 X-36.7230 Y-5.2784
G01 X-36.8030 Y-5.3509
G01 X-36.8897 Y-5.4152
G01 X-36.9822 Y-5.4706
G01 X-37.0798 Y-5.5168
G01 X-37.1814 Y-5.5531
G01 X-37.2860 Y-5.5793
G01 X-37.3928 Y-5.5952
G01 X-37.5006 Y-5.6005
G01 X-37.6083 Y-5.5952
G01 X-37.7151 Y-5.5793
G01 X-37.8198 Y-5.5531
G01 X-37.9214 Y-5.5168
G01 X-38.0189 Y-5.4706
G01 X-38.1115 Y-5.4152
G01 X-38.1981 Y-5.3509
G01 X-38.2781 Y-5.2784
G01 X-38.3506 Y-5.1985
G01 X-38.4148 Y-5.1118
G01 X-38.4703 Y-5.0192
G01 X-38.5165 Y-4.9217
G01 X-38.5528 Y-4.8201
G01 X-38.5790 Y-4.7154
G01 X-38.5949 Y-4.6087
G01 X-38.6002 Y-4.5009
G01 X-38.5949 Y-4.3931
G01 X-38.5790 Y-4.2864
G01 X-38.5528 Y-4.1817
G01 X-38.5165 Y-4.0801
G01 X-38.4703 Y-3.9825
G01 X-38.4148 Y-3.8900
G01 X-38.3506 Y-3.8033
G01 X-38.2781 Y-3.7233
G01 X-38.1981 Y-3.6509
G01 X-38.1115 Y-3.5866
G01 X-38.0189 Y-3.5311
G01 X-37.9214 Y-3.4850
G01 X-37.8198 Y-3.4486
G01 X-37.7151 Y-3.4224
G01 X-37.6083 Y-3.4066
G01 X-37.5006 Y-3.4013
G01 X-37.3928 Y-3.4066
G01 X-37.2860 Y-3.4224
G01 X-37.1814 Y-3.4486
G01 X-37.0798 Y-3.4850
G01 X-36.9822 Y-3.5311
G01 X-36.8897 Y-3.5866
G01 X-36.8030 Y-3.6509
G01 X-36.7230 Y-3.7233
G01 X-36.6506 Y-3.8033
G01 X-36.5863 Y-3.8900
G01 X-36.5308 Y-3.9825
G01 X-36.4847 Y-4.0801
G01 X-36.4483 Y-4.1817
G01 X-36.4221 Y-4.2864
G01 X-36.4063 Y-4.3931
G01 X-36.4010 Y-4.5009
G00 X-36.4010 Y-4.5009
G01 F60.00
G01 Z-1.0000
G01 F120.00
G01 X-36.4063 Y-4.3931
G01 X-36.4221 Y-4.2864
G01 X-36.4483 Y-4.1817
G01 X-36.4847 Y-4.0801
G01 X-36.5308 Y-3.9825
G01 X-36.5863 Y-3.8900
G01 X-36.6506 Y-3.8033
G01 X-36.7230 Y-3.7233
G01 X-36.8030 Y-3.6509
G01 X-36.8897 Y-3.5866
G01 X-36.9822 Y-3.5311
G01 X-37.0798 Y-3.4850
G01 X-37.1814 Y-3.4486
G01 X-37.2860 Y-3.4224
G01 X-37.3928 Y-3.4066
G01 X-37.5006 Y-3.4013
G01 X-37.6083 Y-3.4066
G01 X-37.7151 Y-3.4224
G01 X-37.8198 Y-3.4486
G01 X-37.9214 Y-3.4850
G01 X-38.0189 Y-3.5311
G01 X-38.1115 Y-3.5866
G01 X-38.1981 Y-3.6509
G01 X-38.2781 Y-3.7233
G01 X-38.3506 Y-3.8033
G01 X-38.4148 Y-3.8900
G01 X-38.4703 Y-3.9825
G01 X-38.5165 Y-4.0801
G01 X-38.5528 Y-4.1817
G01 X-38.5790 Y-4.2864
G01 X-38.5949 Y-4.3931
G01 X-38.6002 Y-4.5009
G01 X-38.5949 Y-4.6087
G01 X-38.5790 Y-4.7154
G01 X-38.5528 Y-4.8201
G01 X-38.5165 Y-4.9217
G01 X-38.4703 Y-5.0192
G01 X-38.4148 Y-5.1118
G01 X-38.3506 Y-5.1985
G01 X-38.2781 Y-5.2784
G01 X-38.1981 Y-5.3509
G01 X-38.1115 Y-5.4152
G01 X-38.0189 Y-5.4706
G01 X-37.9214 Y-5.5168
G01 X-37.8198 Y-5.5531
G01 X-37.7151 Y-5.5793
G01 X-37.6083 Y-5.5952
G01 X-37.5006 Y-5.6005
G01 X-37.3928 Y-5.5952
G01 X-37.2860 Y-5.5793
G01 X-37.1814 Y-5.5531
G01 X-37.0798 Y-5.5168
G01 X-36.9822 Y-5.4706
G01 X-36.8897 Y-5.4152
G01 X-36.8030 Y-5.3509
G01 X-36.7230 Y-5.2784
G01 X-36.6506 Y-5.1985
G01 X-36.5863 Y-5.1118
G01 X-36.5308 Y-5.0192
G01 X-36.4847 Y-4.9217
G01 X-36.4483 Y-4.8201
G01 X-36.4221 Y-4.7154
G01 X-36.4063 Y-4.6087
G01 X-36.4010 Y-4.5009
G00 X-36.4010 Y-4.5009
G01 F60.00
G01 Z-1.5000
G01 F120.00
G01 X-36.4063 Y-4.6087
G01 X-36.4221 Y-4.7154
G01 X-36.4483 Y-4.8201
G01 X-36.4847 Y-4.9217
G01 X-36.5308 Y-5.0192
G01 X-36.5863 Y-5.1118
G01 X-36.6506 Y-5.1985
G01 X-36.7230 Y-5.2784
G01 X-36.8030 Y-5.3509
G01 X-36.8897 Y-5.4152
G01 X-36.9822 Y-5.4706
G01 X-37.0798 Y-5.5168
G01 X-37.1814 Y-5.5531
G01 X-37.2860 Y-5.5793
G01 X-37.3928 Y-5.5952
G01 X-37.5006 Y-5.6005
G01 X-37.6083 Y-5.5952
G01 X-37.7151 Y-5.5793
G01 X-37.8198 Y-5.5531
G01 X-37.9214 Y-5.5168
G01 X-38.0189 Y-5.4706
G01 X-38.1115 Y-5.4152
G01 X-38.1981 Y-5.3509
G01 X-38.2781 Y-5.2784
G01 X-38.3506 Y-5.1985
G01 X-38.4148 Y-5.1118
G01 X-38.4703 Y-5.0192
G01 X-38.5165 Y-4.9217
G01 X-38.5528 Y-4.8201
G01 X-38.5790 Y-4.7154
G01 X-38.5949 Y-4.6087
G01 X-38.6002 Y-4.5009
G01 X-38.5949 Y-4.3931
G01 X-38.5790 Y-4.2864
G01 X-38.5528 Y-4.1817
G01 X-38.5165 Y-4.0801
G01 X-38.4703 Y-3.9825
G01 X-38.4148 Y-3.8900
G01 X-38.3506 Y-3.8033
G01 X-38.2781 Y-3.7233
G01 X-38.1981 Y-3.6509
G01 X-38.1115 Y-3.5866
G01 X-38.0189 Y-3.5311
G01 X-37.9214 Y-3.4850
G01 X-37.8198 Y-3.4486
G01 X-37.7151 Y-3.4224
G01 X-37.6083 Y-3.4066
G01 X-37.5006 Y-3.4013
G01 X-37.3928 Y-3.4066
G01 X-37.2860 Y-3.4224
G01 X-37.1814 Y-3.4486
G01 X-37.0798 Y-3.4850
G01 X-36.9822 Y-3.5311
G01 X-36.8897 Y-3.5866
G01 X-36.8030 Y-3.6509
G01 X-36.7230 Y-3.7233
G01 X-36.6506 Y-3.8033
G01 X-36.5863 Y-3.8900
G01 X-36.5308 Y-3.9825
G01 X-36.4847 Y-4.0801
G01 X-36.4483 Y-4.1817
G01 X-36.4221 Y-4.2864
G01 X-36.4063 Y-4.3931
G01 X-36.4010 Y-4.5009
G00 X-36.4010 Y-4.5009
G01 F60.00
G01 Z-2.0000
G01 F120.00
G01 X-36.4063 Y-4.3931
G01 X-36.4221 Y-4.2864
G01 X-36.4483 Y-4.1817
G01 X-36.4847 Y-4.0801
G01 X-36.5308 Y-3.9825
G01 X-36.5863 Y-3.8900
G01 X-36.6506 Y-3.8033
G01 X-36.7230 Y-3.7233
G01 X-36.8030 Y-3.6509
G01 X-36.8897 Y-3.5866
G01 X-36.9822 Y-3.5311
G01 X-37.0798 Y-3.4850
G01 X-37.1814 Y-3.4486
G01 X-37.2860 Y-3.4224
G01 X-37.3928 Y-3.4066
G01 X-37.5006 Y-3.4013
G01 X-37.6083 Y-3.4066
G01 X-37.7151 Y-3.4224
G01 X-37.8198 Y-3.4486
G01 X-37.9214 Y-3.4850
G01 X-38.0189 Y-3.5311
G01 X-38.1115 Y-3.5866
G01 X-38.1981 Y-3.6509
G01 X-38.2781 Y-3.7233
G01 X-38.3506 Y-3.8033
G01 X-38.4148 Y-3.8900
G01 X-38.4703 Y-3.9825
G01 X-38.5165 Y-4.0801
G01 X-38.5528 Y-4.1817
G01 X-38.5790 Y-4.2864
G01 X-38.5949 Y-4.3931
G01 X-38.6002 Y-4.5009
G01 X-38.5949 Y-4.6087
G01 X-38.5790 Y-4.7154
G01 X-38.5528 Y-4.8201
G01 X-38.5165 Y-4.9217
G01 X-38.4703 Y-5.0192
G01 X-38.4148 Y-5.1118
G01 X-38.3506 Y-5.1985
G01 X-38.2781 Y-5.2784
G01 X-38.1981 Y-5.3509
G01 X-38.1115 Y-5.4152
G01 X-38.0189 Y-5.4706
G01 X-37.9214 Y-5.5168
G01 X-37.8198 Y-5.5531
G01 X-37.7151 Y-5.5793
G01 X-37.6083 Y-5.5952
G01 X-37.5006 Y-5.6005
G01 X-37.3928 Y-5.5952
G01 X-37.2860 Y-5.5793
G01 X-37.1814 Y-5.5531
G01 X-37.0798 Y-5.5168
G01 X-36.9822 Y-5.4706
G01 X-36.8897 Y-5.4152
G01 X-36.8030 Y-5.3509
G01 X-36.7230 Y-5.2784
G01 X-36.6506 Y-5.1985
G01 X-36.5863 Y-5.1118
G01 X-36.5308 Y-5.0192
G01 X-36.4847 Y-4.9217
G01 X-36.4483 Y-4.8201
G01 X-36.4221 Y-4.7154
G01 X-36.4063 Y-4.6087
G01 X-36.4010 Y-4.5009
G00 X-36.4010 Y-4.5009
G01 F60.00
G01 Z-2.5000
G01 F120.00
G01 X-36.4063 Y-4.6087
G01 X-36.4221 Y-4.7154
G01 X-36.4483 Y-4.8201
G01 X-36.4847 Y-4.9217
G01 X-36.5308 Y-5.0192
G01 X-36.5863 Y-5.1118
G01 X-36.6506 Y-5.1985
G01 X-36.7230 Y-5.2784
G01 X-36.8030 Y-5.3509
G01 X-36.8897 Y-5.4152
G01 X-36.9822 Y-5.4706
G01 X-37.0798 Y-5.5168
G01 X-37.1814 Y-5.5531
G01 X-37.2860 Y-5.5793
G01 X-37.3928 Y-5.5952
G01 X-37.5006 Y-5.6005
G01 X-37.6083 Y-5.5952
G01 X-37.7151 Y-5.5793
G01 X-37.8198 Y-5.5531
G01 X-37.9214 Y-5.5168
G01 X-38.0189 Y-5.4706
G01 X-38.1115 Y-5.4152
G01 X-38.1981 Y-5.3509
G01 X-38.2781 Y-5.2784
G01 X-38.3506 Y-5.1985
G01 X-38.4148 Y-5.1118
G01 X-38.4703 Y-5.0192
G01 X-38.5165 Y-4.9217
G01 X-38.5528 Y-4.8201
G01 X-38.5790 Y-4.7154
G01 X-38.5949 Y-4.6087
G01 X-38.6002 Y-4.5009
G01 X-38.5949 Y-4.3931
G01 X-38.5790 Y-4.2864
G01 X-38.5528 Y-4.1817
G01 X-38.5165 Y-4.0801
G01 X-38.4703 Y-3.9825
G01 X-38.4148 Y-3.8900
G01 X-38.3506 Y-3.8033
G01 X-38.2781 Y-3.7233
G01 X-38.1981 Y-3.6509
G01 X-38.1115 Y-3.5866
G01 X-38.0189 Y-3.5311
G01 X-37.9214 Y-3.4850
G01 X-37.8198 Y-3.4486
G01 X-37.7151 Y-3.4224
G01 X-37.6083 Y-3.4066
G01 X-37.5006 Y-3.4013
G01 X-37.3928 Y-3.4066
G01 X-37.2860 Y-3.4224
G01 X-37.1814 Y-3.4486
G01 X-37.0798 Y-3.4850
G01 X-36.9822 Y-3.5311
G01 X-36.8897 Y-3.5866
G01 X-36.8030 Y-3.6509
G01 X-36.7230 Y-3.7233
G01 X-36.6506 Y-3.8033
G01 X-36.5863 Y-3.8900
G01 X-36.5308 Y-3.9825
G01 X-36.4847 Y-4.0801
G01 X-36.4483 Y-4.1817
G01 X-36.4221 Y-4.2864
G01 X-36.4063 Y-4.3931
G01 X-36.4010 Y-4.5009
G00 Z2.0000
G00 X-37.0506 Y-4.5009
G01 F60.00
G01 Z-0.5000
G01 F120.00
G01 X-37.0592 Y-4.5887
G01 X-37.0848 Y-4.6731
G01 X-37.1264 Y-4.7509
G01 X-37.1824 Y-4.8191
G01 X-37.2506 Y-4.8750
G01 X-37.3284 Y-4.9166
G01 X-37.4128 Y-4.9422
G01 X-37.5006 Y-4.9509
G01 X-37.5884 Y-4.9422
G01 X-37.6728 Y-4.9166
G01 X-37.7506 Y-4.8750
G01 X-37.8188 Y-4.8191
G01 X-37.8747 Y-4.7509
G01 X-37.9163 Y-4.6731
G01 X-37.9419 Y-4.5887
G01 X-37.9506 Y-4.5009
G01 X-37.9419 Y-4.4131
G01 X-37.9163 Y-4.3287
G01 X-37.8747 Y-4.2509
G01 X-37.8188 Y-4.1827
G01 X-37.7506 Y-4.1267
G01 X-37.6728 Y-4.0851
G01 X-37.5884 Y-4.0595
G01 X-37.5006 Y-4.0509
G01 X-37.4128 Y-4.0595
G01 X-37.3284 Y-4.0851
G01 X-37.2506 Y-4.1267
G01 X-37.1824 Y-4.1827
G01 X-37.1264 Y-4.2509
G01 X-37.0848 Y-4.3287
G01 X-37.0592 Y-4.4131
G01 X-37.0506 Y-4.5009
G00 X-37.0506 Y-4.5009
G01 F60.00
G01 Z-1.0000
G01 F120.00
G01 X-37.0592 Y-4.4131
G01 X-37.0848 Y-4.3287
G01 X-37.1264 Y-4.2509
G01 X-37.1824 Y-4.1827
G01 X-37.2506 Y-4.1267
G01 X-37.3284 Y-4.0851
G01 X-37.4128 Y-4.0595
G01 X-37.5006 Y-4.0509
G01 X-37.5884 Y-4.0595
G01 X-37.6728 Y-4.0851
G01 X-37.7506 Y-4.1267
G01 X-37.8188 Y-4.1827
G01 X-37.8747 Y-4.2509
G01 X-37.9163 Y-4.3287
G01 X-37.9419 Y-4.4131
G01 X-37.9506 Y-4.5009
G01 X-37.9419 Y-4.5887
G01 X-37.9163 Y-4.6731
G01 X-37.8747 Y-4.7509
G01 X-37.8188 Y-4.8191
G01 X-37.7506 Y-4.8750
G01 X-37.6728 Y-4.9166
G01 X-37.5884 Y-4.9422
G01 X-37.5006 Y-4.9509
G01 X-37.4128 Y-4.9422
G01 X-37.3284 Y-4.9166
G01 X-37.2506 Y-4.8750
G01 X-37.1824 Y-4.8191
G01 X-37.1264 Y-4.7509
G01 X-37.0848 Y-4.6731
G01 X-37.0592 Y-4.5887
G01 X-37.0506 Y-4.5009
G00 X-37.0506 Y-4.5009
G01 F60.00
G01 Z-1.5000
G01 F120.00
G01 X-37.0592 Y-4.5887
G01 X-37.0848 Y-4.6731
G01 X-37.1264 Y-4.7509
G01 X-37.1824 Y-4.8191
G01 X-37.2506 Y-4.8750
G01 X-37.3284 Y-4.9166
G01 X-37.4128 Y-4.9422
G01 X-37.5006 Y-4.9509
G01 X-37.5884 Y-4.9422
G01 X-37.6728 Y-4.9166
G01 X-37.7506 Y-4.8750
G01 X-37.8188 Y-4.8191
G01 X-37.8747 Y-4.7509
G01 X-37.9163 Y-4.6731
G01 X-37.9419 Y-4.5887
G01 X-37.9506 Y-4.5009
G01 X-37.9419 Y-4.4131
G01 X-37.9163 Y-4.3287
G01 X-37.8747 Y-4.2509
G01 X-37.8188 Y-4.1827
G01 X-37.7506 Y-4.1267
G01 X-37.6728 Y-4.0851
G01 X-37.5884 Y-4.0595
G01 X-37.5006 Y-4.0509
G01 X-37.4128 Y-4.0595
G01 X-37.3284 Y-4.0851
G01 X-37.2506 Y-4.1267
G01 X-37.1824 Y-4.1827
G01 X-37.1264 Y-4.2509
G01 X-37.0848 Y-4.3287
G01 X-37.0592 Y-4.4131
G01 X-37.0506 Y-4.5009
G00 X-37.0506 Y-4.5009
G01 F60.00
G01 Z-2.0000
G01 F120.00
G01 X-37.0592 Y-4.4131
G01 X-37.0848 Y-4.3287
G01 X-37.1264 Y-4.2509
G01 X-37.1824 Y-4.1827
G01 X-37.2506 Y-4.1267
G01 X-37.3284 Y-4.0851
G01 X-37.4128 Y-4.0595
G01 X-37.5006 Y-4.0509
G01 X-37.5884 Y-4.0595
G01 X-37.6728 Y-4.0851
G01 X-37.7506 Y-4.1267
G01 X-37.8188 Y-4.1827
G01 X-37.8747 Y-4.2509
G01 X-37.9163 Y-4.3287
G01 X-37.9419 Y-4.4131
G01 X-37.9506 Y-4.5009
G01 X-37.9419 Y-4.5887
G01 X-37.9163 Y-4.6731
G01 X-37.8747 Y-4.7509
G01 X-37.8188 Y-4.8191
G01 X-37.7506 Y-4.8750
G01 X-37.6728 Y-4.9166
G01 X-37.5884 Y-4.9422
G01 X-37.5006 Y-4.9509
G01 X-37.4128 Y-4.9422
G01 X-37.3284 Y-4.9166
G01 X-37.2506 Y-4.8750
G01 X-37.1824 Y-4.8191
G01 X-37.1264 Y-4.7509
G01 X-37.0848 Y-4.6731
G01 X-37.0592 Y-4.5887
G01 X-37.0506 Y-4.5009
G00 X-37.0506 Y-4.5009
G01 F60.00
G01 Z-2.5000
G01 F120.00
G01 X-37.0592 Y-4.5887
G01 X-37.0848 Y-4.6731
G01 X-37.1264 Y-4.7509
G01 X-37.1824 Y-4.8191
G01 X-37.2506 Y-4.8750
G01 X-37.3284 Y-4.9166
G01 X-37.4128 Y-4.9422
G01 X-37.5006 Y-4.9509
G01 X-37.5884 Y-4.9422
G01 X-37.6728 Y-4.9166
G01 X-37.7506 Y-4.8750
G01 X-37.8188 Y-4.8191
G01 X-37.8747 Y-4.7509
G01 X-37.9163 Y-4.6731
G01 X-37.9419 Y-4.5887
G01 X-37.9506 Y-4.5009
G01 X-37.9419 Y-4.4131
G01 X-37.9163 Y-4.3287
G01 X-37.8747 Y-4.2509
G01 X-37.8188 Y-4.1827
G01 X-37.7506 Y-4.1267
G01 X-37.6728 Y-4.0851
G01 X-37.5884 Y-4.0595
G01 X-37.5006 Y-4.0509
G01 X-37.4128 Y-4.0595
G01 X-37.3284 Y-4.0851
G01 X-37.2506 Y-4.1267
G01 X-37.1824 Y-4.1827
G01 X-37.1264 Y-4.2509
G01 X-37.0848 Y-4.3287
G01 X-37.0592 Y-4.4131
G01 X-37.0506 Y-4.5009
G00 Z2.0000
G00 X-37.0506 Y-93.4999
G01 F60.00
G01 Z-0.5000
G01 F120.00
G01 X-37.0592 Y-93.5877
G01 X-37.0848 Y-93.6721
G01 X-37.1264 Y-93.7499
G01 X-37.1824 Y-93.8181
G01 X-37.2506 Y-93.8741
G01 X-37.3284 Y-93.9157
G01 X-37.4128 Y-93.9413
G01 X-37.5006 Y-93.9499
G01 X-37.5884 Y-93.9413
G01 X-37.6728 Y-93.9157
G01 X-37.7506 Y-93.8741
G01 X-37.8188 Y-93.8181
G01 X-37.8747 Y-93.7499
G01 X-37.9163 Y-93.6721
G01 X-37.9419 Y-93.5877
G01 X-37.9506 Y-93.4999
G01 X-37.9419 Y-93.4121
G01 X-37.9163 Y-93.3277
G01 X-37.8747 Y-93.2499
G01 X-37.8188 Y-93.1817
G01 X-37.7506 Y-93.1258
G01 X-37.6728 Y-93.0842
G01 X-37.5884 Y-93.0586
G01 X-37.5006 Y-93.0499
G01 X-37.4128 Y-93.0586
G01 X-37.3284 Y-93.0842
G01 X-37.2506 Y-93.1258
G01 X-37.1824 Y-93.1817
G01 X-37.1264 Y-93.2499
G01 X-37.0848 Y-93.3277
G01 X-37.0592 Y-93.4121
G01 X-37.0506 Y-93.4999
G00 X-37.0506 Y-93.4999
G01 F60.00
G01 Z-1.0000
G01 F120.00
G01 X-37.0592 Y-93.4121
G01 X-37.0848 Y-93.3277
G01 X-37.1264 Y-93.2499
G01 X-37.1824 Y-93.1817
G01 X-37.2506 Y-93.1258
G01 X-37.3284 Y-93.0842
G01 X-37.4128 Y-93.0586
G01 X-37.5006 Y-93.0499
G01 X-37.5884 Y-93.0586
G01 X-37.6728 Y-93.0842
G01 X-37.7506 Y-93.1258
G01 X-37.8188 Y-93.1817
G01 X-37.8747 Y-93.2499
G01 X-37.9163 Y-93.3277
G01 X-37.9419 Y-93.4121
G01 X-37.9506 Y-93.4999
G01 X-37.9419 Y-93.5877
G01 X-37.9163 Y-93.6721
G01 X-37.8747 Y-93.7499
G01 X-37.8188 Y-93.8181
G01 X-37.7506 Y-93.8741
G01 X-37.6728 Y-93.9157
G01 X-37.5884 Y-93.9413
G01 X-37.5006 Y-93.9499
G01 X-37.4128 Y-93.9413
G01 X-37.3284 Y-93.9157
G01 X-37.2506 Y-93.8741
G01 X-37.1824 Y-93.8181
G01 X-37.1264 Y-93.7499
G01 X-37.0848 Y-93.6721
G01 X-37.0592 Y-93.5877
G01 X-37.0506 Y-93.4999
G00 X-37.0506 Y-93.4999
G01 F60.00
G01 Z-1.5000
G01 F120.00
G01 X-37.0592 Y-93.5877
G01 X-37.0848 Y-93.6721
G01 X-37.1264 Y-93.7499
G01 X-37.1824 Y-93.8181
G01 X-37.2506 Y-93.8741
G01 X-37.3284 Y-93.9157
G01 X-37.4128 Y-93.9413
G01 X-37.5006 Y-93.9499
G01 X-37.5884 Y-93.9413
G01 X-37.6728 Y-93.9157
G01 X-37.7506 Y-93.8741
G01 X-37.8188 Y-93.8181
G01 X-37.8747 Y-93.7499
G01 X-37.9163 Y-93.6721
G01 X-37.9419 Y-93.5877
G01 X-37.9506 Y-93.4999
G01 X-37.9419 Y-93.4121
G01 X-37.9163 Y-93.3277
G01 X-37.8747 Y-93.2499
G01 X-37.8188 Y-93.1817
G01 X-37.7506 Y-93.1258
G01 X-37.6728 Y-93.0842
G01 X-37.5884 Y-93.0586
G01 X-37.5006 Y-93.0499
G01 X-37.4128 Y-93.0586
G01 X-37.3284 Y-93.0842
G01 X-37.2506 Y-93.1258
G01 X-37.1824 Y-93.1817
G01 X-37.1264 Y-93.2499
G01 X-37.0848 Y-93.3277
G01 X-37.0592 Y-93.4121
G01 X-37.0506 Y-93.4999
G00 X-37.0506 Y-93.4999
G01 F60.00
G01 Z-2.0000
G01 F120.00
G01 X-37.0592 Y-93.4121
G01 X-37.0848 Y-93.3277
G01 X-37.1264 Y-93.2499
G01 X-37.1824 Y-93.1817
G01 X-37.2506 Y-93.1258
G01 X-37.3284 Y-93.0842
G01 X-37.4128 Y-93.0586
G01 X-37.5006 Y-93.0499
G01 X-37.5884 Y-93.0586
G01 X-37.6728 Y-93.0842
G01 X-37.7506 Y-93.1258
G01 X-37.8188 Y-93.1817
G01 X-37.8747 Y-93.2499
G01 X-37.9163 Y-93.3277
G01 X-37.9419 Y-93.4121
G01 X-37.9506 Y-93.4999
G01 X-37.9419 Y-93.5877
G01 X-37.9163 Y-93.6721
G01 X-37.8747 Y-93.7499
G01 X-37.8188 Y-93.8181
G01 X-37.7506 Y-93.8741
G01 X-37.6728 Y-93.9157
G01 X-37.5884 Y-93.9413
G01 X-37.5006 Y-93.9499
G01 X-37.4128 Y-93.9413
G01 X-37.3284 Y-93.9157
G01 X-37.2506 Y-93.8741
G01 X-37.1824 Y-93.8181
G01 X-37.1264 Y-93.7499
G01 X-37.0848 Y-93.6721
G01 X-37.0592 Y-93.5877
G01 X-37.0506 Y-93.4999
G00 X-37.0506 Y-93.4999
G01 F60.00
G01 Z-2.5000
G01 F120.00
G01 X-37.0592 Y-93.5877
G01 X-37.0848 Y-93.6721
G01 X-37.1264 Y-93.7499
G01 X-37.1824 Y-93.8181
G01 X-37.2506 Y-93.8741
G01 X-37.3284 Y-93.9157
G01 X-37.4128 Y-93.9413
G01 X-37.5006 Y-93.9499
G01 X-37.5884 Y-93.9413
G01 X-37.6728 Y-93.9157
G01 X-37.7506 Y-93.8741
G01 X-37.8188 Y-93.8181
G01 X-37.8747 Y-93.7499
G01 X-37.9163 Y-93.6721
G01 X-37.9419 Y-93.5877
G01 X-37.9506 Y-93.4999
G01 X-37.9419 Y-93.4121
G01 X-37.9163 Y-93.3277
G01 X-37.8747 Y-93.2499
G01 X-37.8188 Y-93.1817
G01 X-37.7506 Y-93.1258
G01 X-37.6728 Y-93.0842
G01 X-37.5884 Y-93.0586
G01 X-37.5006 Y-93.0499
G01 X-37.4128 Y-93.0586
G01 X-37.3284 Y-93.0842
G01 X-37.2506 Y-93.1258
G01 X-37.1824 Y-93.1817
G01 X-37.1264 Y-93.2499
G01 X-37.0848 Y-93.3277
G01 X-37.0592 Y-93.4121
G01 X-37.0506 Y-93.4999
G00 Z2.0000
G00 X-36.4010 Y-93.4999
G01 F60.00
G01 Z-0.5000
G01 F120.00
G01 X-36.4063 Y-93.6077
G01 X-36.4221 Y-93.7145
G01 X-36.4483 Y-93.8191
G01 X-36.4847 Y-93.9207
G01 X-36.5308 Y-94.0183
G01 X-36.5863 Y-94.1108
G01 X-36.6506 Y-94.1975
G01 X-36.7230 Y-94.2775
G01 X-36.8030 Y-94.3499
G01 X-36.8897 Y-94.4142
G01 X-36.9822 Y-94.4697
G01 X-37.0798 Y-94.5158
G01 X-37.1814 Y-94.5522
G01 X-37.2860 Y-94.5784
G01 X-37.3928 Y-94.5942
G01 X-37.5006 Y-94.5995
G01 X-37.6083 Y-94.5942
G01 X-37.7151 Y-94.5784
G01 X-37.8198 Y-94.5522
G01 X-37.9214 Y-94.5158
G01 X-38.0189 Y-94.4697
G01 X-38.1115 Y-94.4142
G01 X-38.1981 Y-94.3499
G01 X-38.2781 Y-94.2775
G01 X-38.3506 Y-94.1975
G01 X-38.4148 Y-94.1108
G01 X-38.4703 Y-94.0183
G01 X-38.5165 Y-93.9207
G01 X-38.5528 Y-93.8191
G01 X-38.5790 Y-93.7145
G01 X-38.5949 Y-93.6077
G01 X-38.6002 Y-93.4999
G01 X-38.5949 Y-93.3922
G01 X-38.5790 Y-93.2854
G01 X-38.5528 Y-93.1807
G01 X-38.5165 Y-93.0791
G01 X-38.4703 Y-92.9816
G01 X-38.4148 Y-92.8890
G01 X-38.3506 Y-92.8024
G01 X-38.2781 Y-92.7224
G01 X-38.1981 Y-92.6499
G01 X-38.1115 Y-92.5857
G01 X-38.0189 Y-92.5302
G01 X-37.9214 Y-92.4840
G01 X-37.8198 Y-92.4477
G01 X-37.7151 Y-92.4215
G01 X-37.6083 Y-92.4056
G01 X-37.5006 Y-92.4003
G01 X-37.3928 Y-92.4056
G01 X-37.2860 Y-92.4215
G01 X-37.1814 Y-92.4477
G01 X-37.0798 Y-92.4840
G01 X-36.9822 Y-92.5302
G01 X-36.8897 Y-92.5857
G01 X-36.8030 Y-92.6499
G01 X-36.7230 Y-92.7224
G01 X-36.6506 Y-92.8024
G01 X-36.5863 Y-92.8890
G01 X-36.5308 Y-92.9816
G01 X-36.4847 Y-93.0791
G01 X-36.4483 Y-93.1807
G01 X-36.4221 Y-93.2854
G01 X-36.4063 Y-93.3922
G01 X-36.4010 Y-93.4999
G00 X-36.4010 Y-93.4999
G01 F60.00
G01 Z-1.0000
G01 F120.00
G01 X-36.4063 Y-93.3922
G01 X-36.4221 Y-93.2854
G01 X-36.4483 Y-93.1807
G01 X-36.4847 Y-93.0791
G01 X-36.5308 Y-92.9816
G01 X-36.5863 Y-92.8890
G01 X-36.6506 Y-92.8024
G01 X-36.7230 Y-92.7224
G01 X-36.8030 Y-92.6499
G01 X-36.8897 Y-92.5857
G01 X-36.9822 Y-92.5302
G01 X-37.0798 Y-92.4840
G01 X-37.1814 Y-92.4477
G01 X-37.2860 Y-92.4215
G01 X-37.3928 Y-92.4056
G01 X-37.5006 Y-92.4003
G01 X-37.6083 Y-92.4056
G01 X-37.7151 Y-92.4215
G01 X-37.8198 Y-92.4477
G01 X-37.9214 Y-92.4840
G01 X-38.0189 Y-92.5302
G01 X-38.1115 Y-92.5857
G01 X-38.1981 Y-92.6499
G01 X-38.2781 Y-92.7224
G01 X-38.3506 Y-92.8024
G01 X-38.4148 Y-92.8890
G01 X-38.4703 Y-92.9816
G01 X-38.5165 Y-93.0791
G01 X-38.5528 Y-93.1807
G01 X-38.5790 Y-93.2854
G01 X-38.5949 Y-93.3922
G01 X-38.6002 Y-93.4999
G01 X-38.5949 Y-93.6077
G01 X-38.5790 Y-93.7145
G01 X-38.5528 Y-93.8191
G01 X-38.5165 Y-93.9207
G01 X-38.4703 Y-94.0183
G01 X-38.4148 Y-94.1108
G01 X-38.3506 Y-94.1975
G01 X-38.2781 Y-94.2775
G01 X-38.1981 Y-94.3499
G01 X-38.1115 Y-94.4142
G01 X-38.0189 Y-94.4697
G01 X-37.9214 Y-94.5158
G01 X-37.8198 Y-94.5522
G01 X-37.7151 Y-94.5784
G01 X-37.6083 Y-94.5942
G01 X-37.5006 Y-94.5995
G01 X-37.3928 Y-94.5942
G01 X-37.2860 Y-94.5784
G01 X-37.1814 Y-94.5522
G01 X-37.0798 Y-94.5158
G01 X-36.9822 Y-94.4697
G01 X-36.8897 Y-94.4142
G01 X-36.8030 Y-94.3499
G01 X-36.7230 Y-94.2775
G01 X-36.6506 Y-94.1975
G01 X-36.5863 Y-94.1108
G01 X-36.5308 Y-94.0183
G01 X-36.4847 Y-93.9207
G01 X-36.4483 Y-93.8191
G01 X-36.4221 Y-93.7145
G01 X-36.4063 Y-93.6077
G01 X-36.4010 Y-93.4999
G00 X-36.4010 Y-93.4999
G01 F60.00
G01 Z-1.5000
G01 F120.00
G01 X-36.4063 Y-93.6077
G01 X-36.4221 Y-93.7145
G01 X-36.4483 Y-93.8191
G01 X-36.4847 Y-93.9207
G01 X-36.5308 Y-94.0183
G01 X-36.5863 Y-94.1108
G01 X-36.6506 Y-94.1975
G01 X-36.7230 Y-94.2775
G01 X-36.8030 Y-94.3499
G01 X-36.8897 Y-94.4142
G01 X-36.9822 Y-94.4697
G01 X-37.0798 Y-94.5158
G01 X-37.1814 Y-94.5522
G01 X-37.2860 Y-94.5784
G01 X-37.3928 Y-94.5942
G01 X-37.5006 Y-94.5995
G01 X-37.6083 Y-94.5942
G01 X-37.7151 Y-94.5784
G01 X-37.8198 Y-94.5522
G01 X-37.9214 Y-94.5158
G01 X-38.0189 Y-94.4697
G01 X-38.1115 Y-94.4142
G01 X-38.1981 Y-94.3499
G01 X-38.2781 Y-94.2775
G01 X-38.3506 Y-94.1975
G01 X-38.4148 Y-94.1108
G01 X-38.4703 Y-94.0183
G01 X-38.5165 Y-93.9207
G01 X-38.5528 Y-93.8191
G01 X-38.5790 Y-93.7145
G01 X-38.5949 Y-93.6077
G01 X-38.6002 Y-93.4999
G01 X-38.5949 Y-93.3922
G01 X-38.5790 Y-93.2854
G01 X-38.5528 Y-93.1807
G01 X-38.5165 Y-93.0791
G01 X-38.4703 Y-92.9816
G01 X-38.4148 Y-92.8890
G01 X-38.3506 Y-92.8024
G01 X-38.2781 Y-92.7224
G01 X-38.1981 Y-92.6499
G01 X-38.1115 Y-92.5857
G01 X-38.0189 Y-92.5302
G01 X-37.9214 Y-92.4840
G01 X-37.8198 Y-92.4477
G01 X-37.7151 Y-92.4215
G01 X-37.6083 Y-92.4056
G01 X-37.5006 Y-92.4003
G01 X-37.3928 Y-92.4056
G01 X-37.2860 Y-92.4215
G01 X-37.1814 Y-92.4477
G01 X-37.0798 Y-92.4840
G01 X-36.9822 Y-92.5302
G01 X-36.8897 Y-92.5857
G01 X-36.8030 Y-92.6499
G01 X-36.7230 Y-92.7224
G01 X-36.6506 Y-92.8024
G01 X-36.5863 Y-92.8890
G01 X-36.5308 Y-92.9816
G01 X-36.4847 Y-93.0791
G01 X-36.4483 Y-93.1807
G01 X-36.4221 Y-93.2854
G01 X-36.4063 Y-93.3922
G01 X-36.4010 Y-93.4999
G00 X-36.4010 Y-93.4999
G01 F60.00
G01 Z-2.0000
G01 F120.00
G01 X-36.4063 Y-93.3922
G01 X-36.4221 Y-93.2854
G01 X-36.4483 Y-93.1807
G01 X-36.4847 Y-93.0791
G01 X-36.5308 Y-92.9816
G01 X-36.5863 Y-92.8890
G01 X-36.6506 Y-92.8024
G01 X-36.7230 Y-92.7224
G01 X-36.8030 Y-92.6499
G01 X-36.8897 Y-92.5857
G01 X-36.9822 Y-92.5302
G01 X-37.0798 Y-92.4840
G01 X-37.1814 Y-92.4477
G01 X-37.2860 Y-92.4215
G01 X-37.3928 Y-92.4056
G01 X-37.5006 Y-92.4003
G01 X-37.6083 Y-92.4056
G01 X-37.7151 Y-92.4215
G01 X-37.8198 Y-92.4477
G01 X-37.9214 Y-92.4840
G01 X-38.0189 Y-92.5302
G01 X-38.1115 Y-92.5857
G01 X-38.1981 Y-92.6499
G01 X-38.2781 Y-92.7224
G01 X-38.3506 Y-92.8024
G01 X-38.4148 Y-92.8890
G01 X-38.4703 Y-92.9816
G01 X-38.5165 Y-93.0791
G01 X-38.5528 Y-93.1807
G01 X-38.5790 Y-93.2854
G01 X-38.5949 Y-93.3922
G01 X-38.6002 Y-93.4999
G01 X-38.5949 Y-93.6077
G01 X-38.5790 Y-93.7145
G01 X-38.5528 Y-93.8191
G01 X-38.5165 Y-93.9207
G01 X-38.4703 Y-94.0183
G01 X-38.4148 Y-94.1108
G01 X-38.3506 Y-94.1975
G01 X-38.2781 Y-94.2775
G01 X-38.1981 Y-94.3499
G01 X-38.1115 Y-94.4142
G01 X-38.0189 Y-94.4697
G01 X-37.9214 Y-94.5158
G01 X-37.8198 Y-94.5522
G01 X-37.7151 Y-94.5784
G01 X-37.6083 Y-94.5942
G01 X-37.5006 Y-94.5995
G01 X-37.3928 Y-94.5942
G01 X-37.2860 Y-94.5784
G01 X-37.1814 Y-94.5522
G01 X-37.0798 Y-94.5158
G01 X-36.9822 Y-94.4697
G01 X-36.8897 Y-94.4142
G01 X-36.8030 Y-94.3499
G01 X-36.7230 Y-94.2775
G01 X-36.6506 Y-94.1975
G01 X-36.5863 Y-94.1108
G01 X-36.5308 Y-94.0183
G01 X-36.4847 Y-93.9207
G01 X-36.4483 Y-93.8191
G01 X-36.4221 Y-93.7145
G01 X-36.4063 Y-93.6077
G01 X-36.4010 Y-93.4999
G00 X-36.4010 Y-93.4999
G01 F60.00
G01 Z-2.5000
G01 F120.00
G01 X-36.4063 Y-93.6077
G01 X-36.4221 Y-93.7145
G01 X-36.4483 Y-93.8191
G01 X-36.4847 Y-93.9207
G01 X-36.5308 Y-94.0183
G01 X-36.5863 Y-94.1108
G01 X-36.6506 Y-94.1975
G01 X-36.7230 Y-94.2775
G01 X-36.8030 Y-94.3499
G01 X-36.8897 Y-94.4142
G01 X-36.9822 Y-94.4697
G01 X-37.0798 Y-94.5158
G01 X-37.1814 Y-94.5522
G01 X-37.2860 Y-94.5784
G01 X-37.3928 Y-94.5942
G01 X-37.5006 Y-94.5995
G01 X-37.6083 Y-94.5942
G01 X-37.7151 Y-94.5784
G01 X-37.8198 Y-94.5522
G01 X-37.9214 Y-94.5158
G01 X-38.0189 Y-94.4697
G01 X-38.1115 Y-94.4142
G01 X-38.1981 Y-94.3499
G01 X-38.2781 Y-94.2775
G01 X-38.3506 Y-94.1975
G01 X-38.4148 Y-94.1108
G01 X-38.4703 Y-94.0183
G01 X-38.5165 Y-93.9207
G01 X-38.5528 Y-93.8191
G01 X-38.5790 Y-93.7145
G01 X-38.5949 Y-93.6077
G01 X-38.6002 Y-93.4999
G01 X-38.5949 Y-93.3922
G01 X-38.5790 Y-93.2854
G01 X-38.5528 Y-93.1807
G01 X-38.5165 Y-93.0791
G01 X-38.4703 Y-92.9816
G01 X-38.4148 Y-92.8890
G01 X-38.3506 Y-92.8024
G01 X-38.2781 Y-92.7224
G01 X-38.1981 Y-92.6499
G01 X-38.1115 Y-92.5857
G01 X-38.0189 Y-92.5302
G01 X-37.9214 Y-92.4840
G01 X-37.8198 Y-92.4477
G01 X-37.7151 Y-92.4215
G01 X-37.6083 Y-92.4056
G01 X-37.5006 Y-92.4003
G01 X-37.3928 Y-92.4056
G01 X-37.2860 Y-92.4215
G01 X-37.1814 Y-92.4477
G01 X-37.0798 Y-92.4840
G01 X-36.9822 Y-92.5302
G01 X-36.8897 Y-92.5857
G01 X-36.8030 Y-92.6499
G01 X-36.7230 Y-92.7224
G01 X-36.6506 Y-92.8024
G01 X-36.5863 Y-92.8890
G01 X-36.5308 Y-92.9816
G01 X-36.4847 Y-93.0791
G01 X-36.4483 Y-93.1807
G01 X-36.4221 Y-93.2854
G01 X-36.4063 Y-93.3922
G01 X-36.4010 Y-93.4999
G00 Z2.0000
G00 X-4.0509 Y-93.4999
G01 F60.00
G01 Z-0.5000
G01 F120.00
G01 X-4.0644 Y-93.3906
G01 X-4.0941 Y-93.3075
G01 X-4.1530 Y-93.2145
G01 X-4.2154 Y-93.1521
G01 X-4.3085 Y-93.0931
G01 X-4.3915 Y-93.0634
G01 X-4.4788 Y-93.0505
G01 X-4.5887 Y-93.0586
G01 X-4.6731 Y-93.0842
G01 X-4.7689 Y-93.1385
G01 X-4.8487 Y-93.2145
G01 X-4.8977 Y-93.2878
G01 X-4.9315 Y-93.3693
G01 X-4.9503 Y-93.4779
G01 X-4.9422 Y-93.5877
G01 X-4.9166 Y-93.6721
G01 X-4.8487 Y-93.7854
G01 X-4.8031 Y-93.8334
G01 X-4.7322 Y-93.8859
G01 X-4.6102 Y-93.9365
G01 X-4.5230 Y-93.9494
G01 X-4.4568 Y-93.9478
G01 X-4.3915 Y-93.9365
G01 X-4.3085 Y-93.9067
G01 X-4.2328 Y-93.8614
G01 X-4.1675 Y-93.8021
G01 X-4.1149 Y-93.7313
G01 X-4.0772 Y-93.6515
G01 X-4.0595 Y-93.5877
G01 X-4.0509 Y-93.4999
G01 X-3.4013 Y-93.4999
G01 X-3.4066 Y-93.3922
G01 X-3.4224 Y-93.2854
G01 X-3.4486 Y-93.1807
G01 X-3.4850 Y-93.0791
G01 X-3.5311 Y-92.9816
G01 X-3.5866 Y-92.8890
G01 X-3.6509 Y-92.8024
G01 X-3.7233 Y-92.7224
G01 X-3.8033 Y-92.6499
G01 X-3.8900 Y-92.5857
G01 X-3.9825 Y-92.5302
G01 X-4.0801 Y-92.4840
G01 X-4.1817 Y-92.4477
G01 X-4.2864 Y-92.4215
G01 X-4.3931 Y-92.4056
G01 X-4.5009 Y-92.4003
G01 X-4.6087 Y-92.4056
G01 X-4.7154 Y-92.4215
G01 X-4.8201 Y-92.4477
G01 X-4.9217 Y-92.4840
G01 X-5.0192 Y-92.5302
G01 X-5.1118 Y-92.5857
G01 X-5.1985 Y-92.6499
G01 X-5.2784 Y-92.7224
G01 X-5.3509 Y-92.8024
G01 X-5.4152 Y-92.8890
G01 X-5.4706 Y-92.9816
G01 X-5.5168 Y-93.0791
G01 X-5.5531 Y-93.1807
G01 X-5.5793 Y-93.2854
G01 X-5.5952 Y-93.3922
G01 X-5.6005 Y-93.4999
G01 X-5.5952 Y-93.6077
G01 X-5.5793 Y-93.7145
G01 X-5.5531 Y-93.8191
G01 X-5.5168 Y-93.9207
G01 X-5.4706 Y-94.0183
G01 X-5.4152 Y-94.1108
G01 X-5.3509 Y-94.1975
G01 X-5.2784 Y-94.2775
G01 X-5.1985 Y-94.3499
G01 X-5.1118 Y-94.4142
G01 X-5.0192 Y-94.4697
G01 X-4.9217 Y-94.5158
G01 X-4.8201 Y-94.5522
G01 X-4.7154 Y-94.5784
G01 X-4.6087 Y-94.5942
G01 X-4.5009 Y-94.5995
G01 X-4.3931 Y-94.5942
G01 X-4.2864 Y-94.5784
G01 X-4.1817 Y-94.5522
G01 X-4.0801 Y-94.5158
G01 X-3.9825 Y-94.4697
G01 X-3.8900 Y-94.4142
G01 X-3.8033 Y-94.3499
G01 X-3.7233 Y-94.2775
G01 X-3.6509 Y-94.1975
G01 X-3.5866 Y-94.1108
G01 X-3.5311 Y-94.0183
G01 X-3.4850 Y-93.9207
G01 X-3.4486 Y-93.8191
G01 X-3.4224 Y-93.7145
G01 X-3.4066 Y-93.6077
G01 X-3.4013 Y-93.4999
G00 X-3.4013 Y-93.4999
G01 F60.00
G01 Z-1.0000
G01 F120.00
G01 X-3.4066 Y-93.6077
G01 X-3.4224 Y-93.7145
G01 X-3.4486 Y-93.8191
G01 X-3.4850 Y-93.9207
G01 X-3.5311 Y-94.0183
G01 X-3.5866 Y-94.1108
G01 X-3.6509 Y-94.1975
G01 X-3.7233 Y-94.2775
G01 X-3.8033 Y-94.3499
G01 X-3.8900 Y-94.4142
G01 X-3.9825 Y-94.4697
G01 X-4.0801 Y-94.5158
G01 X-4.1817 Y-94.5522
G01 X-4.2864 Y-94.5784
G01 X-4.3931 Y-94.5942
G01 X-4.5009 Y-94.5995
G01 X-4.6087 Y-94.5942
G01 X-4.7154 Y-94.5784
G01 X-4.8201 Y-94.5522
G01 X-4.9217 Y-94.5158
G01 X-5.0192 Y-94.4697
G01 X-5.1118 Y-94.4142
G01 X-5.1985 Y-94.3499
G01 X-5.2784 Y-94.2775
G01 X-5.3509 Y-94.1975
G01 X-5.4152 Y-94.1108
G01 X-5.4706 Y-94.0183
G01 X-5.5168 Y-93.9207
G01 X-5.5531 Y-93.8191
G01 X-5.5793 Y-93.7145
G01 X-5.5952 Y-93.6077
G01 X-5.6005 Y-93.4999
G01 X-5.5952 Y-93.3922
G01 X-5.5793 Y-93.2854
G01 X-5.5531 Y-93.1807
G01 X-5.5168 Y-93.0791
G01 X-5.4706 Y-92.9816
G01 X-5.4152 Y-92.8890
G01 X-5.3509 Y-92.8024
G01 X-5.2784 Y-92.7224
G01 X-5.1985 Y-92.6499
G01 X-5.1118 Y-92.5857
G01 X-5.0192 Y-92.5302
G01 X-4.9217 Y-92.4840
G01 X-4.8201 Y-92.4477
G01 X-4.7154 Y-92.4215
G01 X-4.6087 Y-92.4056
G01 X-4.5009 Y-92.4003
G01 X-4.3931 Y-92.4056
G01 X-4.2864 Y-92.4215
G01 X-4.1817 Y-92.4477
G01 X-4.0801 Y-92.4840
G01 X-3.9825 Y-92.5302
G01 X-3.8900 Y-92.5857
G01 X-3.8033 Y-92.6499
G01 X-3.7233 Y-92.7224
G01 X-3.6509 Y-92.8024
G01 X-3.5866 Y-92.8890
G01 X-3.5311 Y-92.9816
G01 X-3.4850 Y-93.0791
G01 X-3.4486 Y-93.1807
G01 X-3.4224 Y-93.2854
G01 X-3.4066 Y-93.3922
G01 X-3.4013 Y-93.4999
G01 X-4.0509 Y-93.4999
G01 X-4.0595 Y-93.5877
G01 X-4.0772 Y-93.6515
G01 X-4.1149 Y-93.7313
G01 X-4.1675 Y-93.8021
G01 X-4.2328 Y-93.8614
G01 X-4.3085 Y-93.9067
G01 X-4.3915 Y-93.9365
G01 X-4.4568 Y-93.9478
G01 X-4.5230 Y-93.9494
G01 X-4.6102 Y-93.9365
G01 X-4.7322 Y-93.8859
G01 X-4.8031 Y-93.8334
G01 X-4.8487 Y-93.7854
G01 X-4.9166 Y-93.6721
G01 X-4.9422 Y-93.5877
G01 X-4.9503 Y-93.4779
G01 X-4.9315 Y-93.3693
G01 X-4.8977 Y-93.2878
G01 X-4.8487 Y-93.2145
G01 X-4.7689 Y-93.1385
G01 X-4.6731 Y-93.0842
G01 X-4.5887 Y-93.0586
G01 X-4.4788 Y-93.0505
G01 X-4.3915 Y-93.0634
G01 X-4.3085 Y-93.0931
G01 X-4.2154 Y-93.1521
G01 X-4.1530 Y-93.2145
G01 X-4.0941 Y-93.3075
G01 X-4.0644 Y-93.3906
G01 X-4.0509 Y-93.4999
G00 X-4.0509 Y-93.4999
G01 F60.00
G01 Z-1.5000
G01 F120.00
G01 X-4.0644 Y-93.3906
G01 X-4.0941 Y-93.3075
G01 X-4.1530 Y-93.2145
G01 X-4.2154 Y-93.1521
G01 X-4.3085 Y-93.0931
G01 X-4.3915 Y-93.0634
G01 X-4.4788 Y-93.0505
G01 X-4.5887 Y-93.0586
G01 X-4.6731 Y-93.0842
G01 X-4.7689 Y-93.1385
G01 X-4.8487 Y-93.2145
G01 X-4.8977 Y-93.2878
G01 X-4.9315 Y-93.3693
G01 X-4.9503 Y-93.4779
G01 X-4.9422 Y-93.5877
G01 X-4.9166 Y-93.6721
G01 X-4.8487 Y-93.7854
G01 X-4.8031 Y-93.8334
G01 X-4.7322 Y-93.8859
G01 X-4.6102 Y-93.9365
G01 X-4.5230 Y-93.9494
G01 X-4.4568 Y-93.9478
G01 X-4.3915 Y-93.9365
G01 X-4.3085 Y-93.9067
G01 X-4.2328 Y-93.8614
G01 X-4.1675 Y-93.8021
G01 X-4.1149 Y-93.7313
G01 X-4.0772 Y-93.6515
G01 X-4.0595 Y-93.5877
G01 X-4.0509 Y-93.4999
G01 X-3.4013 Y-93.4999
G01 X-3.4066 Y-93.3922
G01 X-3.4224 Y-93.2854
G01 X-3.4486 Y-93.1807
G01 X-3.4850 Y-93.0791
G01 X-3.5311 Y-92.9816
G01 X-3.5866 Y-92.8890
G01 X-3.6509 Y-92.8024
G01 X-3.7233 Y-92.7224
G01 X-3.8033 Y-92.6499
G01 X-3.8900 Y-92.5857
G01 X-3.9825 Y-92.5302
G01 X-4.0801 Y-92.4840
G01 X-4.1817 Y-92.4477
G01 X-4.2864 Y-92.4215
G01 X-4.3931 Y-92.4056
G01 X-4.5009 Y-92.4003
G01 X-4.6087 Y-92.4056
G01 X-4.7154 Y-92.4215
G01 X-4.8201 Y-92.4477
G01 X-4.9217 Y-92.4840
G01 X-5.0192 Y-92.5302
G01 X-5.1118 Y-92.5857
G01 X-5.1985 Y-92.6499
G01 X-5.2784 Y-92.7224
G01 X-5.3509 Y-92.8024
G01 X-5.4152 Y-92.8890
G01 X-5.4706 Y-92.9816
G01 X-5.5168 Y-93.0791
G01 X-5.5531 Y-93.1807
G01 X-5.5793 Y-93.2854
G01 X-5.5952 Y-93.3922
G01 X-5.6005 Y-93.4999
G01 X-5.5952 Y-93.6077
G01 X-5.5793 Y-93.7145
G01 X-5.5531 Y-93.8191
G01 X-5.5168 Y-93.9207
G01 X-5.4706 Y-94.0183
G01 X-5.4152 Y-94.1108
G01 X-5.3509 Y-94.1975
G01 X-5.2784 Y-94.2775
G01 X-5.1985 Y-94.3499
G01 X-5.1118 Y-94.4142
G01 X-5.0192 Y-94.4697
G01 X-4.9217 Y-94.5158
G01 X-4.8201 Y-94.5522
G01 X-4.7154 Y-94.5784
G01 X-4.6087 Y-94.5942
G01 X-4.5009 Y-94.5995
G01 X-4.3931 Y-94.5942
G01 X-4.2864 Y-94.5784
G01 X-4.1817 Y-94.5522
G01 X-4.0801 Y-94.5158
G01 X-3.9825 Y-94.4697
G01 X-3.8900 Y-94.4142
G01 X-3.8033 Y-94.3499
G01 X-3.7233 Y-94.2775
G01 X-3.6509 Y-94.1975
G01 X-3.5866 Y-94.1108
G01 X-3.5311 Y-94.0183
G01 X-3.4850 Y-93.9207
G01 X-3.4486 Y-93.8191
G01 X-3.4224 Y-93.7145
G01 X-3.4066 Y-93.6077
G01 X-3.4013 Y-93.4999
G00 X-3.4013 Y-93.4999
G01 F60.00
G01 Z-2.0000
G01 F120.00
G01 X-3.4066 Y-93.6077
G01 X-3.4224 Y-93.7145
G01 X-3.4486 Y-93.8191
G01 X-3.4850 Y-93.9207
G01 X-3.5311 Y-94.0183
G01 X-3.5866 Y-94.1108
G01 X-3.6509 Y-94.1975
G01 X-3.7233 Y-94.2775
G01 X-3.8033 Y-94.3499
G01 X-3.8900 Y-94.4142
G01 X-3.9825 Y-94.4697
G01 X-4.0801 Y-94.5158
G01 X-4.1817 Y-94.5522
G01 X-4.2864 Y-94.5784
G01 X-4.3931 Y-94.5942
G01 X-4.5009 Y-94.5995
G01 X-4.6087 Y-94.5942
G01 X-4.7154 Y-94.5784
G01 X-4.8201 Y-94.5522
G01 X-4.9217 Y-94.5158
G01 X-5.0192 Y-94.4697
G01 X-5.1118 Y-94.4142
G01 X-5.1985 Y-94.3499
G01 X-5.2784 Y-94.2775
G01 X-5.3509 Y-94.1975
G01 X-5.4152 Y-94.1108
G01 X-5.4706 Y-94.0183
G01 X-5.5168 Y-93.9207
G01 X-5.5531 Y-93.8191
G01 X-5.5793 Y-93.7145
G01 X-5.5952 Y-93.6077
G01 X-5.6005 Y-93.4999
G01 X-5.5952 Y-93.3922
G01 X-5.5793 Y-93.2854
G01 X-5.5531 Y-93.1807
G01 X-5.5168 Y-93.0791
G01 X-5.4706 Y-92.9816
G01 X-5.4152 Y-92.8890
G01 X-5.3509 Y-92.8024
G01 X-5.2784 Y-92.7224
G01 X-5.1985 Y-92.6499
G01 X-5.1118 Y-92.5857
G01 X-5.0192 Y-92.5302
G01 X-4.9217 Y-92.4840
G01 X-4.8201 Y-92.4477
G01 X-4.7154 Y-92.4215
G01 X-4.6087 Y-92.4056
G01 X-4.5009 Y-92.4003
G01 X-4.3931 Y-92.4056
G01 X-4.2864 Y-92.4215
G01 X-4.1817 Y-92.4477
G01 X-4.0801 Y-92.4840
G01 X-3.9825 Y-92.5302
G01 X-3.8900 Y-92.5857
G01 X-3.8033 Y-92.6499
G01 X-3.7233 Y-92.7224
G01 X-3.6509 Y-92.8024
G01 X-3.5866 Y-92.8890
G01 X-3.5311 Y-92.9816
G01 X-3.4850 Y-93.0791
G01 X-3.4486 Y-93.1807
G01 X-3.4224 Y-93.2854
G01 X-3.4066 Y-93.3922
G01 X-3.4013 Y-93.4999
G01 X-4.0509 Y-93.4999
G01 X-4.0595 Y-93.5877
G01 X-4.0772 Y-93.6515
G01 X-4.1149 Y-93.7313
G01 X-4.1675 Y-93.8021
G01 X-4.2328 Y-93.8614
G01 X-4.3085 Y-93.9067
G01 X-4.3915 Y-93.9365
G01 X-4.4568 Y-93.9478
G01 X-4.5230 Y-93.9494
G01 X-4.6102 Y-93.9365
G01 X-4.7322 Y-93.8859
G01 X-4.8031 Y-93.8334
G01 X-4.8487 Y-93.7854
G01 X-4.9166 Y-93.6721
G01 X-4.9422 Y-93.5877
G01 X-4.9503 Y-93.4779
G01 X-4.9315 Y-93.3693
G01 X-4.8977 Y-93.2878
G01 X-4.8487 Y-93.2145
G01 X-4.7689 Y-93.1385
G01 X-4.6731 Y-93.0842
G01 X-4.5887 Y-93.0586
G01 X-4.4788 Y-93.0505
G01 X-4.3915 Y-93.0634
G01 X-4.3085 Y-93.0931
G01 X-4.2154 Y-93.1521
G01 X-4.1530 Y-93.2145
G01 X-4.0941 Y-93.3075
G01 X-4.0644 Y-93.3906
G01 X-4.0509 Y-93.4999
G00 X-4.0509 Y-93.4999
G01 F60.00
G01 Z-2.5000
G01 F120.00
G01 X-4.0644 Y-93.3906
G01 X-4.0941 Y-93.3075
G01 X-4.1530 Y-93.2145
G01 X-4.2154 Y-93.1521
G01 X-4.3085 Y-93.0931
G01 X-4.3915 Y-93.0634
G01 X-4.4788 Y-93.0505
G01 X-4.5887 Y-93.0586
G01 X-4.6731 Y-93.0842
G01 X-4.7689 Y-93.1385
G01 X-4.8487 Y-93.2145
G01 X-4.8977 Y-93.2878
G01 X-4.9315 Y-93.3693
G01 X-4.9503 Y-93.4779
G01 X-4.9422 Y-93.5877
G01 X-4.9166 Y-93.6721
G01 X-4.8487 Y-93.7854
G01 X-4.8031 Y-93.8334
G01 X-4.7322 Y-93.8859
G01 X-4.6102 Y-93.9365
G01 X-4.5230 Y-93.9494
G01 X-4.4568 Y-93.9478
G01 X-4.3915 Y-93.9365
G01 X-4.3085 Y-93.9067
G01 X-4.2328 Y-93.8614
G01 X-4.1675 Y-93.8021
G01 X-4.1149 Y-93.7313
G01 X-4.0772 Y-93.6515
G01 X-4.0595 Y-93.5877
G01 X-4.0509 Y-93.4999
G01 X-3.4013 Y-93.4999
G01 X-3.4066 Y-93.3922
G01 X-3.4224 Y-93.2854
G01 X-3.4486 Y-93.1807
G01 X-3.4850 Y-93.0791
G01 X-3.5311 Y-92.9816
G01 X-3.5866 Y-92.8890
G01 X-3.6509 Y-92.8024
G01 X-3.7233 Y-92.7224
G01 X-3.8033 Y-92.6499
G01 X-3.8900 Y-92.5857
G01 X-3.9825 Y-92.5302
G01 X-4.0801 Y-92.4840
G01 X-4.1817 Y-92.4477
G01 X-4.2864 Y-92.4215
G01 X-4.3931 Y-92.4056
G01 X-4.5009 Y-92.4003
G01 X-4.6087 Y-92.4056
G01 X-4.7154 Y-92.4215
G01 X-4.8201 Y-92.4477
G01 X-4.9217 Y-92.4840
G01 X-5.0192 Y-92.5302
G01 X-5.1118 Y-92.5857
G01 X-5.1985 Y-92.6499
G01 X-5.2784 Y-92.7224
G01 X-5.3509 Y-92.8024
G01 X-5.4152 Y-92.8890
G01 X-5.4706 Y-92.9816
G01 X-5.5168 Y-93.0791
G01 X-5.5531 Y-93.1807
G01 X-5.5793 Y-93.2854
G01 X-5.5952 Y-93.3922
G01 X-5.6005 Y-93.4999
G01 X-5.5952 Y-93.6077
G01 X-5.5793 Y-93.7145
G01 X-5.5531 Y-93.8191
G01 X-5.5168 Y-93.9207
G01 X-5.4706 Y-94.0183
G01 X-5.4152 Y-94.1108
G01 X-5.3509 Y-94.1975
G01 X-5.2784 Y-94.2775
G01 X-5.1985 Y-94.3499
G01 X-5.1118 Y-94.4142
G01 X-5.0192 Y-94.4697
G01 X-4.9217 Y-94.5158
G01 X-4.8201 Y-94.5522
G01 X-4.7154 Y-94.5784
G01 X-4.6087 Y-94.5942
G01 X-4.5009 Y-94.5995
G01 X-4.3931 Y-94.5942
G01 X-4.2864 Y-94.5784
G01 X-4.1817 Y-94.5522
G01 X-4.0801 Y-94.5158
G01 X-3.9825 Y-94.4697
G01 X-3.8900 Y-94.4142
G01 X-3.8033 Y-94.3499
G01 X-3.7233 Y-94.2775
G01 X-3.6509 Y-94.1975
G01 X-3.5866 Y-94.1108
G01 X-3.5311 Y-94.0183
G01 X-3.4850 Y-93.9207
G01 X-3.4486 Y-93.8191
G01 X-3.4224 Y-93.7145
G01 X-3.4066 Y-93.6077
G01 X-3.4013 Y-93.4999
G00 Z2.0000
M05
G00 Z2.0000
G00 Z15.00
G00 X0.0 Y0.0


