(G-code generated by FlatCAM Evo vUnstable - Version Date: 2022/4/31)

(Name: lasko_ir_remote-Edge_Cuts_cutout_cnc)
(Type: G-code from Geometry)
(Units: MM)

(Created on Wednesday, 20 September 2023 at 07:33)

(This preprocessor is the default preprocessor.)
(It is made to work with MACH3 compatible motion controllers.)

(TOOL DIAMETER: 1.0 mm)
(Feedrate_XY: 120.0 mm/min)
(Feedrate_Z: 60.0 mm/min)
(Feedrate rapids 1500.0 mm/min)

(Z_Cut: -2.5 mm)
(DepthPerCut: 0.5 mm <=>5 passes)
(Z_Move: 2.0 mm)
(Z Start: None mm)
(Z End: 15.0 mm)
(X,Y End: 0.0000, 0.0000 mm)
(Steps per circle: 16)
(Preprocessor Geometry: default)

(X range:  -41.6500 ...   -0.3500  mm)
(Y range:  -97.6500 ...   -0.3500  mm)

(Spindle Speed: 13000.0 RPM)
G21
G90
G94

G01 F120.00
G00 Z2.0000

M03 S13000.0
G4 P1.0
G01 F120.00
G00 X-0.3500 Y-4.5000
G01 F60.00
G01 Z-0.5000
G01 F120.00
G01 X-0.3500 Y-93.5000
G01 X-0.3625 Y-93.6268
G01 X-0.6289 Y-94.9662
G01 X-0.6659 Y-95.0882
G01 X-0.7259 Y-95.2005
G01 X-1.4930 Y-96.3482
G01 X-1.5655 Y-96.4345
G01 X-1.6640 Y-96.5153
G01 X-2.7995 Y-97.2741
G01 X-2.9119 Y-97.3341
G01 X-3.0338 Y-97.3711
G01 X-4.3732 Y-97.6375
G01 X-4.4657 Y-97.6491
G01 X-37.5000 Y-97.6500
G01 X-37.6268 Y-97.6375
G01 X-38.9662 Y-97.3711
G01 X-39.0882 Y-97.3341
G01 X-39.2005 Y-97.2741
G01 X-40.3482 Y-96.5070
G01 X-40.4345 Y-96.4345
G01 X-40.5153 Y-96.3360
G01 X-41.2741 Y-95.2005
G01 X-41.3341 Y-95.0881
G01 X-41.3711 Y-94.9662
G01 X-41.6375 Y-93.6268
G01 X-41.6498 Y-93.5147
G01 X-41.6500 Y-4.5000
G01 X-41.6375 Y-4.3732
G01 X-41.3711 Y-3.0338
G01 X-41.3341 Y-2.9119
G01 X-41.2741 Y-2.7995
G01 X-40.5070 Y-1.6519
G01 X-40.4345 Y-1.5655
G01 X-40.3360 Y-1.4847
G01 X-39.2005 Y-0.7259
G01 X-39.0881 Y-0.6659
G01 X-38.9662 Y-0.6289
G01 X-37.6268 Y-0.3625
G01 X-37.5343 Y-0.3509
G01 X-4.4706 Y-0.3507
G01 X-4.3732 Y-0.3625
G01 X-3.0338 Y-0.6289
G01 X-2.9119 Y-0.6659
G01 X-2.7995 Y-0.7259
G01 X-1.6640 Y-1.4847
G01 X-1.5655 Y-1.5655
G01 X-1.4847 Y-1.6640
G01 X-0.7259 Y-2.7995
G01 X-0.6659 Y-2.9119
G01 X-0.6289 Y-3.0338
G01 X-0.3625 Y-4.3732
G01 X-0.3500 Y-4.5000
G00 X-0.3500 Y-4.5000
G01 F60.00
G01 Z-1.0000
G01 F120.00
G01 X-0.3625 Y-4.3732
G01 X-0.6289 Y-3.0338
G01 X-0.6659 Y-2.9119
G01 X-0.7259 Y-2.7995
G01 X-1.4847 Y-1.6640
G01 X-1.5655 Y-1.5655
G01 X-1.6640 Y-1.4847
G01 X-2.7995 Y-0.7259
G01 X-2.9119 Y-0.6659
G01 X-3.0338 Y-0.6289
G01 X-4.3732 Y-0.3625
G01 X-4.4706 Y-0.3507
G01 X-37.5343 Y-0.3509
G01 X-37.6268 Y-0.3625
G01 X-38.9662 Y-0.6289
G01 X-39.0881 Y-0.6659
G01 X-39.2005 Y-0.7259
G01 X-40.3360 Y-1.4847
G01 X-40.4345 Y-1.5655
G01 X-40.5070 Y-1.6519
G01 X-41.2741 Y-2.7995
G01 X-41.3341 Y-2.9119
G01 X-41.3711 Y-3.0338
G01 X-41.6375 Y-4.3732
G01 X-41.6500 Y-4.5000
G01 X-41.6498 Y-93.5147
G01 X-41.6375 Y-93.6268
G01 X-41.3711 Y-94.9662
G01 X-41.3341 Y-95.0881
G01 X-41.2741 Y-95.2005
G01 X-40.5153 Y-96.3360
G01 X-40.4345 Y-96.4345
G01 X-40.3482 Y-96.5070
G01 X-39.2005 Y-97.2741
G01 X-39.0882 Y-97.3341
G01 X-38.9662 Y-97.3711
G01 X-37.6268 Y-97.6375
G01 X-37.5000 Y-97.6500
G01 X-4.4657 Y-97.6491
G01 X-4.3732 Y-97.6375
G01 X-3.0338 Y-97.3711
G01 X-2.9119 Y-97.3341
G01 X-2.7995 Y-97.2741
G01 X-1.6640 Y-96.5153
G01 X-1.5655 Y-96.4345
G01 X-1.4930 Y-96.3482
G01 X-0.7259 Y-95.2005
G01 X-0.6659 Y-95.0882
G01 X-0.6289 Y-94.9662
G01 X-0.3625 Y-93.6268
G01 X-0.3500 Y-93.5000
G01 X-0.3500 Y-4.5000
G00 X-0.3500 Y-4.5000
G01 F60.00
G01 Z-1.5000
G01 F120.00
G01 X-0.3500 Y-93.5000
G01 X-0.3625 Y-93.6268
G01 X-0.6289 Y-94.9662
G01 X-0.6659 Y-95.0882
G01 X-0.7259 Y-95.2005
G01 X-1.4930 Y-96.3482
G01 X-1.5655 Y-96.4345
G01 X-1.6640 Y-96.5153
G01 X-2.7995 Y-97.2741
G01 X-2.9119 Y-97.3341
G01 X-3.0338 Y-97.3711
G01 X-4.3732 Y-97.6375
G01 X-4.4657 Y-97.6491
G01 X-37.5000 Y-97.6500
G01 X-37.6268 Y-97.6375
G01 X-38.9662 Y-97.3711
G01 X-39.0882 Y-97.3341
G01 X-39.2005 Y-97.2741
G01 X-40.3482 Y-96.5070
G01 X-40.4345 Y-96.4345
G01 X-40.5153 Y-96.3360
G01 X-41.2741 Y-95.2005
G01 X-41.3341 Y-95.0881
G01 X-41.3711 Y-94.9662
G01 X-41.6375 Y-93.6268
G01 X-41.6498 Y-93.5147
G01 X-41.6500 Y-4.5000
G01 X-41.6375 Y-4.3732
G01 X-41.3711 Y-3.0338
G01 X-41.3341 Y-2.9119
G01 X-41.2741 Y-2.7995
G01 X-40.5070 Y-1.6519
G01 X-40.4345 Y-1.5655
G01 X-40.3360 Y-1.4847
G01 X-39.2005 Y-0.7259
G01 X-39.0881 Y-0.6659
G01 X-38.9662 Y-0.6289
G01 X-37.6268 Y-0.3625
G01 X-37.5343 Y-0.3509
G01 X-4.4706 Y-0.3507
G01 X-4.3732 Y-0.3625
G01 X-3.0338 Y-0.6289
G01 X-2.9119 Y-0.6659
G01 X-2.7995 Y-0.7259
G01 X-1.6640 Y-1.4847
G01 X-1.5655 Y-1.5655
G01 X-1.4847 Y-1.6640
G01 X-0.7259 Y-2.7995
G01 X-0.6659 Y-2.9119
G01 X-0.6289 Y-3.0338
G01 X-0.3625 Y-4.3732
G01 X-0.3500 Y-4.5000
G00 X-0.3500 Y-4.5000
G01 F60.00
G01 Z-2.0000
G01 F120.00
G01 X-0.3625 Y-4.3732
G01 X-0.6289 Y-3.0338
G01 X-0.6659 Y-2.9119
G01 X-0.7259 Y-2.7995
G01 X-1.4847 Y-1.6640
G01 X-1.5655 Y-1.5655
G01 X-1.6640 Y-1.4847
G01 X-2.7995 Y-0.7259
G01 X-2.9119 Y-0.6659
G01 X-3.0338 Y-0.6289
G01 X-4.3732 Y-0.3625
G01 X-4.4706 Y-0.3507
G01 X-37.5343 Y-0.3509
G01 X-37.6268 Y-0.3625
G01 X-38.9662 Y-0.6289
G01 X-39.0881 Y-0.6659
G01 X-39.2005 Y-0.7259
G01 X-40.3360 Y-1.4847
G01 X-40.4345 Y-1.5655
G01 X-40.5070 Y-1.6519
G01 X-41.2741 Y-2.7995
G01 X-41.3341 Y-2.9119
G01 X-41.3711 Y-3.0338
G01 X-41.6375 Y-4.3732
G01 X-41.6500 Y-4.5000
G01 X-41.6498 Y-93.5147
G01 X-41.6375 Y-93.6268
G01 X-41.3711 Y-94.9662
G01 X-41.3341 Y-95.0881
G01 X-41.2741 Y-95.2005
G01 X-40.5153 Y-96.3360
G01 X-40.4345 Y-96.4345
G01 X-40.3482 Y-96.5070
G01 X-39.2005 Y-97.2741
G01 X-39.0882 Y-97.3341
G01 X-38.9662 Y-97.3711
G01 X-37.6268 Y-97.6375
G01 X-37.5000 Y-97.6500
G01 X-4.4657 Y-97.6491
G01 X-4.3732 Y-97.6375
G01 X-3.0338 Y-97.3711
G01 X-2.9119 Y-97.3341
G01 X-2.7995 Y-97.2741
G01 X-1.6640 Y-96.5153
G01 X-1.5655 Y-96.4345
G01 X-1.4930 Y-96.3482
G01 X-0.7259 Y-95.2005
G01 X-0.6659 Y-95.0882
G01 X-0.6289 Y-94.9662
G01 X-0.3625 Y-93.6268
G01 X-0.3500 Y-93.5000
G01 X-0.3500 Y-4.5000
G00 X-0.3500 Y-4.5000
G01 F60.00
G01 Z-2.5000
G01 F120.00
G01 X-0.3500 Y-93.5000
G01 X-0.3625 Y-93.6268
G01 X-0.6289 Y-94.9662
G01 X-0.6659 Y-95.0882
G01 X-0.7259 Y-95.2005
G01 X-1.4930 Y-96.3482
G01 X-1.5655 Y-96.4345
G01 X-1.6640 Y-96.5153
G01 X-2.7995 Y-97.2741
G01 X-2.9119 Y-97.3341
G01 X-3.0338 Y-97.3711
G01 X-4.3732 Y-97.6375
G01 X-4.4657 Y-97.6491
G01 X-37.5000 Y-97.6500
G01 X-37.6268 Y-97.6375
G01 X-38.9662 Y-97.3711
G01 X-39.0882 Y-97.3341
G01 X-39.2005 Y-97.2741
G01 X-40.3482 Y-96.5070
G01 X-40.4345 Y-96.4345
G01 X-40.5153 Y-96.3360
G01 X-41.2741 Y-95.2005
G01 X-41.3341 Y-95.0881
G01 X-41.3711 Y-94.9662
G01 X-41.6375 Y-93.6268
G01 X-41.6498 Y-93.5147
G01 X-41.6500 Y-4.5000
G01 X-41.6375 Y-4.3732
G01 X-41.3711 Y-3.0338
G01 X-41.3341 Y-2.9119
G01 X-41.2741 Y-2.7995
G01 X-40.5070 Y-1.6519
G01 X-40.4345 Y-1.5655
G01 X-40.3360 Y-1.4847
G01 X-39.2005 Y-0.7259
G01 X-39.0881 Y-0.6659
G01 X-38.9662 Y-0.6289
G01 X-37.6268 Y-0.3625
G01 X-37.5343 Y-0.3509
G01 X-4.4706 Y-0.3507
G01 X-4.3732 Y-0.3625
G01 X-3.0338 Y-0.6289
G01 X-2.9119 Y-0.6659
G01 X-2.7995 Y-0.7259
G01 X-1.6640 Y-1.4847
G01 X-1.5655 Y-1.5655
G01 X-1.4847 Y-1.6640
G01 X-0.7259 Y-2.7995
G01 X-0.6659 Y-2.9119
G01 X-0.6289 Y-3.0338
G01 X-0.3625 Y-4.3732
G01 X-0.3500 Y-4.5000
G00 Z2.0000
M05
G00 Z2.0000
G00 Z15.00
G00 X0.0 Y0.0


